{
  "type": "map",
  "version": "1.10",
  "tiledversion": "1.12.2",
  "orientation": "orthogonal",
  "renderorder": "right-down",
  "width": 40,
  "height": 23,
  "tilewidth": 16,
  "tileheight": 16,
  "infinite": false,
  "nextlayerid": 6,
  "nextobjectid": 54,
  "backgroundcolor": "#17152f",
  "layers": [
    {
      "id": 1,
      "name": "Ground",
      "type": "tilelayer",
      "width": 40,
      "height": 23,
      "x": 0,
      "y": 0,
      "opacity": 1,
      "visible": true,
      "data": [
        1,
        1,
        1,
        1,
        1,
        1,
        1,
        2,
        2,
        1,
        1,
        1,
        1,
        1,
        1,
        1,
        1,
        1,
        2,
        1,
        1,
        1,
        1,
        1,
        1,
        1,
        1,
        1,
        1,
        1,
        2,
        1,
        1,
        1,
        1,
        1,
        1,
        1,
        2,
        1,
        2,
        1,
        1,
        1,
        1,
        1,
        1,
        1,
        1,
        1,
        1,
        1,
        1,
        1,
        1,
        1,
        1,
        1,
        2,
        1,
        1,
        1,
        1,
        1,
        1,
        1,
        2,
        1,
        1,
        1,
        1,
        1,
        1,
        1,
        2,
        1,
        1,
        2,
        1,
        1,
        1,
        1,
        1,
        1,
        1,
        1,
        1,
        1,
        2,
        1,
        1,
        1,
        1,
        1,
        1,
        2,
        1,
        2,
        1,
        1,
        1,
        1,
        2,
        2,
        1,
        1,
        1,
        1,
        1,
        1,
        1,
        1,
        1,
        1,
        1,
        1,
        1,
        1,
        1,
        1,
        1,
        1,
        1,
        2,
        1,
        1,
        1,
        1,
        1,
        1,
        1,
        1,
        1,
        1,
        1,
        1,
        1,
        1,
        1,
        1,
        1,
        1,
        1,
        1,
        1,
        1,
        1,
        1,
        1,
        1,
        2,
        1,
        1,
        1,
        1,
        1,
        1,
        1,
        1,
        1,
        2,
        1,
        1,
        1,
        1,
        2,
        1,
        1,
        2,
        1,
        1,
        1,
        1,
        1,
        1,
        1,
        2,
        1,
        1,
        1,
        1,
        1,
        1,
        1,
        1,
        1,
        2,
        1,
        1,
        1,
        1,
        2,
        1,
        1,
        1,
        1,
        1,
        1,
        1,
        1,
        2,
        1,
        1,
        1,
        1,
        1,
        1,
        1,
        1,
        1,
        1,
        1,
        1,
        1,
        1,
        1,
        1,
        1,
        1,
        1,
        1,
        1,
        1,
        1,
        1,
        1,
        1,
        1,
        1,
        1,
        1,
        1,
        1,
        1,
        1,
        1,
        1,
        1,
        2,
        2,
        1,
        1,
        1,
        1,
        1,
        1,
        2,
        1,
        1,
        1,
        1,
        1,
        1,
        1,
        1,
        1,
        1,
        2,
        1,
        1,
        1,
        1,
        1,
        1,
        1,
        1,
        1,
        1,
        1,
        2,
        1,
        1,
        1,
        1,
        2,
        1,
        2,
        1,
        1,
        1,
        1,
        1,
        1,
        1,
        1,
        1,
        1,
        1,
        1,
        1,
        1,
        1,
        1,
        1,
        1,
        1,
        1,
        1,
        1,
        1,
        1,
        1,
        1,
        1,
        1,
        1,
        1,
        1,
        1,
        1,
        1,
        1,
        1,
        1,
        1,
        1,
        1,
        1,
        1,
        1,
        2,
        1,
        1,
        1,
        2,
        2,
        1,
        2,
        1,
        1,
        1,
        1,
        1,
        1,
        1,
        1,
        2,
        1,
        1,
        1,
        1,
        1,
        1,
        1,
        1,
        1,
        2,
        1,
        1,
        1,
        1,
        1,
        1,
        2,
        1,
        2,
        1,
        1,
        1,
        1,
        1,
        2,
        1,
        2,
        1,
        1,
        1,
        1,
        2,
        1,
        1,
        1,
        2,
        2,
        1,
        1,
        1,
        1,
        1,
        2,
        2,
        2,
        1,
        1,
        1,
        1,
        1,
        1,
        1,
        2,
        1,
        1,
        1,
        1,
        1,
        1,
        1,
        2,
        1,
        2,
        1,
        1,
        1,
        1,
        1,
        1,
        2,
        1,
        1,
        2,
        1,
        1,
        1,
        1,
        1,
        1,
        1,
        2,
        1,
        1,
        1,
        1,
        1,
        1,
        1,
        2,
        1,
        1,
        1,
        1,
        1,
        1,
        1,
        2,
        2,
        2,
        1,
        1,
        1,
        1,
        2,
        1,
        1,
        2,
        1,
        1,
        1,
        1,
        1,
        1,
        1,
        1,
        1,
        1,
        1,
        1,
        1,
        1,
        2,
        2,
        1,
        1,
        1,
        1,
        2,
        2,
        1,
        1,
        1,
        1,
        1,
        1,
        1,
        1,
        1,
        1,
        1,
        1,
        1,
        1,
        1,
        2,
        2,
        1,
        1,
        1,
        1,
        1,
        1,
        1,
        2,
        1,
        1,
        1,
        1,
        1,
        2,
        2,
        2,
        1,
        1,
        1,
        1,
        1,
        1,
        1,
        2,
        1,
        2,
        1,
        1,
        1,
        1,
        1,
        1,
        1,
        2,
        2,
        1,
        1,
        1,
        1,
        2,
        1,
        1,
        1,
        1,
        1,
        1,
        1,
        1,
        1,
        1,
        1,
        1,
        1,
        1,
        1,
        1,
        1,
        1,
        1,
        1,
        1,
        1,
        1,
        1,
        1,
        1,
        2,
        1,
        1,
        2,
        1,
        2,
        1,
        1,
        1,
        1,
        1,
        1,
        1,
        1,
        1,
        1,
        1,
        1,
        1,
        1,
        1,
        1,
        1,
        1,
        1,
        2,
        1,
        1,
        1,
        1,
        1,
        1,
        1,
        1,
        1,
        1,
        1,
        1,
        1,
        1,
        2,
        1,
        1,
        1,
        2,
        1,
        2,
        1,
        1,
        1,
        1,
        1,
        1,
        1,
        1,
        1,
        1,
        1,
        1,
        1,
        1,
        1,
        1,
        1,
        1,
        1,
        1,
        1,
        1,
        1,
        1,
        1,
        2,
        1,
        1,
        1,
        1,
        1,
        1,
        1,
        1,
        1,
        1,
        2,
        1,
        1,
        1,
        1,
        1,
        1,
        1,
        2,
        1,
        1,
        1,
        1,
        1,
        1,
        1,
        1,
        1,
        1,
        1,
        1,
        1,
        2,
        1,
        1,
        1,
        1,
        1,
        1,
        2,
        1,
        1,
        1,
        1,
        1,
        2,
        1,
        1,
        1,
        1,
        1,
        2,
        1,
        1,
        1,
        2,
        1,
        1,
        1,
        2,
        2,
        1,
        1,
        1,
        1,
        1,
        1,
        1,
        1,
        2,
        1,
        1,
        1,
        1,
        1,
        1,
        1,
        1,
        1,
        1,
        2,
        1,
        1,
        1,
        1,
        1,
        1,
        1,
        1,
        1,
        1,
        1,
        1,
        1,
        1,
        1,
        1,
        1,
        1,
        1,
        1,
        1,
        1,
        1,
        1,
        1,
        1,
        1,
        1,
        1,
        2,
        1,
        1,
        1,
        1,
        1,
        1,
        1,
        1,
        1,
        1,
        1,
        2,
        1,
        1,
        1,
        1,
        1,
        1,
        1,
        1,
        1,
        7,
        7,
        7,
        7,
        7,
        7,
        1,
        1,
        1,
        1,
        1,
        1,
        1,
        1,
        1,
        1,
        1,
        1,
        1,
        2,
        1,
        1,
        1,
        1,
        1,
        1,
        1,
        1,
        1,
        1,
        1,
        7,
        7,
        7,
        7,
        7,
        7,
        7,
        7,
        7,
        6,
        6,
        6,
        6,
        6,
        6,
        2,
        1,
        1,
        1,
        1,
        1,
        1,
        1,
        2,
        1,
        1,
        1,
        1,
        1,
        1,
        1,
        2,
        2,
        7,
        7,
        7,
        7,
        7,
        7,
        7,
        6,
        6,
        6,
        6,
        6,
        6,
        6,
        6,
        6,
        6,
        6,
        6,
        6,
        6,
        6,
        1,
        1,
        2,
        1,
        1,
        1,
        2,
        2,
        1,
        1,
        1,
        1,
        1,
        1,
        1,
        1,
        1,
        1,
        6,
        6,
        6,
        6,
        6,
        6,
        6,
        6,
        6,
        6,
        6,
        6,
        6,
        6,
        6,
        6,
        6,
        6,
        6,
        6,
        6,
        6,
        1,
        1,
        1,
        1,
        1,
        1,
        1,
        1,
        1,
        1,
        1,
        1,
        1,
        1,
        1,
        1,
        1,
        1,
        6,
        6,
        6,
        6,
        6,
        6,
        6,
        6,
        6,
        6,
        6,
        6,
        6,
        6,
        6,
        6,
        6,
        6,
        6,
        6,
        6,
        6
      ]
    },
    {
      "id": 2,
      "name": "Paths and Plaza",
      "type": "tilelayer",
      "width": 40,
      "height": 23,
      "x": 0,
      "y": 0,
      "opacity": 1,
      "visible": true,
      "data": [
        0,
        0,
        0,
        0,
        0,
        0,
        0,
        0,
        0,
        0,
        0,
        0,
        0,
        0,
        0,
        0,
        0,
        0,
        0,
        0,
        0,
        0,
        0,
        0,
        0,
        0,
        0,
        0,
        0,
        0,
        0,
        0,
        0,
        0,
        0,
        0,
        0,
        0,
        0,
        0,
        0,
        0,
        0,
        0,
        0,
        0,
        0,
        0,
        0,
        0,
        0,
        0,
        0,
        0,
        0,
        0,
        0,
        0,
        0,
        0,
        0,
        0,
        0,
        0,
        0,
        0,
        0,
        0,
        0,
        0,
        0,
        0,
        0,
        0,
        0,
        0,
        0,
        0,
        0,
        0,
        0,
        0,
        0,
        0,
        0,
        0,
        0,
        0,
        0,
        0,
        0,
        0,
        0,
        0,
        0,
        0,
        0,
        0,
        0,
        0,
        0,
        0,
        0,
        0,
        0,
        0,
        0,
        0,
        0,
        0,
        0,
        0,
        0,
        0,
        0,
        0,
        0,
        0,
        0,
        0,
        0,
        0,
        0,
        0,
        0,
        0,
        0,
        0,
        0,
        0,
        0,
        0,
        0,
        0,
        0,
        0,
        0,
        0,
        0,
        3,
        3,
        0,
        0,
        0,
        0,
        0,
        0,
        0,
        0,
        0,
        0,
        0,
        0,
        0,
        0,
        0,
        0,
        0,
        0,
        0,
        0,
        0,
        0,
        0,
        0,
        0,
        0,
        0,
        0,
        0,
        0,
        0,
        0,
        0,
        0,
        0,
        0,
        0,
        0,
        3,
        3,
        0,
        0,
        0,
        0,
        0,
        0,
        0,
        0,
        0,
        0,
        0,
        0,
        0,
        0,
        0,
        0,
        0,
        0,
        0,
        0,
        0,
        0,
        0,
        0,
        0,
        0,
        0,
        0,
        0,
        0,
        0,
        0,
        0,
        0,
        0,
        0,
        0,
        0,
        3,
        3,
        0,
        0,
        0,
        0,
        0,
        0,
        0,
        0,
        0,
        0,
        0,
        0,
        0,
        0,
        0,
        0,
        0,
        0,
        0,
        0,
        0,
        0,
        0,
        0,
        0,
        0,
        0,
        0,
        0,
        0,
        0,
        0,
        0,
        0,
        0,
        0,
        0,
        0,
        3,
        3,
        0,
        0,
        0,
        0,
        0,
        0,
        0,
        0,
        0,
        0,
        0,
        0,
        0,
        0,
        0,
        0,
        0,
        0,
        0,
        0,
        0,
        0,
        0,
        0,
        0,
        0,
        0,
        0,
        0,
        0,
        0,
        0,
        0,
        0,
        0,
        0,
        0,
        0,
        3,
        3,
        0,
        0,
        0,
        0,
        0,
        0,
        0,
        0,
        0,
        0,
        0,
        0,
        0,
        0,
        0,
        0,
        0,
        0,
        0,
        0,
        0,
        0,
        0,
        0,
        0,
        0,
        0,
        0,
        0,
        0,
        0,
        0,
        0,
        0,
        0,
        0,
        0,
        4,
        4,
        4,
        4,
        0,
        0,
        0,
        0,
        0,
        0,
        0,
        0,
        0,
        0,
        0,
        0,
        0,
        0,
        0,
        0,
        0,
        0,
        0,
        0,
        0,
        0,
        0,
        0,
        0,
        0,
        0,
        0,
        0,
        0,
        0,
        0,
        0,
        0,
        4,
        4,
        4,
        4,
        4,
        4,
        4,
        4,
        0,
        0,
        0,
        0,
        0,
        0,
        0,
        0,
        0,
        0,
        0,
        0,
        0,
        0,
        0,
        0,
        0,
        0,
        0,
        0,
        0,
        0,
        0,
        0,
        3,
        3,
        3,
        3,
        3,
        3,
        3,
        3,
        4,
        4,
        4,
        4,
        4,
        4,
        4,
        4,
        3,
        3,
        3,
        3,
        3,
        3,
        3,
        3,
        3,
        3,
        3,
        0,
        0,
        0,
        0,
        0,
        0,
        0,
        0,
        0,
        0,
        0,
        0,
        0,
        3,
        3,
        3,
        3,
        3,
        3,
        3,
        3,
        4,
        4,
        4,
        4,
        4,
        4,
        4,
        4,
        3,
        3,
        3,
        3,
        3,
        3,
        3,
        3,
        3,
        3,
        3,
        0,
        0,
        0,
        0,
        0,
        0,
        0,
        0,
        0,
        0,
        0,
        0,
        0,
        0,
        0,
        0,
        0,
        0,
        0,
        0,
        0,
        4,
        4,
        4,
        4,
        4,
        4,
        4,
        4,
        0,
        0,
        0,
        0,
        0,
        0,
        0,
        3,
        0,
        0,
        0,
        0,
        0,
        0,
        0,
        0,
        0,
        0,
        0,
        0,
        0,
        0,
        0,
        0,
        0,
        0,
        0,
        0,
        0,
        0,
        0,
        0,
        4,
        4,
        4,
        4,
        4,
        4,
        4,
        4,
        0,
        0,
        0,
        0,
        0,
        0,
        0,
        3,
        0,
        0,
        0,
        0,
        0,
        0,
        0,
        0,
        0,
        0,
        0,
        0,
        0,
        0,
        0,
        0,
        0,
        0,
        0,
        0,
        0,
        0,
        0,
        0,
        0,
        0,
        4,
        4,
        4,
        4,
        0,
        0,
        0,
        0,
        0,
        0,
        0,
        0,
        0,
        3,
        0,
        0,
        0,
        0,
        0,
        0,
        0,
        0,
        0,
        0,
        0,
        0,
        0,
        0,
        0,
        0,
        0,
        0,
        0,
        0,
        0,
        0,
        0,
        0,
        0,
        0,
        0,
        3,
        3,
        0,
        0,
        0,
        0,
        0,
        0,
        0,
        0,
        0,
        0,
        3,
        0,
        0,
        0,
        0,
        0,
        0,
        0,
        0,
        0,
        0,
        0,
        0,
        0,
        3,
        3,
        3,
        3,
        3,
        3,
        3,
        3,
        3,
        3,
        3,
        3,
        3,
        3,
        3,
        3,
        3,
        3,
        3,
        3,
        3,
        3,
        3,
        3,
        3,
        3,
        3,
        3,
        3,
        3,
        3,
        0,
        0,
        0,
        0,
        0,
        0,
        0,
        0,
        0,
        0,
        0,
        0,
        0,
        0,
        0,
        0,
        0,
        0,
        0,
        0,
        0,
        0,
        0,
        3,
        3,
        0,
        0,
        0,
        0,
        0,
        0,
        0,
        0,
        0,
        0,
        3,
        0,
        0,
        0,
        0,
        0,
        0,
        0,
        0,
        0,
        0,
        0,
        0,
        0,
        0,
        0,
        0,
        0,
        0,
        0,
        0,
        0,
        0,
        0,
        0,
        0,
        0,
        0,
        3,
        3,
        0,
        0,
        0,
        0,
        0,
        0,
        0,
        0,
        0,
        0,
        0,
        0,
        0,
        0,
        0,
        0,
        0,
        0,
        0,
        0,
        0,
        0,
        0,
        0,
        0,
        0,
        0,
        0,
        0,
        0,
        0,
        0,
        0,
        0,
        0,
        0,
        0,
        0,
        3,
        3,
        0,
        0,
        0,
        0,
        0,
        0,
        0,
        0,
        0,
        0,
        0,
        0,
        0,
        0,
        0,
        0,
        0,
        0,
        0,
        0,
        0,
        0,
        0,
        0,
        0,
        0,
        0,
        0,
        0,
        0,
        0,
        0,
        0,
        0,
        0,
        0,
        0,
        0,
        0,
        0,
        0,
        0,
        0,
        0,
        0,
        0,
        0,
        0,
        0,
        0,
        0,
        0,
        0,
        0,
        0,
        0,
        0,
        0,
        0,
        0,
        0,
        0,
        0,
        0,
        0,
        0,
        0,
        0,
        0,
        0,
        0,
        0,
        0,
        0,
        0,
        0,
        0,
        0,
        0,
        0,
        0,
        0,
        0,
        0,
        0,
        0,
        0,
        0,
        0,
        0,
        0,
        0,
        0,
        0,
        0,
        0,
        0,
        0,
        0,
        0,
        0,
        0,
        0,
        0,
        0,
        0,
        0,
        0,
        0,
        0,
        0,
        0,
        0,
        0,
        0,
        0,
        0,
        0,
        0,
        0,
        0,
        0,
        0,
        0,
        0,
        0,
        0,
        0,
        0,
        0,
        0,
        0,
        0,
        0,
        0,
        0,
        0,
        0,
        0
      ]
    },
    {
      "id": 3,
      "name": "Fields and Landing Pad",
      "type": "tilelayer",
      "width": 40,
      "height": 23,
      "x": 0,
      "y": 0,
      "opacity": 1,
      "visible": true,
      "data": [
        0,
        0,
        0,
        0,
        0,
        0,
        0,
        0,
        0,
        0,
        0,
        0,
        0,
        0,
        0,
        0,
        0,
        0,
        0,
        0,
        0,
        0,
        0,
        0,
        0,
        0,
        0,
        0,
        0,
        0,
        0,
        0,
        0,
        0,
        0,
        0,
        0,
        0,
        0,
        0,
        0,
        0,
        0,
        0,
        0,
        0,
        0,
        0,
        0,
        0,
        0,
        0,
        0,
        0,
        0,
        0,
        0,
        0,
        0,
        0,
        0,
        0,
        0,
        0,
        0,
        0,
        0,
        0,
        0,
        0,
        0,
        0,
        0,
        0,
        0,
        0,
        0,
        0,
        0,
        0,
        0,
        0,
        0,
        0,
        0,
        0,
        0,
        0,
        0,
        0,
        0,
        0,
        0,
        0,
        0,
        0,
        0,
        0,
        0,
        0,
        0,
        0,
        0,
        0,
        0,
        0,
        0,
        0,
        0,
        0,
        0,
        0,
        0,
        0,
        0,
        0,
        0,
        0,
        0,
        0,
        0,
        0,
        0,
        0,
        0,
        0,
        0,
        0,
        0,
        0,
        0,
        0,
        0,
        0,
        0,
        0,
        0,
        0,
        0,
        0,
        0,
        0,
        0,
        0,
        0,
        0,
        0,
        0,
        0,
        0,
        0,
        0,
        0,
        0,
        0,
        0,
        0,
        0,
        0,
        0,
        0,
        0,
        0,
        0,
        0,
        0,
        0,
        0,
        0,
        0,
        0,
        0,
        0,
        0,
        0,
        0,
        0,
        0,
        0,
        0,
        0,
        0,
        0,
        10,
        11,
        10,
        11,
        10,
        0,
        0,
        0,
        0,
        0,
        0,
        0,
        0,
        0,
        0,
        0,
        0,
        0,
        0,
        0,
        0,
        0,
        0,
        0,
        0,
        0,
        0,
        0,
        0,
        0,
        0,
        0,
        0,
        0,
        0,
        0,
        0,
        0,
        0,
        0,
        10,
        11,
        10,
        11,
        10,
        0,
        0,
        0,
        0,
        0,
        0,
        0,
        0,
        0,
        0,
        0,
        0,
        0,
        0,
        0,
        0,
        0,
        0,
        0,
        0,
        0,
        0,
        0,
        0,
        0,
        0,
        0,
        0,
        0,
        0,
        0,
        0,
        0,
        0,
        0,
        10,
        11,
        10,
        11,
        10,
        0,
        0,
        0,
        0,
        0,
        0,
        0,
        0,
        0,
        0,
        0,
        0,
        0,
        0,
        0,
        0,
        0,
        0,
        0,
        0,
        0,
        0,
        0,
        0,
        0,
        0,
        0,
        0,
        0,
        0,
        0,
        0,
        0,
        0,
        0,
        0,
        0,
        0,
        0,
        0,
        0,
        0,
        0,
        0,
        0,
        0,
        0,
        0,
        0,
        0,
        0,
        0,
        0,
        0,
        0,
        0,
        0,
        0,
        0,
        0,
        0,
        0,
        0,
        0,
        0,
        0,
        0,
        0,
        0,
        0,
        0,
        0,
        0,
        0,
        0,
        0,
        0,
        0,
        0,
        0,
        0,
        0,
        0,
        0,
        0,
        0,
        0,
        0,
        0,
        0,
        0,
        0,
        0,
        0,
        0,
        0,
        0,
        0,
        0,
        0,
        0,
        0,
        0,
        0,
        0,
        0,
        0,
        0,
        0,
        0,
        0,
        0,
        0,
        0,
        0,
        0,
        0,
        0,
        0,
        0,
        0,
        0,
        0,
        0,
        0,
        0,
        0,
        0,
        0,
        0,
        0,
        0,
        0,
        0,
        0,
        0,
        0,
        0,
        0,
        0,
        0,
        0,
        0,
        0,
        0,
        0,
        0,
        0,
        0,
        0,
        0,
        0,
        0,
        0,
        0,
        0,
        0,
        0,
        0,
        0,
        0,
        0,
        0,
        0,
        0,
        0,
        0,
        0,
        0,
        0,
        0,
        0,
        0,
        0,
        0,
        0,
        0,
        0,
        0,
        0,
        0,
        0,
        0,
        0,
        0,
        0,
        0,
        0,
        0,
        0,
        0,
        0,
        0,
        0,
        0,
        0,
        0,
        0,
        0,
        0,
        0,
        0,
        0,
        0,
        0,
        0,
        0,
        0,
        0,
        0,
        0,
        0,
        0,
        0,
        0,
        0,
        0,
        0,
        0,
        0,
        0,
        0,
        0,
        0,
        0,
        0,
        0,
        0,
        0,
        0,
        0,
        0,
        0,
        0,
        0,
        0,
        0,
        0,
        0,
        0,
        0,
        0,
        0,
        0,
        0,
        0,
        0,
        0,
        0,
        0,
        0,
        0,
        0,
        0,
        0,
        0,
        0,
        0,
        0,
        0,
        0,
        0,
        0,
        0,
        0,
        0,
        0,
        0,
        0,
        0,
        0,
        0,
        0,
        0,
        0,
        0,
        0,
        0,
        0,
        0,
        0,
        0,
        0,
        0,
        0,
        0,
        0,
        0,
        0,
        0,
        0,
        0,
        0,
        0,
        0,
        0,
        0,
        0,
        0,
        0,
        0,
        0,
        0,
        0,
        0,
        0,
        0,
        0,
        0,
        0,
        0,
        0,
        0,
        0,
        0,
        0,
        0,
        0,
        0,
        0,
        0,
        0,
        0,
        0,
        0,
        0,
        0,
        0,
        0,
        0,
        0,
        0,
        0,
        0,
        0,
        0,
        0,
        10,
        11,
        11,
        12,
        12,
        9,
        9,
        10,
        10,
        11,
        0,
        0,
        0,
        0,
        0,
        0,
        0,
        0,
        0,
        0,
        0,
        0,
        0,
        0,
        0,
        0,
        0,
        0,
        0,
        0,
        0,
        0,
        0,
        0,
        0,
        0,
        0,
        0,
        0,
        0,
        11,
        12,
        12,
        9,
        9,
        10,
        10,
        11,
        11,
        12,
        0,
        0,
        0,
        0,
        0,
        0,
        0,
        0,
        0,
        0,
        0,
        0,
        0,
        0,
        0,
        0,
        0,
        0,
        0,
        0,
        0,
        0,
        0,
        0,
        0,
        0,
        0,
        0,
        0,
        0,
        12,
        9,
        9,
        10,
        10,
        11,
        11,
        12,
        12,
        9,
        0,
        0,
        0,
        0,
        0,
        0,
        0,
        0,
        0,
        0,
        0,
        0,
        0,
        0,
        8,
        8,
        8,
        8,
        8,
        8,
        8,
        0,
        0,
        0,
        0,
        0,
        0,
        0,
        0,
        0,
        9,
        10,
        10,
        11,
        11,
        12,
        12,
        9,
        9,
        10,
        0,
        0,
        0,
        0,
        0,
        0,
        0,
        0,
        0,
        0,
        0,
        0,
        0,
        0,
        8,
        8,
        8,
        8,
        8,
        8,
        8,
        0,
        0,
        0,
        0,
        0,
        0,
        0,
        0,
        0,
        10,
        11,
        11,
        12,
        12,
        9,
        9,
        10,
        10,
        11,
        0,
        0,
        0,
        0,
        0,
        0,
        0,
        0,
        0,
        0,
        0,
        0,
        0,
        0,
        8,
        8,
        8,
        8,
        8,
        8,
        8,
        0,
        0,
        0,
        0,
        0,
        0,
        0,
        0,
        0,
        0,
        0,
        0,
        0,
        0,
        0,
        0,
        0,
        0,
        0,
        0,
        0,
        0,
        0,
        0,
        0,
        0,
        0,
        0,
        0,
        0,
        0,
        0,
        0,
        0,
        0,
        0,
        0,
        0,
        0,
        0,
        0,
        0,
        0,
        0,
        0,
        0,
        0,
        0,
        0,
        0,
        0,
        0,
        0,
        0,
        0,
        0,
        0,
        0,
        0,
        0,
        0,
        0,
        0,
        0,
        0,
        0,
        0,
        0,
        0,
        0,
        0,
        0,
        0,
        0,
        0,
        0,
        0,
        0,
        0,
        0,
        0,
        0,
        0,
        0,
        0,
        0,
        0,
        0,
        0,
        0,
        0,
        0,
        0,
        0,
        0,
        0,
        0,
        0,
        0,
        0,
        0,
        0,
        0,
        0,
        0,
        0,
        0,
        0,
        0,
        0,
        0,
        0,
        0,
        0,
        0,
        0,
        0,
        0,
        0,
        0,
        0,
        0,
        0,
        0
      ]
    },
    {
      "id": 4,
      "name": "Buildings Characters and Props",
      "type": "objectgroup",
      "draworder": "topdown",
      "opacity": 1,
      "visible": true,
      "x": 0,
      "y": 0,
      "objects": [
        {
          "id": 1,
          "name": "tree1",
          "type": "concept_object",
          "gid": 108,
          "x": 2,
          "y": 70,
          "width": 32,
          "height": 48,
          "rotation": 0,
          "visible": true
        },
        {
          "id": 2,
          "name": "tree2",
          "type": "concept_object",
          "gid": 109,
          "x": 30,
          "y": 80,
          "width": 32,
          "height": 48,
          "rotation": 0,
          "visible": true
        },
        {
          "id": 3,
          "name": "tree1",
          "type": "concept_object",
          "gid": 108,
          "x": 58,
          "y": 68,
          "width": 32,
          "height": 48,
          "rotation": 0,
          "visible": true
        },
        {
          "id": 4,
          "name": "tree2",
          "type": "concept_object",
          "gid": 109,
          "x": 86,
          "y": 76,
          "width": 32,
          "height": 48,
          "rotation": 0,
          "visible": true
        },
        {
          "id": 5,
          "name": "tree2",
          "type": "concept_object",
          "gid": 109,
          "x": 5,
          "y": 118,
          "width": 32,
          "height": 48,
          "rotation": 0,
          "visible": true
        },
        {
          "id": 6,
          "name": "tree1",
          "type": "concept_object",
          "gid": 108,
          "x": 42,
          "y": 130,
          "width": 32,
          "height": 48,
          "rotation": 0,
          "visible": true
        },
        {
          "id": 7,
          "name": "tree1",
          "type": "concept_object",
          "gid": 108,
          "x": 76,
          "y": 125,
          "width": 32,
          "height": 48,
          "rotation": 0,
          "visible": true
        },
        {
          "id": 8,
          "name": "tree1",
          "type": "concept_object",
          "gid": 108,
          "x": 8,
          "y": 176,
          "width": 32,
          "height": 48,
          "rotation": 0,
          "visible": true
        },
        {
          "id": 9,
          "name": "tree2",
          "type": "concept_object",
          "gid": 109,
          "x": 48,
          "y": 188,
          "width": 32,
          "height": 48,
          "rotation": 0,
          "visible": true
        },
        {
          "id": 10,
          "name": "tree1",
          "type": "concept_object",
          "gid": 108,
          "x": 82,
          "y": 180,
          "width": 32,
          "height": 48,
          "rotation": 0,
          "visible": true
        },
        {
          "id": 11,
          "name": "tree2",
          "type": "concept_object",
          "gid": 109,
          "x": 20,
          "y": 232,
          "width": 32,
          "height": 48,
          "rotation": 0,
          "visible": true
        },
        {
          "id": 12,
          "name": "tree1",
          "type": "concept_object",
          "gid": 108,
          "x": 60,
          "y": 240,
          "width": 32,
          "height": 48,
          "rotation": 0,
          "visible": true
        },
        {
          "id": 13,
          "name": "tree2",
          "type": "concept_object",
          "gid": 109,
          "x": 90,
          "y": 224,
          "width": 32,
          "height": 48,
          "rotation": 0,
          "visible": true
        },
        {
          "id": 14,
          "name": "tree1",
          "type": "concept_object",
          "gid": 108,
          "x": 2,
          "y": 285,
          "width": 32,
          "height": 48,
          "rotation": 0,
          "visible": true
        },
        {
          "id": 15,
          "name": "tree2",
          "type": "concept_object",
          "gid": 109,
          "x": 38,
          "y": 300,
          "width": 32,
          "height": 48,
          "rotation": 0,
          "visible": true
        },
        {
          "id": 16,
          "name": "tree1",
          "type": "concept_object",
          "gid": 108,
          "x": 78,
          "y": 290,
          "width": 32,
          "height": 48,
          "rotation": 0,
          "visible": true
        },
        {
          "id": 17,
          "name": "tree2",
          "type": "concept_object",
          "gid": 109,
          "x": 570,
          "y": 74,
          "width": 32,
          "height": 48,
          "rotation": 0,
          "visible": true
        },
        {
          "id": 18,
          "name": "tree1",
          "type": "concept_object",
          "gid": 108,
          "x": 604,
          "y": 100,
          "width": 32,
          "height": 48,
          "rotation": 0,
          "visible": true
        },
        {
          "id": 19,
          "name": "tree2",
          "type": "concept_object",
          "gid": 109,
          "x": 584,
          "y": 145,
          "width": 32,
          "height": 48,
          "rotation": 0,
          "visible": true
        },
        {
          "id": 20,
          "name": "tree1",
          "type": "concept_object",
          "gid": 108,
          "x": 612,
          "y": 190,
          "width": 32,
          "height": 48,
          "rotation": 0,
          "visible": true
        },
        {
          "id": 21,
          "name": "forest_sign",
          "type": "concept_object",
          "gid": 120,
          "x": 80,
          "y": 185,
          "width": 48,
          "height": 32,
          "rotation": 0,
          "visible": true
        },
        {
          "id": 22,
          "name": "cottage_red",
          "type": "concept_object",
          "gid": 100,
          "x": 118,
          "y": 112,
          "width": 64,
          "height": 56,
          "rotation": 0,
          "visible": true
        },
        {
          "id": 23,
          "name": "two_storey",
          "type": "concept_object",
          "gid": 102,
          "x": 205,
          "y": 113,
          "width": 64,
          "height": 72,
          "rotation": 0,
          "visible": true
        },
        {
          "id": 24,
          "name": "shack",
          "type": "concept_object",
          "gid": 103,
          "x": 120,
          "y": 208,
          "width": 48,
          "height": 40,
          "rotation": 0,
          "visible": true
        },
        {
          "id": 25,
          "name": "cottage_blue",
          "type": "concept_object",
          "gid": 101,
          "x": 208,
          "y": 232,
          "width": 64,
          "height": 56,
          "rotation": 0,
          "visible": true
        },
        {
          "id": 26,
          "name": "cottage_red",
          "type": "concept_object",
          "gid": 100,
          "x": 292,
          "y": 102,
          "width": 64,
          "height": 56,
          "rotation": 0,
          "visible": true
        },
        {
          "id": 27,
          "name": "two_storey",
          "type": "concept_object",
          "gid": 102,
          "x": 294,
          "y": 241,
          "width": 64,
          "height": 72,
          "rotation": 0,
          "visible": true
        },
        {
          "id": 28,
          "name": "cottage_blue",
          "type": "concept_object",
          "gid": 101,
          "x": 348,
          "y": 106,
          "width": 64,
          "height": 56,
          "rotation": 0,
          "visible": true
        },
        {
          "id": 29,
          "name": "shack",
          "type": "concept_object",
          "gid": 103,
          "x": 358,
          "y": 230,
          "width": 48,
          "height": 40,
          "rotation": 0,
          "visible": true
        },
        {
          "id": 30,
          "name": "fountain",
          "type": "concept_object",
          "gid": 121,
          "x": 296,
          "y": 198,
          "width": 48,
          "height": 40,
          "rotation": 0,
          "visible": true
        },
        {
          "id": 31,
          "name": "food_shop",
          "type": "concept_object",
          "gid": 104,
          "x": 406,
          "y": 121,
          "width": 80,
          "height": 64,
          "rotation": 0,
          "visible": true
        },
        {
          "id": 32,
          "name": "forge",
          "type": "concept_object",
          "gid": 105,
          "x": 500,
          "y": 133,
          "width": 80,
          "height": 64,
          "rotation": 0,
          "visible": true
        },
        {
          "id": 33,
          "name": "mercenary",
          "type": "concept_object",
          "gid": 106,
          "x": 410,
          "y": 239,
          "width": 96,
          "height": 64,
          "rotation": 0,
          "visible": true
        },
        {
          "id": 34,
          "name": "travel",
          "type": "concept_object",
          "gid": 107,
          "x": 465,
          "y": 323,
          "width": 112,
          "height": 72,
          "rotation": 0,
          "visible": true
        },
        {
          "id": 35,
          "name": "spaceship",
          "type": "concept_object",
          "gid": 119,
          "x": 512,
          "y": 350,
          "width": 112,
          "height": 56,
          "rotation": 0,
          "visible": true
        },
        {
          "id": 36,
          "name": "player",
          "type": "concept_object",
          "gid": 110,
          "x": 326,
          "y": 227,
          "width": 16,
          "height": 24,
          "rotation": 0,
          "visible": true
        },
        {
          "id": 37,
          "name": "villager1",
          "type": "concept_object",
          "gid": 111,
          "x": 277,
          "y": 183,
          "width": 16,
          "height": 24,
          "rotation": 0,
          "visible": true
        },
        {
          "id": 38,
          "name": "villager2",
          "type": "concept_object",
          "gid": 112,
          "x": 353,
          "y": 184,
          "width": 16,
          "height": 24,
          "rotation": 0,
          "visible": true
        },
        {
          "id": 39,
          "name": "villager3",
          "type": "concept_object",
          "gid": 113,
          "x": 253,
          "y": 246,
          "width": 16,
          "height": 24,
          "rotation": 0,
          "visible": true
        },
        {
          "id": 40,
          "name": "villager4",
          "type": "concept_object",
          "gid": 114,
          "x": 370,
          "y": 260,
          "width": 16,
          "height": 24,
          "rotation": 0,
          "visible": true
        },
        {
          "id": 41,
          "name": "villager5",
          "type": "concept_object",
          "gid": 115,
          "x": 439,
          "y": 173,
          "width": 16,
          "height": 24,
          "rotation": 0,
          "visible": true
        },
        {
          "id": 42,
          "name": "villager6",
          "type": "concept_object",
          "gid": 116,
          "x": 165,
          "y": 247,
          "width": 16,
          "height": 24,
          "rotation": 0,
          "visible": true
        },
        {
          "id": 43,
          "name": "villager1",
          "type": "concept_object",
          "gid": 111,
          "x": 224,
          "y": 292,
          "width": 16,
          "height": 24,
          "rotation": 0,
          "visible": true
        },
        {
          "id": 44,
          "name": "villager2",
          "type": "concept_object",
          "gid": 112,
          "x": 475,
          "y": 264,
          "width": 16,
          "height": 24,
          "rotation": 0,
          "visible": true
        },
        {
          "id": 45,
          "name": "villager3",
          "type": "concept_object",
          "gid": 113,
          "x": 526,
          "y": 192,
          "width": 16,
          "height": 24,
          "rotation": 0,
          "visible": true
        },
        {
          "id": 46,
          "name": "villager4",
          "type": "concept_object",
          "gid": 114,
          "x": 132,
          "y": 281,
          "width": 16,
          "height": 24,
          "rotation": 0,
          "visible": true
        },
        {
          "id": 47,
          "name": "villager5",
          "type": "concept_object",
          "gid": 115,
          "x": 393,
          "y": 145,
          "width": 16,
          "height": 24,
          "rotation": 0,
          "visible": true
        },
        {
          "id": 48,
          "name": "villager6",
          "type": "concept_object",
          "gid": 116,
          "x": 305,
          "y": 287,
          "width": 16,
          "height": 24,
          "rotation": 0,
          "visible": true
        },
        {
          "id": 49,
          "name": "villager1",
          "type": "concept_object",
          "gid": 111,
          "x": 185,
          "y": 153,
          "width": 16,
          "height": 24,
          "rotation": 0,
          "visible": true
        },
        {
          "id": 50,
          "name": "villager2",
          "type": "concept_object",
          "gid": 112,
          "x": 554,
          "y": 280,
          "width": 16,
          "height": 24,
          "rotation": 0,
          "visible": true
        },
        {
          "id": 51,
          "name": "rabbit",
          "type": "concept_object",
          "gid": 117,
          "x": 105,
          "y": 210,
          "width": 16,
          "height": 16,
          "rotation": 0,
          "visible": true
        },
        {
          "id": 52,
          "name": "rabbit",
          "type": "concept_object",
          "gid": 117,
          "x": 71,
          "y": 254,
          "width": 16,
          "height": 16,
          "rotation": 0,
          "visible": true
        },
        {
          "id": 53,
          "name": "wolf",
          "type": "concept_object",
          "gid": 118,
          "x": 28,
          "y": 260,
          "width": 24,
          "height": 18,
          "rotation": 0,
          "visible": true
        }
      ]
    },
    {
      "id": 5,
      "name": "Gameplay HUD",
      "type": "imagelayer",
      "image": "../../art/concepts/source/hud_overlay.png",
      "x": 0,
      "y": 0,
      "offsetx": 0,
      "offsety": 0,
      "opacity": 1,
      "visible": true
    }
  ],
  "tilesets": [
    {
      "firstgid": 1,
      "source": "terrain.tsj"
    },
    {
      "firstgid": 100,
      "source": "objects.tsj"
    }
  ]
}