{"type":"map","version":"1.10","tiledversion":"1.12.2","orientation":"orthogonal","renderorder":"right-down","width":96,"height":84,"tilewidth":16,"tileheight":16,"infinite":false,"nextlayerid":6,"nextobjectid":308,"backgroundcolor":"#e3eaee","properties":[{"name":"trench_cells","type":"string","value":"3,22;4,22;5,22;6,22;7,22;7,57;8,22;8,57;9,22;9,57;10,22;10,57;11,22;11,57;12,22;12,56;13,11;13,22;13,56;14,11;14,22;14,56;15,11;15,15;15,22;15,56;16,11;16,15;16,22;16,56;17,11;17,15;17,56;18,11;18,15;18,56;19,11;19,15;19,56;20,11;20,15;20,56;21,11;21,15;21,20;21,55;22,10;22,15;22,20;22,55;23,10;23,14;23,19;23,55;24,10;24,14;24,19;24,55;25,10;25,14;25,18;25,55;26,10;26,14;26,18;27,10;27,14;27,17;28,10;28,14;28,17;29,10;29,14;29,17;30,10;30,14;30,17;31,10;31,14;31,17;32,10;32,14;32,17;33,10;33,14;33,17;34,10;34,14;34,17;35,10;35,14;35,18;36,10;36,15;36,18;37,10;37,15;37,18;38,10;38,15;38,18;39,11;39,15;39,18;40,11;40,15;40,18;41,11;41,15;41,18;42,11;42,18;43,11;44,11;45,11;46,11;47,19;48,18;49,18;49,22;50,17;50,21;51,16;51,21;52,16;52,20;53,15;53,20;54,15;54,19;55,14;55,18;56,13;56,18;57,13;57,17;58,12;58,17;59,16;60,16;61,15;62,38;63,38;64,38;65,38;66,38;67,38;68,38;69,37;70,37;71,37;72,37;73,37;74,37"}],"tilesets":[{"firstgid":1,"source":"artichoke_terrain.tsj"},{"firstgid":300,"source":"artichoke_objects.tsj"}],"layers":[{"id":1,"name":"Artichoke Ground","type":"tilelayer","x":0,"y":0,"width":96,"height":84,"opacity":1,"visible":true,"data":[1,1,2,3,1,4,5,6,7,6,7,8,8,9,5,7,4,1,6,8,1,9,6,3,2,1,5,5,10,7,4,2,6,8,1,5,11,2,6,4,3,6,1,9,12,1,2,4,5,9,2,8,5,1,10,11,5,11,5,5,3,2,3,3,6,2,8,6,7,5,10,1,1,12,3,12,1,6,2,5,12,2,7,10,4,9,2,1,12,6,11,8,8,5,7,5,5,8,7,11,1,7,6,9,7,8,6,4,3,10,12,12,3,4,8,8,6,6,9,10,5,10,12,10,10,1,7,8,9,5,1,7,8,8,3,5,4,9,3,10,11,9,9,6,2,4,2,1,6,8,5,11,5,12,7,7,7,4,10,4,2,3,4,9,2,5,4,3,3,1,7,7,3,12,9,5,12,8,5,11,8,1,2,4,9,4,3,8,3,3,1,6,8,10,12,4,3,3,5,10,10,11,1,6,11,2,8,10,6,13,14,15,14,16,16,17,14,17,14,14,15,18,8,10,10,2,12,2,9,2,9,2,11,2,3,12,12,6,6,9,4,6,8,11,1,4,12,9,11,1,6,2,2,7,3,9,2,1,2,1,10,5,7,1,7,4,11,4,5,4,11,3,4,7,3,4,2,2,5,11,12,12,3,4,2,4,8,12,4,2,19,14,15,15,14,20,4,7,13,15,17,14,15,15,17,21,21,22,23,24,24,24,22,21,23,21,23,24,20,1,10,1,6,8,10,1,10,4,11,12,3,1,5,9,8,2,2,12,10,1,7,9,4,4,1,10,6,9,11,5,6,19,17,17,14,15,17,18,9,13,15,15,16,17,16,20,4,1,3,5,8,7,4,6,7,1,11,4,1,7,8,9,1,10,4,25,23,22,22,21,23,24,17,17,21,24,21,21,22,21,24,23,24,23,21,23,24,24,23,22,24,21,23,21,26,9,3,3,5,4,7,2,7,4,1,11,8,9,9,4,7,8,3,2,5,3,11,2,1,10,4,12,8,2,8,8,13,21,23,23,21,24,21,21,17,22,22,21,24,23,24,23,18,2,1,12,11,9,11,10,7,4,8,1,12,12,8,4,10,6,7,27,22,22,22,22,22,24,28,29,23,23,23,22,22,21,22,21,22,24,22,21,21,24,21,21,21,22,23,23,30,2,5,10,3,12,12,6,1,5,3,6,2,4,12,10,9,5,9,12,3,6,4,4,12,1,6,1,7,3,5,6,27,22,22,21,21,23,23,23,28,21,21,22,21,24,21,23,31,2,9,11,9,12,5,7,9,4,6,2,3,8,5,3,11,7,7,6,32,33,34,28,34,35,12,9,27,34,28,29,33,28,28,24,24,21,23,21,24,23,24,23,23,22,21,22,31,3,12,11,8,5,2,12,12,11,11,5,9,1,1,6,7,7,2,7,3,1,2,4,11,4,6,9,10,8,6,8,4,27,29,34,34,33,33,36,1,27,28,28,29,33,33,31,2,5,6,1,6,11,8,8,9,6,8,5,1,7,8,7,9,6,6,8,4,3,5,5,6,7,2,6,37,38,6,4,12,5,7,39,28,28,28,34,29,33,28,28,33,29,34,36,8,4,11,1,11,6,1,11,4,2,8,1,7,4,7,2,11,4,6,2,1,2,3,7,1,11,1,12,12,1,12,3,10,3,12,7,7,5,11,6,8,4,6,11,11,6,9,8,8,10,8,2,5,1,8,5,8,8,12,8,2,10,5,4,3,6,4,10,5,11,10,8,4,11,10,7,40,41,9,7,5,1,7,1,3,7,2,6,8,8,9,10,1,4,6,7,8,7,9,12,12,8,3,9,5,9,3,11,3,7,6,12,7,11,1,12,12,2,8,4,2,1,7,6,6,12,1,11,4,10,7,5,8,3,2,8,2,4,9,2,4,6,10,12,8,4,2,11,5,12,2,4,12,2,10,1,2,6,11,7,6,3,2,5,11,2,2,10,7,6,10,11,38,42,38,43,38,44,45,38,43,46,37,38,47,41,37,38,48,48,45,49,44,49,41,38,46,40,40,44,47,49,38,41,37,45,40,43,41,44,48,48,45,43,46,49,10,9,2,7,8,9,3,4,10,7,3,3,10,10,5,11,4,2,8,8,8,9,9,10,7,4,5,3,6,7,7,8,4,12,7,8,9,3,3,3,12,6,7,3,5,3,12,11,6,9,4,9,47,41,6,10,2,11,2,10,4,8,3,5,50,51,52,53,53,53,51,52,53,53,51,52,53,53,53,52,54,1,8,6,11,11,3,8,12,9,7,10,8,1,49,40,2,2,4,5,2,2,10,11,4,6,7,4,3,1,4,3,6,5,12,9,9,10,8,1,8,5,6,6,11,4,8,3,10,9,9,9,2,12,1,2,2,10,2,6,10,4,8,3,11,6,1,10,40,37,11,55,52,51,52,53,53,53,52,56,11,10,9,8,1,3,4,7,11,3,5,6,6,12,3,5,4,57,53,53,52,53,51,52,58,3,10,2,3,11,47,45,2,11,11,3,7,2,3,9,6,4,7,7,4,4,1,8,1,6,7,2,5,9,11,10,8,10,2,5,4,8,5,2,10,12,11,7,12,9,5,3,6,6,2,6,9,11,5,9,10,2,5,6,45,43,5,12,10,4,8,3,8,9,4,9,4,6,10,3,2,1,8,7,4,8,1,9,3,12,7,8,6,12,3,4,10,10,1,8,5,2,9,6,10,8,37,44,5,4,12,3,59,10,3,5,1,12,9,2,7,6,1,9,5,5,6,12,4,6,3,9,8,7,9,10,8,6,9,1,8,5,0,0,0,0,0,0,0,0,11,2,1,3,3,11,3,8,9,6,38,40,1,9,7,10,6,8,1,10,3,1,4,10,3,3,6,8,9,8,7,9,11,1,7,8,8,8,8,11,2,4,3,7,10,2,3,1,3,2,2,5,42,40,44,42,55,54,42,37,43,41,44,46,37,44,46,44,48,37,49,49,49,41,47,42,42,0,0,0,0,0,0,0,0,0,0,0,0,0,0,0,0,0,0,0,9,10,6,9,7,5,10,8,2,6,41,43,3,2,4,5,11,12,2,6,12,1,7,50,53,53,52,53,51,51,53,51,51,53,51,54,7,7,11,12,11,5,10,11,9,11,12,3,7,4,7,8,48,49,3,59,5,4,2,11,7,12,6,11,9,10,5,10,10,1,0,0,0,0,0,0,0,0,0,0,0,0,0,0,0,0,0,0,0,0,0,0,0,0,0,0,4,9,12,12,7,6,10,4,9,3,40,38,6,4,6,50,52,51,53,53,51,52,54,7,6,5,10,12,4,1,6,9,2,7,6,3,55,53,52,53,53,56,1,11,12,8,6,10,7,1,5,11,46,57,56,11,7,5,4,8,7,59,3,7,4,0,0,0,0,0,0,0,0,0,0,0,0,0,0,0,0,0,0,0,0,0,0,0,0,92,93,94,95,96,96,92,6,6,12,12,4,7,7,9,7,1,45,40,5,12,3,10,7,9,7,12,7,4,8,12,5,9,2,5,4,9,5,7,4,1,5,3,12,7,2,5,9,11,1,1,7,6,8,9,3,9,9,57,54,38,5,3,5,3,12,55,54,2,4,0,0,0,0,0,0,0,0,0,0,0,0,0,0,0,94,99,100,99,99,99,101,93,102,103,103,104,105,106,107,108,109,107,10,2,4,3,6,3,2,3,11,10,48,48,11,1,9,2,9,8,7,12,10,7,1,10,3,3,9,57,52,53,51,52,51,53,58,2,8,6,7,8,6,8,7,12,9,4,2,6,11,10,110,7,47,42,8,1,6,50,56,9,0,0,0,0,0,0,0,0,0,0,0,95,112,102,96,103,100,112,109,109,106,113,114,115,116,117,118,104,119,120,114,120,107,106,120,120,5,1,10,1,1,9,11,6,8,11,47,41,7,2,8,1,11,4,8,8,7,5,8,6,8,55,58,10,1,7,10,7,2,1,11,50,52,52,53,52,53,52,54,11,3,1,3,5,50,58,4,7,45,37,3,50,56,5,0,0,0,0,0,0,0,0,94,94,95,94,94,113,115,121,115,122,108,114,106,107,109,120,120,109,106,120,123,122,124,121,115,107,108,104,118,125,3,8,5,6,11,4,8,9,1,1,45,40,1,5,11,12,4,9,4,11,11,9,5,57,54,1,6,3,2,4,8,8,1,4,1,8,1,3,5,1,10,6,8,4,1,12,6,59,12,11,8,8,40,40,110,0,0,0,0,0,0,0,0,0,103,100,126,127,115,116,114,108,120,115,109,106,117,109,120,117,109,113,114,113,121,106,124,128,106,121,116,113,117,124,108,108,12,9,7,1,4,2,5,9,4,10,46,46,4,2,7,5,12,9,10,5,2,57,56,8,7,2,3,7,11,9,2,6,4,4,1,9,11,1,2,9,5,3,9,8,12,6,2,6,6,3,8,42,50,54,0,0,0,0,0,0,0,94,101,93,129,107,115,114,120,108,107,109,106,114,115,108,121,121,114,121,109,121,108,113,109,113,120,106,113,130,131,120,117,115,120,132,5,10,1,7,8,7,10,2,1,9,48,41,4,3,8,4,4,7,5,1,4,2,2,5,11,10,1,2,5,6,9,2,2,8,8,1,6,4,12,12,3,12,11,8,6,2,7,12,0,0,50,56,45,46,0,0,0,0,0,93,95,131,133,128,133,106,109,124,115,113,109,109,124,121,117,108,113,108,107,120,109,120,106,106,124,109,120,124,107,134,127,132,115,116,105,135,5,5,10,55,51,51,52,52,52,51,51,52,51,53,52,53,54,11,10,6,4,4,8,3,2,9,3,3,0,0,0,0,0,0,0,0,0,0,0,0,0,0,0,0,0,0,0,0,0,59,41,45,49,46,0,0,136,96,92,119,137,121,109,108,116,117,106,117,121,121,115,117,120,115,120,106,107,121,109,109,117,113,120,108,116,109,121,117,124,119,118,135,137,135,104,138,11,2,1,7,2,12,1,11,5,10,44,43,3,9,7,5,11,10,7,11,8,10,1,9,6,0,0,0,0,0,0,0,0,0,0,0,0,0,0,0,0,0,0,0,0,0,0,0,0,0,41,45,119,46,94,99,139,127,116,113,106,121,121,115,116,120,117,115,114,108,114,120,117,106,108,117,109,115,108,115,115,113,120,115,106,107,113,109,121,137,137,132,132,104,105,140,12,8,2,5,6,2,4,10,2,8,40,40,6,11,8,11,6,7,4,7,0,0,0,0,0,0,0,0,0,0,0,0,0,0,0,0,0,0,0,0,0,0,0,0,0,0,0,0,0,99,125,125,122,123,41,43,106,109,107,116,117,113,124,115,107,108,117,115,121,124,107,113,115,107,117,115,109,107,116,115,108,141,142,133,131,124,124,104,123,105,135,141,135,141,123,122,0,0,0,0,0,0,0,0,0,43,45,46,46,0,0,0,0,0,0,0,0,0,0,0,0,0,0,0,0,94,93,102,101,101,103,103,93,102,112,103,94,93,93,94,96,94,94,112,96,118,137,122,104,124,113,120,124,120,106,114,120,108,121,116,113,121,106,113,113,113,106,120,116,124,116,107,113,121,114,106,106,135,132,126,133,143,125,132,137,141,137,135,141,137,135,123,0,0,0,0,0,0,0,0,0,37,48,42,48,0,0,0,0,0,0,0,0,0,0,0,0,0,136,112,112,145,146,133,147,143,126,104,141,122,123,104,137,148,149,148,119,135,135,125,143,123,123,109,121,107,114,113,48,126,115,115,106,120,113,120,117,113,120,107,109,115,114,109,106,106,107,109,120,106,114,113,115,132,123,130,131,129,123,141,119,132,141,122,141,137,141,105,0,0,0,0,0,0,0,0,0,38,43,41,37,0,0,0,0,0,0,0,0,96,100,95,136,101,150,151,151,146,149,127,128,152,129,139,139,131,137,132,105,123,132,132,137,132,122,122,128,114,121,121,120,124,124,109,130,134,120,114,121,106,114,108,115,121,121,116,116,135,126,152,131,121,106,121,115,114,121,120,125,125,104,143,147,135,141,135,141,125,122,135,105,119,137,142,96,92,112,93,99,96,99,99,99,152,119,49,44,101,92,99,94,102,93,93,100,128,152,127,133,125,140,153,154,155,150,127,133,129,128,126,139,139,123,118,119,123,104,135,137,119,107,115,114,116,107,124,121,121,115,107,130,152,107,117,114,115,107,114,113,106,113,113,121,108,113,124,117,115,106,106,121,134,133,133,129,128,152,143,129,125,48,48,104,119,122,123,105,142,135,122,143,147,132,142,135,104,122,126,147,152,104,104,125,123,122,135,123,141,135,139,134,128,133,128,128,118,148,156,145,157,158,133,139,143,127,130,134,130,119,119,119,123,122,123,121,116,106,124,114,106,113,114,124,120,124,108,133,129,135,114,113,109,113,124,121,116,107,120,120,121,124,114,115,106,116,143,130,131,130,127,143,130,129,126,130,125,38,42,105,118,105,119,125,132,122,119,143,125,123,141,105,123,122,139,131,126,137,132,125,132,132,118,119,122,104,129,127,126,128,135,135,104,122,150,159,160,128,130,134,133,147,131,152,147,128,135,119,137,137,105,121,114,130,129,127,126,129,152,105,118,119,135,119,104,125,113,106,121,113,117,124,108,120,106,116,120,106,116,120,135,142,122,128,129,143,143,130,152,147,130,126,128,47,38,123,137,122,122,135,104,125,142,125,132,118,118,142,132,118,128,147,127,119,135,105,105,133,134,131,131,131,118,142,123,104,135,119,132,123,137,137,147,129,139,139,131,147,129,129,133,143,109,117,121,108,106,107,120,117,116,107,109,126,139,152,106,116,108,117,106,107,142,135,117,108,106,117,115,106,114,116,107,119,118,137,141,119,142,119,135,134,143,147,139,143,127,133,37,44,104,123,135,135,141,141,125,132,141,161,162,158,104,137,141,119,123,129,127,125,118,142,127,134,133,152,152,134,137,137,125,118,125,137,104,104,139,143,139,128,134,126,129,128,129,126,117,124,121,113,120,124,117,109,108,120,113,115,120,124,129,117,115,124,124,115,121,124,135,118,118,121,121,115,120,115,108,143,130,104,135,123,142,137,118,122,142,125,130,133,143,139,129,131,38,42,125,123,137,119,132,118,123,137,118,163,164,151,145,163,156,140,165,160,128,142,122,132,118,134,129,127,129,152,166,149,156,159,148,104,104,125,143,126,143,139,129,127,139,115,107,114,108,124,120,114,107,116,108,116,120,124,124,115,115,106,152,113,108,114,114,106,108,107,118,104,132,159,109,109,127,139,134,127,133,137,132,105,142,125,123,142,119,141,139,133,127,139,159,158,43,48,105,125,105,119,142,132,104,142,142,156,146,153,163,167,168,153,164,145,165,142,104,104,105,105,142,141,118,159,156,157,154,154,153,122,123,122,118,142,135,141,141,108,109,107,115,117,120,124,124,115,117,124,107,113,127,114,115,107,117,115,147,115,115,121,115,114,113,106,135,105,105,106,167,138,133,143,147,130,133,147,123,123,119,142,137,122,122,125,122,132,142,162,167,45,41,150,118,122,123,122,118,104,123,132,132,156,164,157,156,157,153,146,163,167,157,142,141,104,123,125,119,132,123,165,167,164,151,146,163,130,129,105,123,123,125,115,124,124,117,115,117,107,121,121,129,116,109,113,106,116,147,130,127,126,109,117,107,106,143,119,125,116,121,106,109,117,128,140,153,165,163,159,134,133,127,126,152,125,123,135,135,119,142,40,42,37,42,158,168,49,48,160,104,122,137,141,135,135,132,125,142,167,151,146,164,146,164,168,168,145,149,119,104,104,104,122,141,141,104,150,146,168,154,167,127,134,127,105,132,123,125,109,107,120,107,108,116,115,117,134,128,137,116,115,116,127,129,143,126,123,137,117,116,106,130,137,137,124,114,105,129,147,131,167,154,156,157,159,126,127,130,129,133,133,127,104,142,104,123,137,105,135,42,41,46,37,46,166,122,119,122,125,123,137,118,119,118,164,153,157,164,163,145,164,146,168,160,104,105,135,105,132,132,125,119,104,163,153,125,125,139,127,106,125,137,119,135,114,124,121,107,116,106,131,133,147,133,132,107,114,117,130,129,134,135,125,115,113,114,124,137,137,141,135,123,118,119,159,168,167,154,145,164,162,152,131,57,53,53,51,51,56,142,122,122,105,104,105,141,161,45,38,153,157,162,119,132,105,123,118,132,118,141,149,161,161,165,150,166,155,157,158,158,134,122,119,142,119,105,141,118,104,135,123,119,116,115,128,120,113,116,120,115,142,106,116,117,124,115,139,131,126,137,142,114,106,114,122,135,125,117,109,121,116,116,114,132,118,132,132,122,104,123,161,156,57,53,53,51,53,52,56,130,147,131,143,147,130,132,118,118,122,118,135,104,154,47,38,154,154,155,162,118,123,133,129,126,141,135,139,133,133,130,139,161,160,158,158,129,139,131,133,122,105,105,132,123,132,125,109,115,113,117,143,120,109,120,106,108,137,116,117,117,117,118,137,135,118,119,122,120,115,116,123,123,116,120,114,121,108,118,123,104,135,122,125,135,119,125,151,151,145,168,151,153,149,133,133,126,128,139,139,128,152,129,123,118,142,132,135,135,47,45,157,151,157,164,168,149,166,160,147,127,122,118,131,126,152,147,134,127,126,158,133,128,127,143,152,128,142,105,119,118,117,117,106,114,106,117,116,114,107,124,120,114,116,116,109,108,115,113,137,132,105,132,125,107,113,106,137,122,115,115,113,142,125,142,141,141,132,119,125,118,135,166,146,163,164,168,164,157,141,141,127,131,127,127,131,152,131,130,152,147,122,119,122,137,47,49,164,154,154,164,157,151,167,163,140,140,131,132,152,131,130,130,133,127,130,131,126,139,152,147,133,152,122,120,108,117,107,106,114,121,115,117,113,121,109,106,120,117,115,115,121,121,113,109,113,117,107,107,114,114,109,109,120,120,118,105,119,118,118,123,104,105,122,125,141,104,123,166,155,167,167,156,156,156,104,125,135,135,131,127,127,134,139,127,134,129,128,122,142,47,43,167,146,163,153,164,154,164,156,154,164,166,127,132,133,139,128,131,147,139,127,132,119,123,128,131,129,124,124,124,109,121,106,121,116,117,115,109,117,114,121,121,113,121,117,113,106,142,105,107,114,106,107,120,109,107,113,124,119,135,137,105,119,141,132,127,143,131,133,123,135,104,166,160,145,154,154,153,167,153,118,104,122,137,104,105,135,119,132,134,129,152,147,133,130,44,37,145,156,156,156,163,168,146,157,146,145,155,135,125,130,147,131,143,152,128,125,122,119,123,120,120,114,108,124,114,107,109,113,113,116,115,113,115,120,106,115,115,115,115,120,109,120,113,115,109,116,124,106,108,108,115,140,148,126,157,150,119,122,119,142,143,130,152,143,152,133,134,141,161,167,153,146,151,168,167,135,142,125,105,123,122,125,104,132,134,127,134,134,143,46,44,167,145,155,156,151,153,154,154,163,145,145,168,105,118,135,139,134,152,133,139,118,132,106,115,108,124,143,108,109,117,117,124,121,113,114,108,120,121,117,113,124,106,113,107,113,108,115,108,115,107,108,113,108,131,128,134,133,155,153,159,105,141,119,104,142,126,128,127,126,131,126,130,142,138,157,164,155,163,156,168,104,141,105,119,118,105,104,125,142,126,127,128,129,147,38,38,161,151,168,157,164,167,151,145,163,151,145,145,158,105,123,133,129,126,143,139,114,120,117,114,107,152,126,129,113,108,107,109,116,115,116,106,121,106,124,115,121,124,121,124,117,107,113,115,115,106,124,128,152,147,127,167,164,151,162,142,132,141,141,118,123,130,152,128,130,131,143,128,122,119,158,151,145,163,163,154,140,137,123,141,135,104,119,118,123,133,152,139,134,143,41,43,147,140,138,140,160,167,164,156,163,153,167,163,165,122,134,131,143,116,113,116,117,107,120,117,124,143,139,128,114,106,109,120,108,120,116,113,106,115,108,114,109,120,121,107,109,124,113,106,125,123,135,119,143,133,134,138,161,135,135,125,122,125,132,135,135,105,104,142,127,152,143,128,128,135,161,163,167,156,157,146,138,137,118,125,119,122,122,142,123,129,152,143,105,119,37,37,134,133,152,143,126,159,163,155,157,168,154,164,160,105,128,120,115,124,106,117,109,120,106,106,106,114,126,116,107,120,116,106,120,109,114,120,107,120,115,114,113,124,107,113,107,114,105,105,118,142,142,125,135,134,128,147,119,142,105,141,125,139,152,143,125,137,125,137,118,134,139,130,134,152,161,164,156,146,154,153,150,123,125,137,128,126,143,143,130,152,131,152,132,38,46,137,104,143,128,131,127,141,165,164,164,168,163,167,151,150,117,107,107,121,113,124,107,117,120,107,115,109,143,108,116,120,121,107,116,109,114,107,120,116,116,121,113,108,108,120,125,105,104,150,132,123,141,105,104,105,130,139,123,123,135,105,141,143,152,133,123,104,119,104,132,143,126,129,134,131,127,168,151,157,168,154,138,105,122,129,127,128,147,131,130,130,148,160,160,49,38,122,132,139,152,133,122,135,119,155,145,164,168,154,163,158,120,115,117,106,115,116,121,121,109,115,116,107,127,114,115,124,117,116,124,106,117,121,109,107,121,107,120,162,162,125,123,145,146,166,142,123,142,141,119,105,143,122,118,122,122,118,152,133,128,129,104,125,125,142,118,130,152,130,131,143,128,154,145,154,167,157,161,141,119,152,139,130,169,170,171,172,173,172,159,45,42,104,135,143,143,128,129,118,125,145,157,157,156,146,145,148,106,124,113,117,106,114,117,115,120,106,121,116,116,114,114,106,108,113,115,107,121,115,113,115,107,166,162,122,123,145,164,154,145,159,158,118,135,142,118,132,137,142,118,118,123,135,130,131,131,131,127,132,141,118,135,119,133,147,147,152,130,164,153,146,156,156,149,118,174,175,171,176,177,178,176,170,179,176,179,171,172,170,178,175,139,130,139,131,134,148,153,156,153,155,162,166,108,116,108,117,117,121,166,117,124,121,124,114,114,113,128,126,143,116,124,114,126,133,142,135,104,119,167,163,146,155,167,157,164,165,138,149,161,135,119,142,123,132,104,135,123,152,147,128,139,152,147,131,119,118,132,118,135,142,125,104,125,150,155,146,155,166,128,172,178,176,172,176,173,178,180,169,177,173,172,178,171,177,174,170,169,175,176,126,131,127,149,149,140,161,122,122,107,121,115,120,113,109,132,115,108,116,106,120,116,121,131,139,152,116,113,117,126,131,123,132,153,163,163,164,151,146,156,164,153,168,164,156,148,150,166,125,118,141,122,119,131,143,143,127,143,133,152,127,128,127,135,104,122,142,135,123,119,122,162,150,150,139,172,169,178,173,174,176,176,170,175,178,170,175,174,177,175,172,174,173,179,173,169,179,131,129,119,119,119,104,123,104,113,124,107,106,116,121,141,123,114,124,106,106,124,114,117,126,108,124,126,133,147,130,122,119,137,141,148,162,166,162,148,155,154,154,156,153,164,151,161,161,135,142,125,142,123,133,134,139,129,147,143,131,147,125,135,122,142,105,132,132,137,142,126,147,177,180,176,173,176,178,175,169,171,176,176,180,169,171,178,170,170,176,178,179,173,180,172,172,180,134,141,119,142,123,123,125,121,120,108,120,120,121,123,119,119,132,114,115,108,113,121,122,118,123,119,141,141,104,104,104,119,104,139,143,138,159,166,160,164,167,164,168,167,168,157,159,148,119,142,125,135,135,147,143,147,126,152,127,142,132,140,164,155,168,160,142,132,123,119,174,179,169,179,180,169,179,172,173,170,170,172,178,173,176,174,176,171,171,179,174,178,179,174,175,173,123,105,141,141,122,123,152,120,120,121,113,116,124,137,142,107,121,113,108,109,118,135,105,122,141,137,132,125,55,51,53,52,56,126,139,127,129,138,158,146,153,155,157,168,151,151,140,148,104,125,123,141,118,131,131,143,139,134,123,142,165,155,146,145,168,164,158,141,105,179,172,171,172,178,180,172,171,170,180,171,175,169,176,173,172,175,178,175,172,178,176,172,178,172,173,170,169,125,105,125,141,125,126,117,120,117,124,117,131,135,132,117,108,125,137,50,52,52,52,53,53,52,51,56,135,137,135,104,137,133,126,131,133,134,138,155,157,164,151,157,163,157,153,150,138,125,137,125,105,126,139,128,139,139,119,123,159,154,153,168,157,164,149,119,169,170,176,171,177,171,173,173,173,180,175,180,178,180,176,175,170,180,170,176,177,169,170,179,177,176,170,170,171,176,132,118,123,131,131,130,117,114,113,116,131,104,57,52,53,53,54,142,104,118,123,137,137,141,104,122,105,132,142,105,132,143,127,127,130,165,158,151,154,153,146,146,151,155,146,161,140,123,135,123,137,127,139,139,126,130,122,119,140,151,146,167,155,153,135,171,169,174,176,177,172,180,174,177,169,178,180,173,175,173,175,172,174,174,172,175,172,173,170,170,174,179,170,176,177,180,172,143,126,133,133,137,123,129,143,147,143,105,122,135,142,141,142,129,147,105,118,104,135,118,141,137,135,142,123,142,104,125,160,138,138,158,157,155,168,153,157,145,154,168,151,160,159,148,137,137,118,127,133,131,152,131,119,118,132,149,156,167,151,162,179,169,180,177,178,173,177,180,177,170,175,173,177,172,172,175,180,175,169,170,171,171,174,173,175,178,177,175,177,170,178,180,179,126,143,127,147,141,125,135,130,133,126,147,105,122,118,123,139,129,126,119,123,141,132,118,126,129,134,118,141,141,150,149,19,14,15,17,15,15,17,16,181,167,182,15,17,16,16,16,18,105,19,14,17,17,15,16,183,104,119,142,126,134,132,105,176,177,176,175,174,169,177,177,173,169,169,174,173,169,170,176,173,170,170,173,171,178,172,179,176,176,169,172,179,180,174,180,176,177,143,134,143,123,141,137,139,133,139,134,105,141,105,105,134,139,126,127,119,141,105,147,131,147,140,162,159,168,163,182,22,22,23,24,24,22,23,21,22,16,24,24,22,23,24,23,21,17,21,24,24,22,22,21,21,183,142,123,131,152,130,137,172,171,170,178,180,179,169,176,177,180,174,174,179,179,174,171,169,179,177,170,171,172,171,180,178,171,172,177,172,179,176,172,173,179,126,133,128,105,142,119,139,129,152,127,119,141,142,118,126,143,134,141,132,118,137,133,162,155,168,146,167,146,167,27,23,21,24,24,24,22,23,22,21,29,22,24,21,22,22,23,21,33,21,21,23,22,22,23,24,184,141,122,143,129,129,179,174,169,178,177,180,172,180,173,171,172,170,172,171,179,179,170,179,169,179,180,177,173,170,174,179,169,174,173,179,180,175,173,175,172,159,143,133,137,122,128,127,143,131,147,130,143,137,135,123,141,125,123,137,105,132,165,146,145,154,154,154,167,155,151,32,29,33,28,33,28,34,29,35,140,32,29,29,34,28,34,36,158,27,33,28,34,29,34,35,122,137,129,128,147,143,172,172,175,170,175,179,176,173,170,180,180,170,169,173,170,175,170,177,176,177,169,179,177,172,170,171,174,170,173,177,177,176,178,177,179,176,131,134,131,139,129,126,128,133,133,130,143,128,141,141,105,104,141,132,125,137,150,157,151,153,167,145,163,153,164,153,146,156,156,151,145,163,165,158,148,148,160,165,149,160,148,150,140,150,160,132,132,122,132,152,133,126,143,129,129,139,169,174,175,172,170,170,179,175,180,179,172,180,173,172,171,177,174,175,178,176,170,170,170,169,173,180,172,177,178,172,173,171,169,179,172,178,133,147,131,139,127,147,143,152,126,152,152,131,137,137,118,142,122,123,132,104,160,146,164,155,145,151,151,155,155,156,151,153,151,151,156,156,148,150,149,158,148,161,159,149,150,161,38,42,48,47,46,48,40,47,43,47,40,46,47,170,177,171,178,169,177,174,179,172,169,177,177,180,170,180,172,173,174,173,169,172,169,171,174,169,170,169,175,170,172,178,169,174,177,177,178,176,131,152,152,127,133,147,142,126,130,128,134,147,137,141,137,135,135,132,118,118,166,145,154,163,164,167,151,157,157,164,153,164,168,145,153,162,166,166,166,149,149,150,150,162,156,138,41,42,165,140,162,149,150,131,134,127,147,129,139,173,169,170,174,177,179,171,174,180,174,172,175,177,173,178,176,171,180,175,175,176,170,177,177,173,172,170,176,177,175,175,171,173,171,180,171,170,174,127,134,131,127,141,132,125,142,123,122,135,119,132,141,123,132,123,125,123,164,163,156,145,157,146,167,167,159,162,166,140,166,118,141,119,119,142,132,150,150,166,148,156,167,151,48,37,168,168,155,153,149,148,126,152,127,147,127,175,175,175,178,170,177,172,169,176,175,172,177,173,179,179,176,176,174,169,178,175,172,176,176,180,176,176,177,172,178,172,177,171,177,176,178,172,178,131,134,130,134,104,122,137,141,123,104,141,119,132,119,142,141,141,137,123,157,164,151,154,167,163,164,166,131,134,139,126,143,122,141,123,141,141,137,104,138,140,162,182,17,14,16,16,14,183,153,168,168,155,162,143,147,152,169,176,174,169,172,177,170,170,173,177,179,170,179,176,170,176,174,174,176,174,173,175,180,173,179,175,177,169,174,177,178,170,177,174,169,175,170,174,168,161,127,152,118,119,141,135,122,119,119,125,125,118,131,122,104,125,137,119,167,167,164,164,164,146,166,137,139,139,134,134,141,118,137,141,141,141,132,104,138,138,19,21,24,21,21,21,24,24,18,154,164,168,164,145,162,160,170,170,171,175,178,169,176,179,176,170,169,175,174,173,171,171,172,171,178,170,172,173,178,171,177,174,177,179,171,170,169,174,171,179,175,180,176,156,146,145,133,128,119,104,122,160,158,165,162,161,119,135,119,104,118,125,132,104,154,145,157,151,156,154,140,119,133,128,131,129,104,122,125,119,141,119,104,118,161,162,39,23,21,22,23,24,22,24,36,145,164,164,164,146,151,153,172,175,176,172,178,176,176,172,174,179,171,171,172,169,178,175,169,175,178,171,170,178,170,172,174,172,179,170,170,178,170,170,171,177,176,177,145,155,163,154,134,119,135,137,161,140,155,164,145,162,123,135,123,123,122,123,118,119,168,146,145,163,164,155,165,104,105,134,147,131,129,135,118,118,119,132,104,122,166,140,150,185,28,33,34,28,28,36,156,155,145,153,154,156,163,145,156,174,178,180,171,176,177,175,180,179,178,175,172,176,174,173,169,178,173,170,177,180,170,180,180,178,172,174,170,180,169,169,173,172,172,159,159,154,167,154,119,122,125,125,166,150,155,156,145,148,141,132,125,122,122,132,119,104,145,145,167,145,145,167,150,137,104,119,141,142,143,147,127,147,105,105,105,125,123,140,160,145,164,145,164,154,151,153,167,156,164,157,155,164,154,151,153,154,176,180,176,170,174,171,176,169,178,178,176,175,175,172,173,172,175,169,180,173,172,174,175,177,174,178,179,172,180,170,179,175,138,148,161,155,155,146,122,105,119,104,162,166,155,145,154,165,125,105,142,142,119,122,105,105,146,151,164,168,155,168,166,135,137,104,105,142,133,143,131,127,143,118,118,135,141,162,149,148,168,153,153,163,164,154,163,153,167,146,167,140,150,143,127,129,159,179,180,173,170,172,169,169,174,174,175,173,178,178,177,179,175,175,174,180,169,169,174,173,178,178,173,175,179,180,178,142,125,165,162,150,164,154,123,119,141,104,138,161,155,155,168,164,149,162,105,137,118,105,125,161,151,157,145,167,163,155,132,135,125,141,132,132,126,130,152,131,133,125,125,135,118,142,162,138,148,140,150,151,151,151,156,163,154,155,165,118,123,130,134,131,125,122,178,170,178,170,178,178,175,169,178,174,178,171,175,180,170,180,170,173,174,179,170,169,171,177,174,178,180,178,141,142,105,119,132,150,166,163,147,133,133,123,161,168,145,157,167,155,146,165,148,161,160,150,148,150,155,167,154,164,145,159,118,118,123,139,129,129,143,139,131,139,143,104,123,137,123,125,137,159,149,140,162,149,150,145,167,156,156,150,141,104,141,137,135,105,141,126,139,177,169,169,170,174,175,177,172,180,178,171,175,176,179,153,168,157,156,156,168,156,148,147,133,139,125,118,123,123,104,135,122,104,162,159,0,0,147,147,158,145,153,0,0,0,0,0,0,0,0,153,163,145,159,165,140,165,0,0,0,0,0,139,127,147,133,130,129,143,147,142,132,142,0,0,135,142,125,126,162,162,140,138,149,159,159,125,118,119,137,141,104,142,118,152,126,130,162,158,158,167,145,157,151,153,163,151,164,155,156,156,151,156,154,163,156,164,160,165,166,160,118,137,105,132,132,119,125,123,142,159,0,0,0,0,0,0,0,0,0,0,0,0,0,0,0,0,0,0,0,0,0,0,0,0,0,0,0,0,0,0,130,130,128,129,0,0,0,0,0,0,0,0,0,133,139,134,127,134,150,0,0,0,0,0,0,0,104,105,122,128,127,128,139,149,165,0,0,0,163,151,168,153,151,164,167,168,145,146,164,167,145,168,145,167,154,149,162,141,137,118,142,141,125,104,122,125,0,0,0,0,0,0,0,0,0,0,0,0,0,0,0,0,0,0,0,0,0,0,0,0,0,0,0,0,0,0,0,0,0,0,0,0,0,0,0,0,0,0,0,0,0,0,0,0,0,0,0,0,0,0,0,0,0,0,0,129,152,0,0,0,0,0,0,0,0,0,0,163,146,146,151,145,145,0,0,0,0,0,0,0,164,167,140,135,123,104,119,142,0,0,0,0,0,0,0,0,0,0,0,0,0,0,0,0,0,0,0,0,0,0,0,0,0,0,0,0,0,0,0,0,0,0,0,0,0,0,0,0,0,0,0,0,0,0,0,0,0,0,0,0,0,0,0,0,0,0,0,0,0,0,0,0,0,0,0,0,0,0,0,0,0,0,0,0,0,0,0,0,0,0,0,0,0,0,0,0,0,0,0,122,119,0,0,0,0,0,0,0,0,0,0,0,0,0,0,0,0,0,0,0,0,0,0,0,0,0,0,0,0,0,0,0,0,0,0,0,0,0,0,0,0,0,0,0,0,0,0,0,0,0,0,0,0,0,0,0,0,0,0,0,0,0,0,0,0,0,0,0,0,0,0,0,0,0,0,0,0,0,0,0,0,0,0,0,0,0,0,0,0,0,0,0,0,0,0,0,0,0,0,0,0,0,0,0,0,0,0,0,0,0,0,0,0,0,0,0,0,0,0,0,0,0,0,0,0,0,0,0,0,0,0,0,0,0,0,0,0,0,0,0,0,0,0,0,0,0,0,0,0,0,0,0,0,0,0,0,0,0,0,0,0,0,0,0,0,0,0,0,0,0,0,0,0,0,0,0,0,0,0,0,0,0,0,0,0,0,0,0,0,0,0,0,0,0,0,0,0,0,0,0,0,0,0,0,0,0,0,0,0,0,0,0,0,0,0,0,0,0,0,0,0,0,0,0,0,0,0,0,0,0,0,0,0,0,0,0,0,0,0,0,0,0,0,0,0,0,0,0,0,0,0,0,0,0,0,0,0,0,0,0,0,0,0,0,0,0,0,0,0,0,0,0,0,0,0,0,0,0,0,0,0,0,0,0,0,0,0,0,0,0,0,0,0,0,0,0,0,0,0,0,0,0,0,0,0,0,0,0,0,0,0,0,0,0,0,0,0,0,0,0,0,0,0,0,0,0,0,0,0,0,0,0,0,0,0,0,0,0,0,0,0,0,0,0,0,0,0,0,0,0,0,0,0,0,0,0,0,0,0,0,0,0,0,0,0,0,0,0,0,0,0,0,0,0,0,0,0,0,0,0,0,0,0,0,0,0,0,0,0,0,0,0,0,0,0,0,0,0,0,0,0,0,0,0,0,0,0,0,0,0,0,0,0,0,0,0,0,0,0,0,0,0,0,0,0,0,0,0,0,0,0,0,0,0,0,0,0,0,0,0,0,0,0,0,0,0,0,0,0,0,0,0,0,0,0,0,0,0,0,0,0,0,0,0,0,0,0,0,0,0,0,0,0,0,0,0,0,0,0,0,0,0,0,0,0,0,0,0]},{"id":2,"name":"Water","type":"tilelayer","x":0,"y":0,"width":96,"height":84,"opacity":1,"visible":true,"data":[0,0,0,0,0,0,0,0,0,0,0,0,0,0,0,0,0,0,0,0,0,0,0,0,0,0,0,0,0,0,0,0,0,0,0,0,0,0,0,0,0,0,0,0,0,0,0,0,0,0,0,0,0,0,0,0,0,0,0,0,0,0,0,0,0,0,0,0,0,0,0,0,0,0,0,0,0,0,0,0,0,0,0,0,0,0,0,0,0,0,0,0,0,0,0,0,0,0,0,0,0,0,0,0,0,0,0,0,0,0,0,0,0,0,0,0,0,0,0,0,0,0,0,0,0,0,0,0,0,0,0,0,0,0,0,0,0,0,0,0,0,0,0,0,0,0,0,0,0,0,0,0,0,0,0,0,0,0,0,0,0,0,0,0,0,0,0,0,0,0,0,0,0,0,0,0,0,0,0,0,0,0,0,0,0,0,0,0,0,0,0,0,0,0,0,0,0,0,0,0,0,0,0,0,0,0,0,0,0,0,0,0,0,0,0,0,0,0,0,0,0,0,0,0,0,0,0,0,0,0,0,0,0,0,0,0,0,0,0,0,0,0,0,0,0,0,0,0,0,0,0,0,0,0,0,0,0,0,0,0,0,0,0,0,0,0,0,0,0,0,0,0,0,0,0,0,0,0,0,0,0,0,0,0,0,0,0,0,0,0,0,0,0,0,0,0,0,0,0,0,0,0,0,0,0,0,0,0,0,0,0,0,0,0,0,0,0,0,0,0,0,0,0,0,0,0,0,0,0,0,0,0,0,0,0,0,0,0,0,0,0,0,0,0,0,0,0,0,0,0,0,0,0,0,0,0,0,0,0,0,0,0,0,0,0,0,0,0,0,0,0,0,0,0,0,0,0,0,0,0,0,0,0,0,0,0,0,0,0,0,0,0,0,0,0,0,0,0,0,0,0,0,0,0,0,0,0,0,0,0,0,0,0,0,0,0,0,0,0,0,0,0,0,0,0,0,0,0,0,0,0,0,0,0,0,0,0,0,0,0,0,0,0,0,0,0,0,0,0,0,0,0,0,0,0,0,0,0,0,0,0,0,0,0,0,0,0,0,0,0,0,0,0,0,0,0,0,0,0,0,0,0,0,0,0,0,0,0,0,0,0,0,0,0,0,0,0,0,0,0,0,0,0,0,0,0,0,0,0,0,0,0,0,0,0,0,0,0,0,0,0,0,0,0,0,0,0,0,0,0,0,0,0,0,0,0,0,0,0,0,0,0,0,0,0,0,0,0,0,0,0,0,0,0,0,0,0,0,0,0,0,0,0,0,0,0,0,0,0,0,0,0,0,0,0,0,0,0,0,0,0,0,0,0,0,0,0,0,0,0,0,0,0,0,0,0,0,0,0,0,0,0,0,0,0,0,0,0,0,0,0,0,0,0,0,0,0,0,0,0,0,0,0,0,0,0,0,0,0,0,0,0,0,0,0,0,0,0,0,0,0,0,0,0,0,0,0,0,0,0,0,0,0,0,0,0,0,0,0,0,0,0,0,0,0,0,0,0,0,0,0,0,0,0,0,0,0,0,0,0,0,0,0,0,0,0,0,0,0,0,0,0,0,0,0,0,0,0,0,0,0,0,0,0,0,0,0,0,0,0,0,0,0,0,0,0,0,0,0,0,0,0,0,0,0,0,0,0,0,0,0,0,0,0,0,0,0,0,0,0,0,0,0,0,0,0,0,0,0,0,0,0,0,0,0,0,0,0,0,0,0,0,0,0,0,0,0,0,0,0,0,0,0,0,0,0,0,0,0,0,0,0,0,0,0,0,0,0,0,0,0,0,0,0,0,0,0,0,0,0,0,0,0,0,0,0,0,0,0,0,0,0,0,0,0,0,0,0,0,0,0,0,0,0,0,0,0,0,0,0,0,0,0,0,0,0,0,0,0,0,0,0,0,0,0,0,0,0,0,0,0,0,0,0,0,0,0,0,0,0,0,0,0,0,0,0,0,0,0,0,0,0,0,0,0,0,0,0,0,0,0,0,0,0,0,0,0,0,0,0,0,0,0,0,0,0,0,0,0,0,0,0,0,0,0,0,0,0,0,0,0,0,0,0,0,0,0,0,0,0,0,0,0,0,0,0,0,0,0,0,0,0,0,0,0,0,0,0,0,0,0,0,0,0,0,0,0,0,0,0,0,0,0,0,0,0,0,0,0,0,0,0,0,0,0,0,0,0,0,0,0,0,0,0,0,0,0,0,0,0,0,0,0,0,0,0,0,0,0,0,0,0,0,0,0,0,0,0,0,0,0,0,0,0,0,0,0,0,0,0,0,0,0,0,0,0,0,0,0,0,0,0,0,0,0,0,0,0,0,0,0,0,0,0,0,0,0,0,0,0,0,0,0,0,0,0,0,0,0,0,0,0,0,0,0,0,0,0,0,0,0,0,0,0,0,0,0,0,0,0,0,0,0,0,0,0,0,0,0,0,0,0,0,0,0,0,0,0,0,0,0,0,0,0,0,0,0,0,0,0,0,0,0,0,0,0,0,0,0,0,0,0,0,0,0,0,0,0,0,0,0,0,0,0,0,0,0,0,0,0,0,0,0,0,0,0,0,0,0,0,0,0,0,0,0,0,0,0,0,0,0,0,0,0,0,0,0,0,0,0,0,0,0,0,0,0,0,0,0,0,0,0,0,0,0,0,0,0,0,0,0,0,0,0,0,0,0,0,0,0,0,0,0,0,0,0,0,0,0,0,0,0,0,0,0,0,0,0,0,0,0,0,0,0,0,0,0,0,0,0,0,0,0,0,0,0,0,0,0,0,0,0,0,0,0,0,0,0,0,0,0,0,0,0,0,0,0,0,0,0,0,0,0,0,0,0,0,0,0,0,0,0,0,0,0,0,0,0,0,0,0,0,0,0,0,0,0,0,0,0,0,0,0,0,0,0,0,0,0,0,0,0,0,0,0,0,0,0,0,0,0,0,0,0,0,0,0,0,0,0,0,0,0,0,0,0,0,0,0,0,0,0,0,0,0,0,0,0,0,0,0,0,0,0,0,0,0,0,0,0,0,0,0,0,0,0,0,0,0,0,0,0,0,0,0,0,0,0,0,0,0,0,0,0,0,0,0,0,0,0,0,0,0,0,0,0,0,0,0,0,0,0,0,0,0,0,0,0,0,0,0,0,0,0,0,0,0,0,0,0,0,0,0,0,0,0,0,0,0,0,0,0,0,0,0,0,0,0,0,0,0,0,0,0,0,0,0,0,0,0,0,0,0,0,0,0,0,0,0,0,0,0,0,0,0,0,0,0,0,0,0,0,0,0,0,0,0,0,0,0,0,0,0,0,0,0,0,0,0,0,0,0,0,0,0,0,0,0,0,0,0,0,0,0,0,0,0,0,0,0,0,0,0,0,0,0,0,0,0,0,0,0,0,0,0,0,0,0,0,0,0,0,0,0,0,0,0,0,0,0,0,0,0,0,0,0,0,0,0,0,0,0,0,0,0,0,0,0,0,0,0,0,0,0,0,0,0,0,0,0,0,0,0,0,0,0,0,0,0,0,0,0,0,0,0,0,0,0,0,0,0,0,0,0,0,0,0,0,0,0,0,0,0,0,0,0,0,0,0,0,0,0,0,0,0,0,0,0,0,0,0,0,0,0,0,0,0,0,0,0,0,0,0,0,0,0,0,0,0,0,0,0,0,0,0,0,0,0,0,0,0,0,0,0,0,0,0,0,0,0,0,0,0,0,0,0,0,0,0,0,0,0,0,0,0,0,0,0,0,0,0,0,0,0,0,0,0,0,0,0,0,0,0,0,0,0,0,0,0,0,0,0,0,0,0,0,0,0,0,0,0,0,0,0,0,0,0,0,0,0,0,0,0,0,0,0,0,0,0,0,0,0,0,0,0,0,0,0,0,0,0,0,0,0,0,0,0,0,0,0,0,0,0,0,0,0,0,0,0,0,0,0,0,0,0,0,0,0,0,0,0,0,0,0,0,0,0,0,0,0,0,0,0,0,0,0,0,0,0,0,0,0,0,0,0,0,0,0,0,0,0,0,0,0,0,0,0,0,0,0,0,0,0,0,0,0,0,0,0,0,0,0,0,0,0,0,0,0,0,0,0,0,0,0,0,0,0,0,0,0,0,0,0,0,0,0,0,0,0,0,0,0,0,0,0,0,0,0,0,0,0,0,0,0,0,0,0,0,0,0,0,0,0,0,0,0,0,0,0,0,0,0,0,0,0,0,0,0,0,0,0,0,0,0,0,0,0,0,0,0,0,0,0,0,0,0,0,0,0,0,0,0,0,0,0,0,0,0,0,0,0,0,0,0,0,0,0,0,0,0,0,0,0,0,0,0,0,0,0,0,0,0,0,0,0,0,0,0,0,0,0,0,0,0,0,0,0,0,0,0,0,0,0,0,0,0,0,0,0,0,0,0,0,0,0,0,0,0,0,0,0,0,0,0,0,0,0,0,0,0,0,0,0,0,0,0,0,0,0,0,0,0,0,0,0,0,0,0,0,0,0,0,0,0,0,0,0,0,0,0,0,0,0,0,0,0,0,0,0,0,0,0,0,0,0,0,0,0,0,0,0,0,0,0,0,0,0,0,0,0,0,0,0,0,0,0,0,0,0,0,0,0,0,0,0,0,0,0,0,0,0,0,0,0,0,0,0,0,0,0,0,0,0,0,0,0,0,0,0,0,0,0,0,0,0,0,0,0,0,0,0,0,0,0,0,0,0,0,0,0,0,0,0,0,0,0,0,0,0,0,0,0,0,0,0,0,0,0,0,0,0,0,0,0,0,0,0,0,0,0,0,0,0,0,0,0,0,0,0,0,0,0,0,0,0,0,0,0,0,0,0,0,0,0,0,0,0,0,0,0,0,0,0,0,0,0,0,0,0,0,0,0,0,0,0,0,0,0,0,0,0,0,0,0,0,0,0,0,0,0,0,0,0,0,0,0,0,0,0,0,0,0,0,0,0,0,0,0,0,0,0,0,0,0,0,0,0,0,0,0,0,0,0,0,0,0,0,0,0,0,0,0,0,0,0,0,0,0,0,0,0,0,0,0,0,0,0,0,0,0,0,0,0,0,0,0,0,0,0,0,0,0,0,0,0,0,0,0,0,0,0,0,0,0,0,0,0,0,0,0,0,0,0,0,0,0,0,0,0,0,0,0,0,0,0,0,0,0,0,0,0,0,0,0,0,0,0,0,0,0,0,0,0,0,0,0,0,0,0,0,0,0,0,0,0,0,0,0,0,0,0,0,0,0,0,0,0,0,0,0,0,0,0,0,0,0,0,0,0,0,0,0,0,0,0,0,0,0,0,0,0,0,0,0,0,0,0,0,0,0,0,0,0,0,0,0,0,0,0,0,0,0,0,0,0,0,0,0,0,0,0,0,0,0,0,0,0,0,0,0,0,0,0,0,0,0,0,0,0,0,0,0,0,0,0,0,0,0,0,0,0,0,0,0,0,0,0,0,0,0,0,0,0,0,0,0,0,0,0,0,0,0,0,0,0,0,0,0,0,0,0,0,0,0,0,0,0,0,0,0,0,0,0,0,0,0,0,0,0,0,0,0,0,0,0,0,0,0,0,0,0,0,0,0,0,0,0,0,0,0,0,0,0,0,0,0,0,0,0,0,0,0,0,0,0,0,0,0,0,0,0,0,0,0,0,0,0,0,0,0,0,0,0,0,0,0,0,0,0,0,0,0,0,0,0,0,0,0,0,0,0,0,0,0,0,0,0,0,0,0,0,0,0,0,0,0,0,0,0,0,0,0,0,0,0,0,0,0,0,0,0,0,0,0,0,0,0,0,0,0,0,0,0,0,0,0,0,0,0,0,0,0,0,0,0,0,0,0,0,0,0,0,0,0,0,0,0,0,0,0,0,0,0,0,0,0,0,0,0,0,0,0,0,0,0,0,0,0,0,0,0,0,0,0,0,0,0,0,0,0,0,0,0,0,0,0,0,0,0,0,0,0,0,0,0,0,0,0,0,0,0,0,0,0,0,0,0,0,0,0,0,0,0,0,0,0,0,0,0,0,0,0,0,0,0,0,0,0,0,0,0,0,0,0,0,0,0,0,0,0,0,0,0,0,0,0,0,0,0,0,0,0,0,0,0,0,0,0,0,0,0,0,0,0,0,0,0,0,0,0,0,0,0,0,0,0,0,0,0,0,0,0,0,0,0,0,0,0,0,0,0,0,0,0,0,0,0,0,0,0,0,0,0,0,0,0,0,0,0,0,0,0,0,0,0,0,0,0,0,0,0,0,0,0,0,0,0,0,0,0,0,0,0,0,0,0,0,0,0,0,0,0,0,0,0,0,0,0,0,0,0,0,0,0,0,0,0,0,0,0,0,0,0,0,0,0,0,0,0,0,0,0,0,0,0,0,0,0,0,0,0,0,0,0,0,0,0,0,0,0,0,0,0,0,0,0,0,0,0,0,0,0,0,0,0,0,0,0,0,0,0,0,0,0,0,0,0,0,0,0,0,0,0,0,0,0,0,0,0,0,0,0,0,0,0,0,0,0,0,0,0,0,0,0,0,0,0,0,0,0,0,0,0,0,0,0,0,0,0,0,0,0,0,0,0,0,0,0,0,0,0,0,0,0,0,0,0,0,0,0,0,0,0,0,0,0,0,0,0,0,0,0,0,0,0,0,0,0,0,0,0,0,0,0,0,0,0,0,0,0,0,0,0,0,0,0,0,0,0,0,0,0,0,0,0,0,0,0,0,0,0,0,0,0,0,0,0,0,0,0,0,0,0,0,0,0,0,0,0,0,0,0,0,0,0,0,0,0,0,0,0,0,0,0,0,0,0,0,0,0,0,0,0,0,0,0,0,0,0,0,0,0,0,0,0,0,0,0,0,0,0,0,0,0,0,0,0,0,0,0,0,0,0,0,0,0,0,0,0,0,0,0,0,0,0,0,0,0,0,0,0,0,0,0,0,0,0,0,0,0,0,0,0,0,0,0,0,0,0,0,0,0,0,0,0,0,0,0,0,0,0,0,0,0,0,0,0,0,0,0,0,0,0,0,0,0,0,0,0,0,0,0,0,0,0,0,0,0,0,0,0,0,0,0,0,0,0,0,0,0,0,0,0,0,0,0,0,0,0,0,0,0,0,0,0,0,0,0,0,0,0,0,0,0,0,0,0,0,0,0,0,0,0,0,0,0,0,0,0,0,0,0,0,0,0,0,0,0,0,0,0,0,0,0,0,0,0,0,0,0,0,0,0,0,0,0,0,0,0,0,0,0,0,0,0,0,0,0,0,0,0,0,0,0,0,0,0,0,0,0,0,0,0,0,0,0,0,0,0,0,0,0,0,0,0,0,0,0,0,0,0,0,0,0,0,0,0,0,0,0,0,0,0,0,0,0,0,0,0,0,0,0,0,0,0,0,0,0,0,0,0,0,0,0,0,0,0,0,0,0,0,0,0,0,0,0,0,0,0,0,0,0,0,0,0,0,0,0,0,0,0,0,0,0,0,0,0,0,0,0,0,0,0,0,0,0,0,0,0,0,0,0,0,0,0,0,0,0,0,0,0,0,0,0,0,0,0,0,0,0,0,0,0,0,0,0,0,0,0,0,0,0,0,0,0,0,0,0,0,0,0,0,0,0,0,0,0,0,0,0,0,0,0,0,0,0,0,0,0,0,0,0,0,0,0,0,0,0,0,0,0,0,0,0,0,0,0,0,0,0,0,0,0,0,0,0,0,0,0,0,0,0,0,0,0,0,0,0,0,0,0,0,0,0,0,0,0,0,0,0,0,0,0,0,0,0,0,0,0,0,0,0,0,0,0,0,0,0,0,0,0,0,0,0,0,0,0,0,0,0,0,0,0,0,0,0,0,0,0,0,0,0,0,0,0,0,0,0,0,0,0,0,0,0,0,0,0,0,0,0,0,0,0,0,0,0,0,0,0,0,0,0,0,0,0,0,0,0,0,0,0,0,0,0,0,0,0,0,0,0,0,0,0,0,0,0,0,0,0,0,0,0,0,0,0,0,0,0,0,0,0,0,0,0,0,0,0,0,0,0,0,0,0,0,0,0,0,0,0,0,0,0,0,0,0,0,0,0,0,0,0,0,0,0,0,0,0,0,0,0,0,0,0,0,0,0,0,0,0,0,0,0,0,0,0,0,0,0,0,0,0,0,0,0,0,0,0,0,0,0,0,0,0,0,0,0,0,0,0,0,0,0,0,0,0,0,0,0,0,0,0,0,0,0,0,0,0,0,0,0,0,0,0,0,0,0,0,0,0,0,0,0,0,0,0,0,0,0,0,0,0,0,0,0,0,0,0,0,0,0,0,0,0,0,0,0,0,0,0,0,0,0,0,0,0,0,0,0,0,0,0,0,0,0,0,0,0,0,0,0,0,0,0,0,0,0,0,0,0,0,0,0,0,0,0,0,0,0,0,0,0,0,0,0,0,0,0,0,0,0,0,0,0,0,0,0,0,0,0,0,0,0,0,0,0,0,0,0,0,0,0,0,0,0,0,0,0,0,0,0,0,0,0,0,0,0,0,0,0,0,0,0,0,0,0,0,0,0,0,0,0,0,0,0,0,0,0,0,0,0,0,0,0,0,0,0,0,0,0,0,0,0,0,0,0,0,0,0,0,0,0,0,0,0,0,0,0,0,0,0,0,0,0,0,0,0,0,0,0,0,0,0,0,0,0,0,0,0,0,0,0,0,0,0,0,0,0,0,0,0,0,0,0,0,0,0,0,0,0,0,0,0,0,0,0,0,0,0,0,0,0,0,0,0,0,0,0,0,0,0,0,0,0,0,0,0,0,0,0,0,0,0,0,0,0,0,0,0,0,0,0,0,0,0,0,0,0,0,0,0,0,0,0,0,0,0,0,0,0,0,0,0,0,0,0,0,0,0,0,0,0,0,0,0,0,0,0,0,0,0,0,0,0,0,0,0,0,0,0,0,0,0,0,0,0,0,0,0,0,0,0,0,0,0,0,0,0,0,0,0,0,0,0,0,0,0,0,0,0,0,0,0,0,0,0,0,0,0,0,0,0,0,0,0,0,0,0,0,0,0,0,0,0,0,0,0,0,0,0,0,0,0,0,0,0,0,0,0,0,0,0,0,0,0,0,0,0,0,0,0,0,0,0,0,0,0,0,0,0,0,0,0,0,0,0,0,0,0,0,0,0,0,0,0,0,0,0,0,0,0,0,0,0,0,0,0,0,0,0,0,0,0,0,0,0,0,0,0,0,0,0,0,0,0,0,0,0,0,0,0,0,0,0,0,0,0,0,0,0,0,0,0,0,0,0,0,0,0,0,0,0,0,0,0,0,0,0,0,0,0,0,0,0,0,0,0,0,0,0,0,0,0,0,0,0,0,0,0,0,0,0,0,0,0,0,0,0,0,0,0,0,0,0,0,0,0,0,0,0,0,0,0,0,0,0,0,0,0,0,0,0,0,0,0,0,0,0,0,0,0,0,0,0,0,0,0,0,0,0,0,0,0,0,0,0,0,0,0,0,0,0,0,0,0,0,0,0,0,0,0,0,0,0,0,0,0,0,0,0,0,0,0,0,0,0,0,0,0,0,0,0,0,0,0,0,0,0,0,0,0,0,0,0,0,0,0,0,0,0,0,0,0,0,0,0,0,0,0,0,0,0,0,0,0,0,0,0,0,0,0,0,0,0,0,0,0,0,0,0,0,0,0,0,0,0,0,0,0,0,0,0,0,0,0,0,0,0,0,0,0,0,0,0,0,0,0,0,0,0,0,0,0,0,0,0,0,0,0,0,0,0,0,0,0,0,0,0,0,0,0,0,0,0,0,0,0,0,0,0,0,0,0,0,0,0,0,0,0,0,0,0,0,0,0,0,0,0,0,0,0,0,0,0,0,0,0,0,0,0,0,0,0,0,0,0,0,0,0,0,0,0,0,0,0,0,0,0,0,0,0,0,0,0,0,0,0,0,0,0,0,0,0,0,0,0,0,0,0,0,0,0,0,0,0,0,0,0,0,0,0,0,0,0,0,0,0,0,0,0,0,0,0,0,0,0,0,0,0,0,0,0,0,0,0,0,0,0,0,0,0,0,0,0,0,0,0,0,0,0,0,0,0,0,0,0,0,0,0,0,0,0,0,0,0,0,0,0,0,0,0,0,0,0,0,0,0,0,0,0,0,0,0,0,0,0,0,0,0,0,0,0,0,0,0,0,0,0,0,0,0,0,0,0,0,0,0,0,0,0,0,0,0,0,0,0,0,0,0,0,0,0,0,0,0,0,0,0,0,0,0,0,0,0,0,0,0,0,0,0,0,0,0,0,0,0,0,0,0,0,0,0,0,0,0,0,0,0,0,0,0,0,0,0,0,0,0,0,0,0,0,0,0,0,0,0,0,0,0,0,0,0,0,0,0,0,0,0,0,0,0,0,0,0,0,0,0,0,0,0,0,0,0,0,0,0,0,0,0,0,0,0,0,0,0,0,0,0,0,0,0,0,0,0,0,0,0,0,0,0,0,0,0,0,0,0,0,0,0,0,0,0,0,0,0,0,0,0,0,0,0,0,0,0,0,0,0,0,0,0,0,0,0,0,0,0,0,0,0,0,0,0,0,0,0,0,0,0,0,0,0,0,0,0,0,0,0,0,0,0,0,0,0,0,0,0,0,0,0,0,0,0,0,0,0,0,0,0,0,0,0,0,0,0,0,0,0,0,0,0,0,0,0,0,0,0,0,0,0,0,0,0,0,0,0,0,0,0,0,0,0,0,0,0,0,0,0,0,0,0,0,0,0,0,0,0,0,0,0,0,0,0,0,0,0,0,0,0,0,0,0,0,0,0,0,0,0,0,0,0,0,0,0,0,0,0,0,0,0,0,0,0,0,0,0,0,0,0,0,0,0,0,0,0,0,0,0,0,0,0,0,0,0,0,0,0,0,0,0,0,0,0,0,0,0,0,0,0,0,0,0,0,0,0,0,0,0,0,0,0,0,0,0,0,0,0,0,0,0,0,0,0,0,0,0,0,0,0,0,0,0,0,0,0,0,0,0,0,0,0,0,0,0,0,0,0,0,0,0,0,0,0,0,0,0,0,0,0,0,0,0,0,0,0,0,0,0,0,0,0,0,0,0,0,0,0,0,0,0,0,0,0,0,0,0,0,0,0,0,0,0,0,0,0,0,0,0,0,0,0,0,0,0,0,0,0,0,0,0,0,0,0,0,0,0,0,0,0,0,0,0,0,0,0,0,0,0,0,0,0,0,0,0,0,0,0,0,0,0,0,0,0,0,0,0,0,0,0,0,0,0,0,0,0,0,0,0,0,0,0,0,0,0,0,0,0,0,0,0,0,0,0,0,0,0,0,0,0,0,0,0,0,0,0,0,0,0,0,0,0,0,0,0,0,0,0,0,0,0,0,0,0,0,0,0,0,0,0,0,0,0,0,0,0,0,0,0,0,0,0,0,0,0,0,0,0,0,0,0,0,0,0,0,0,0,0,0,0,0,0,0,0,0,0,0,0,0,0,0,0,0,0,0,0,0,0,0,0,0,0,0,0,0,0,0,0,0,0,0,0,0,0,0,0,0,0,0,0,0,0,0,0,0,0,0,0,0,0,0,0,0,0,0,0,0,0,0,0,0,0,0,0,0,0,0,0,0,0,0,0,0,0,0,0,0,0,0,0,0,0,0,0,0,0,0,0,0,0,0,0,0,0,0,0,0,0,0,0,0,0,0,0,0,0,0,0,0,0,0,0,0,0,0,0,0,0,0,0,0,0,0,0,0,0,0,0,0,0,0,0,0,0,0,0,0,0,0,0,0,0,0,0,0,0,0,0,0,0,0,0,0,0,0,0,0,0,0,0,0,0,0,0,0,0,0,0,0,0,0,0,0,0,0,0,0,0,0,0,0,0,0,0,0,0,0,0,0,0,0,0,0,0,0,0,0,0,0,0,0,0,0,0,0,0,0,0,0,0,0,0,0,0,0,0,0,0,0,0,0,0,0,0,0,0,0,0,0,0,0,0,0,0,0,0,0,0,0,0,0,0,0,0,0,0,0,0,0,0,0,0,0,0,0,0,0,0,0,0,0,0,0,0,0,0,0,0,0,0,0,0,0,0,0,0,0,0,0,0,0,0,0,0,0,0,0,0,0,0,0,0,0,0,0,0,0,0,0,0,0,0,0,0,0,0,0,0,0,0,0,0,0,0,0,0,0,0,0,0,0,0,0,0,0,0,0,0,0,0,0,0,0,0,0,0,0,0,0,0,0,0,0,0,0,0,0,0,0,0,0,0,0,0,0,0,0,0,0,0,0,0,0,0,0,0,0,0,0,0,0,0,0,0,0,0,0,0,0,0,0,0,0,0,0,0,0,0,0,0,0,0,0,0,0,0,0,0,0,0,0,0,0,0,0,0,0,0,0,0,0,0,0,0,0,0,0,0,0,0,0,0,0,0,0,0,0,0,0,0,0,0,0,0,0,0,0,0,0,0,0,0,0,0,0,0,0,0,0,0,0,0,0,0,0,0,0,0,0,0,0,0,0,0,0,0,0,0,0,0,0,0,0,0,0,0,0,0,0,0,0,0,0,0,0,0,0,0,0,0,0,0,0,0,0,0,0,0,0,0,0,0,0,0,0,0,0,0,0,0,0,0,0,0,0,0,0,0,0,0,0,0,0,0,0,0,0,0,0,0,0,0,0,0,0,0,0,0,0,0,0,0,0,0,0,0,0,0,0,0,0,0,0,0,0,0,0,0,0,0,0,0,0,0,0,0,0,0,0,0,0,0,0,0,0,0,0,0,0,0,0,0,0,0,0,0,0,0,0,0,0,0,0,0,0,0,0,0,0,0,0,0,0,0,0,0,0,0,0,0,0,0,0,0,0,0,0,0,0,0,0,0,0,0,0,0,0,0,0,0,0,0,0,0,0,0,0,0,0,0,0,0,0,0,0,0,0,0,0,0,0,0,0,0,0,0,0,0,0,0,0,0,0,0,0,0,0,0,0,0,0,0,0,0,0,0,0,0,0,0,0,0,0,0,0,0,0,0,0,0,0,0,0,0,0,0,0,0,0,0,0,0,0,0,0,0,0,0,0,0,0,0,0,0,0,0,0,0,0,0,0,0,0,0,0,0,0,0,0,0,0,0,0,0,0,0,0,0,0,0,0,0,0,0,0,0,0,0,0,0,0,0,0,0,0,0,0,0,0,0,0,0,0,0,0,0,0,0,0,0,0,0,0,0,0,0,0,0,0,0,0,0,0,0,0,0,0,0,0,0,0,0,0,0,0,0,0,0,0,0,0,0,0,0,0,0,0,0,0,0,0,0,0,0,0,0,0,0,0,0,0,0,0,0,0,0,0,0,0,0,0,0,0,0,0,0,0,0,0,0,0,0,0,0,0,0,0,0,0,0,0,0,0,0,0,0,0,0,0,0,0,0,0,0,0,0,0,0,0,0,0,0,0,0,0,0,0,0,0,0,0,0,0,0,0,0,0,0,0,0,0,0,0,0,0,0,0,0,0,0,0,0,0,0,0,0,0,0,0,0,0,0,0,0,0,0,0,0,0,0,0,0,0,0,0,0,0,0,0,0,0,0,0,0,0,0,0,0,0,0,0,0,0,0,0,0,0,0,0,0,0,0,0,0,0,0,0,0,0,0,0,0,0,0,0,0,0,0,0,0,0,0,0,0,0,0,0,0,0,0,0,0,0,0,0,0,0,0,0,0,0,0,0,0,0,0,0,0,0,0,0,0,0,0,0,0,0,0,0,0,0,0,0,0,0,0,0,0,0,0,0,0,0,0,0,0,0,0,0,0,0,0,0,0,0,0,0,0,0,0,0,0,0,0,0,0,0,0,0,0,0,0,0,0,0,0,0,0,0,0,0,0,0,0,0,0,0,0,0,0,0,0,0,0,0,0,0,0,0,0,0,0,0,0,0,0,0,0,0,0,0,0,0,0,0,0,0,0,0,0,0,0,0,0,0,0,0,0,0,0,0,0,0,0,0,0,0,0,0,0,0,0,0,0,0,0,0,0,0,0,0,0,0,0,0,0,0,0,0,0,0,0,0,0,0,0,0,0,0,0,0,0,0,0,0,0,0,0,0,0,0,0,0,0,0,0,0,0,0,0,0,0,0,0,0,0,0,0,0,0,0,0,0,0,0,0,0,0,0,0,0,0,0,0,0,0,0,0,0,0,0,0,0,0,0,0,0,0,0,0,0,0,0,0,0,0,0,0,0,0,0,0,0,0,0,0,0,0,0,0,0,0,0,0,0,0,0,0,0,0,0,0,0,0,0,0,0,0,0,0,0,0,0,0,0,0,0,0,0,0,0,0,0,0,0,0,0,0,0,0,0,0,0,0,0,0,0,0,0,0,0,0,0,0,0,0,0,0,0,0,0,0,0,0,0,0,0,0,0,0,0,0,0,0,0,0,0,0,0,0,0,0,0,0,0,0,0,0,0,0,0,0,0,0,0,0,0,0,0,0,0,0,0,0,0,0,0,0,0,0,0,0,0,0,0,0,0,0,0,0,0,0,0,0,0,0,0,0,0,0,0,0,0,0,0,0,0,0,0,0,0,0,0,0,0,0,0,0,0,0,0,0,0,0,0,0,0,0,0,0,0,0,0,0,0,0,0,0,0,0,0,0,0,0,0,0,0,0,0,0,0,0,0,0,0,0,0,0,0,0,0,0,0,0,0,0,0,0,0,0,0,0,0,0,0,0,0,0,0,0,0,0,0,0,0,0,0,0,0,0,0,0,0,0,0,0,0,0,0,0,0,0,0,0,0,0,0,0,0,0,0,0,0,0,0,0,0,0,0,0,0,0,0,0,0,0,0,0,0,0,0,0,0,0,0,0,0,0,0,0,0,0,0,0,0,0,0,0,0,0,0,0,0,0,0,0,0,0,0,0,0,0,0,0,0,0,0,0,0,0,0,0,0,0,0,0,0,0,0,0,0,0,0,0,0,0,0,0,0,0,0,0,0,0,0,0,0,0,0,0,0,0,0,0,0,0,0,0,0,0,0,0,0,0,0,0,0,0,0,0,0,0,0,0,0,0,0,0,0,0,0,0,0,0,0,0,0,0,0,0,0,0,0,0,0,0,0,0,0,0,0,0,0,0,0,0,0,0,0,0,0,0,0,0,0,0,0,0,0,0,0,0,0,0,0,0,0,0,0,0,0,0,0,0,0,0,0,0,0,0,0,0,0,0,0,0,0,0,0,0,0,0,0,0,0,0,0,0,0,0,0,0,0,0,0,0,0,0,0,0,0,0,0,0,0,0,0,0,0,0,0,0,0,0,0,0,0,0,0,0,0,0,0,0,0,0,0,0,0,0,0,0,0,0,0,0,0,0,0,0,0,0,0,0,0,0,0,0,0,0,0,0,0,0,0,0,0,0,0,0,0,0,0,0,0,0,0,0,0,0,0,0,0,0,0,0,0,0,0,0,0,0,0,0,0,0,0,0,0,0,0,0,0,0,0,0,0,0,0,0,0,0,0,0,0,0,0,0,0,0,0,0,0,0,0,0,0,0,0,0,0,0,0,0,0,0,0,0,0,0,0,0,0,0,0,0,0,0,0,0,0,0,0,0,0,0,0,0,0,0,0,0,0,0,0,0,0,0,0,0,0,0,0,0,0,0,0,0,0,0,0,0,0,0,0,0,0,0,0,0,0,0,0,0,0,0,0,0,0,0,0,0,0,0,0,0,0,0,0,0,0,0,0,0,0,0,0,0,0,0,0,0,0,0,0,0,0,0,0,0,0,0,0,0,0,0,0,0,0,0,0,0,0,0,0,0,0,0,0,0,0,0,0,0,0,0,0,0,0,0,0,0,0,0,0,0,0,0,0,0,0,0,0,0,0,0,0,0,0,0,0,0,0,0,0,0,0,0,0,0,0,0,0,0,0,0,0,0,0,0,0,0,0,0,0,0,0,0,0,0,0,0,0,0,0,0,0,0,0,0,0,0,0,0,0,0,0,0,0,0,0,0,0,0,0,0,0,0,0,0,0,0,0,0,0,0,0,0,0,0,0,0,0,0,0,0,0,0,0,0,0,0,0,0,0,0,0,0,0,0,0,0,0,0,0,0,0,0,0,0,0,0,0,0,0,0,0,0,0,0,0,0,0,0,0,0,0,0,0,0,0,0,0,0,0,0,0,0,0,0,0,0,0,0,0,0,0,0,0,0,0,0,0,0,0,0,0,0,0,0,0,0,0,0,0,0,0,0,0,0,0,0,0,186,187,0,0,0,0,0,188,189,190,191,187,186,190,189,0,0,0,0,0,0,0,192,191,189,186,191,0,0,0,0,0,0,0,0,0,0,0,188,191,0,0,0,0,0,0,0,0,0,0,0,0,0,0,0,0,0,0,0,0,0,0,0,0,0,0,0,0,0,0,0,0,0,0,0,0,0,0,0,0,0,0,0,0,0,0,0,0,0,0,0,0,0,0,0,0,193,193,192,191,191,188,186,194,195,196,197,198,194,198,199,186,187,190,191,187,190,192,200,201,201,200,199,187,192,192,0,0,0,0,191,187,190,191,197,196,189,186,191,0,0,0,0,0,0,190,188,202,187,192,190,190,0,0,0,0,0,0,0,0,0,187,191,190,0,0,0,0,0,0,0,0,0,0,0,0,0,0,0,0,0,0,0,0,0,0,0,0,0,0,0,0,196,203,193,193,193,197,197,201,194,201,201,200,201,193,203,195,204,201,204,203,198,204,201,201,205,193,196,199,200,200,202,192,191,187,195,193,199,195,203,200,200,196,193,190,188,189,192,189,190,196,196,196,194,203,198,198,192,192,190,0,0,186,192,192,189,200,203,195,202,186,187,0,0,0,0,0,0,202,202,190,186,191,190,190,0,0,0,0,0,0,0,0,191,189,191,192,198,201,199,201,201,204,200,199,194,196,205,199,205,201,197,196,194,204,201,193,200,194,194,195,198,195,197,199,193,199,195,205,204,196,199,196,200,193,199,198,200,194,193,204,205,197,195,201,200,193,205,199,196,194,204,199,203,196,195,191,188,198,205,193,201,198,200,200,204,201,193,202,190,189,186,192,190,196,193,198,200,198,204,199,190,192,190,0,0,186,189,191,194,195,199,205,194,200,204,200,198,199,205,197,203,194,193,196,205,198,195,197,200,205,196,195,199,200,196,205,194,193,194,197,201,199,196,200,194,201,195,196,195,204,194,199,193,197,196,204,197,201,199,201,203,197,200,200,194,201,195,197,199,203,205,200,201,204,195,201,200,201,201,200,204,203,204,194,198,205,199,198,204,201,204,203,204,194,200,197,200,200,198,202,190,197,197,200,198,199,194,195,196,204,199,204,204,201,196,197,201,204,199,195,195,198,194,195,198,205,200,198,195,203,205,195,199,195,205,196,195,194,204,201,195,201,201,197,205,194,203,203,203,203,194,195,195,200,193,198,196,204,194,204,197,196,204,200,194,205,205,194,194,199,199,196,194,201,193,201,204,205,196,203,193,200,201,193,205,201,200,195,200,198,200,204,201,196,199,205,194,196,199,194,196,204,203,200,200,204,204,199,196,197,197,205,203,204,198,197,194,198,204,198,201,201,198,204,201,203,198,195,201,193,195,197,199,200,200,200,198,204,201,199,195,205,193,194,201,203,203,194,193,198,201,198,200,204,205,201,193,205,205,195,205,198,196,205,205,198,205,196,201,198,204,200,195,198,198,205,198,197,194,193,195,197,201,197,198,195,204,198,196,201,199,199,199,203,195,198,205,195,200,204,194,198,195,203,194,204,198,200,193,200,201,199,196,200,195,204,194,199,196,200,200,203,201,203,195,204,194,199,205,205,196,196,201,193,197,204,203,195,193,198,200,195,205,200,204,205,205,199,203,201,193,194,198,205,197,199,196,204,203,203,194,199,205,204,197,201,201,200,195,201,204,193,203,203,196,194,199,195,196,205,201,193,200,201,194,203,201,199,199,205,196,198,204,193,199,194,204,198,199,205,200,204,200,198,197,193,205,203,205,199,195,197,194,200,198,201,194,194,204,196,203,195,194,200,198,203,205,194,198,194,197,204,193,204,197,203,200,197,200,198,196,199,199,201,195,198,205,200,197,195,200,200,199,205,195,199,197,199,196,198,197,193,197,198,203,197,201,193,204,195,197,203,200,193,195,201,193,194,200,199,201,197,193,204,197,197,193,194,196,201,203,195]},{"id":3,"name":"Artichoke Cliffs","type":"tilelayer","x":0,"y":0,"width":96,"height":84,"opacity":1,"visible":true,"data":[0,0,0,0,0,0,0,0,0,0,0,0,0,0,0,0,0,0,0,0,0,0,0,0,0,0,0,0,0,0,0,0,0,0,0,0,0,0,0,0,0,0,0,0,0,0,0,0,0,0,0,0,0,0,0,0,0,0,0,0,0,0,0,0,0,0,0,0,0,0,0,0,0,0,0,0,0,0,0,0,0,0,0,0,0,0,0,0,0,0,0,0,0,0,0,0,0,0,0,0,0,0,0,0,0,0,0,0,0,0,0,0,0,0,0,0,0,0,0,0,0,0,0,0,0,0,0,0,0,0,0,0,0,0,0,0,0,0,0,0,0,0,0,0,0,0,0,0,0,0,0,0,0,0,0,0,0,0,0,0,0,0,0,0,0,0,0,0,0,0,0,0,0,0,0,0,0,0,0,0,0,0,0,0,0,0,0,0,0,0,0,0,0,0,0,0,0,0,0,0,0,0,0,0,0,0,0,0,0,0,0,0,0,0,0,0,0,0,0,0,0,0,0,0,0,0,0,0,0,0,0,0,0,0,0,0,0,0,0,0,0,0,0,0,0,0,0,0,0,0,0,0,0,0,0,0,0,0,0,0,0,0,0,0,0,0,0,0,0,0,0,0,0,0,0,0,0,0,0,0,0,0,0,0,0,0,0,0,0,0,0,0,0,0,0,0,0,0,0,0,0,0,0,0,0,0,0,0,0,0,0,0,0,0,0,0,0,0,0,0,0,0,0,0,0,0,0,0,0,0,0,0,0,0,0,0,0,0,0,0,0,0,0,0,0,0,0,0,0,0,0,0,0,0,0,0,0,0,0,0,0,0,0,0,0,0,0,0,0,0,0,0,0,0,0,0,0,0,0,0,0,0,0,0,0,0,0,0,0,0,0,0,0,0,0,0,0,0,0,0,0,0,0,0,0,0,0,0,0,0,0,0,0,0,0,0,0,0,0,0,0,0,0,0,0,0,0,0,0,0,0,0,0,0,0,0,0,0,0,0,0,0,0,0,0,0,0,0,0,0,0,0,0,0,0,0,0,0,0,0,0,0,0,0,0,0,0,0,0,0,0,0,0,0,0,0,0,0,0,0,0,0,0,0,0,0,0,0,0,0,0,0,0,0,0,0,0,0,0,0,0,0,0,0,0,0,0,0,0,0,0,0,0,0,0,0,0,0,0,0,0,0,0,0,0,0,0,0,0,0,0,0,0,0,0,0,0,0,0,0,0,0,0,0,0,0,0,0,0,0,0,0,0,0,0,0,0,0,0,0,0,0,0,0,0,0,0,0,0,0,0,0,0,0,0,0,0,0,0,0,0,0,0,0,0,0,0,0,0,0,0,0,0,0,0,0,0,0,0,0,0,0,0,0,0,0,0,0,0,0,0,0,0,0,0,0,0,0,0,0,0,0,0,0,0,0,0,0,0,0,0,0,0,0,0,0,0,0,0,0,0,0,0,0,0,0,0,0,0,0,0,0,0,0,0,0,0,0,0,0,0,0,0,0,0,0,0,0,0,0,0,0,0,0,0,0,0,0,0,0,0,0,0,0,0,0,0,0,0,0,0,0,0,0,0,0,0,0,0,0,0,0,0,0,0,0,0,0,0,0,0,0,0,0,0,0,0,0,0,0,0,0,0,0,0,0,0,0,0,0,0,0,0,0,0,0,0,0,0,0,0,0,0,0,0,0,0,0,0,0,0,0,0,0,0,0,0,0,0,0,0,0,0,0,0,0,0,0,0,0,0,0,0,0,0,0,0,0,0,0,0,0,0,0,0,0,0,0,0,0,0,0,0,0,0,0,0,0,0,0,0,0,0,0,0,0,0,0,0,0,0,0,0,0,0,0,0,0,0,0,0,0,0,0,0,0,0,0,0,0,0,0,0,0,0,0,0,0,0,0,0,0,0,0,0,0,0,0,0,0,0,0,0,0,0,0,0,0,0,0,0,0,0,0,0,0,0,0,0,0,0,0,0,0,0,0,0,0,0,0,0,0,0,0,0,0,0,0,0,0,0,0,0,0,0,0,0,0,0,0,0,0,0,0,0,0,0,0,0,0,0,0,0,0,0,0,0,0,0,0,0,0,0,0,0,0,0,0,0,0,0,0,0,0,0,0,0,0,0,0,0,0,0,0,0,0,0,0,0,0,0,0,0,0,0,0,0,0,0,0,0,0,0,0,0,0,0,0,0,0,0,0,0,0,0,0,0,0,0,0,0,0,0,0,0,0,0,0,0,0,0,0,0,0,0,0,0,0,0,0,0,0,0,0,0,0,0,0,0,0,0,0,0,0,0,0,0,0,0,0,0,0,0,0,0,0,0,0,0,0,0,0,0,0,0,0,0,0,0,0,0,0,0,0,0,0,0,0,0,0,0,0,0,0,0,0,0,0,0,0,0,0,0,0,0,0,0,0,0,0,0,0,0,0,0,0,0,0,0,0,0,0,0,0,0,0,0,0,0,0,0,0,0,0,0,0,0,0,0,0,0,0,0,0,0,0,0,0,0,0,0,0,0,0,0,0,0,0,0,0,0,0,0,0,0,0,0,0,0,0,0,0,0,0,0,0,0,0,0,0,0,0,0,0,0,0,0,0,0,0,0,0,0,0,0,0,0,0,0,0,0,0,0,0,0,0,0,0,0,0,0,0,0,0,0,0,0,0,0,0,0,0,0,0,0,0,0,0,0,0,0,0,0,0,0,0,0,0,0,0,0,0,0,0,0,0,0,0,0,0,0,0,0,0,0,0,0,0,0,0,0,0,0,0,0,0,0,0,0,0,0,0,0,0,0,0,0,0,0,0,60,61,62,62,60,63,64,65,0,0,0,0,0,0,0,0,0,0,0,0,0,0,0,0,0,0,0,0,0,0,0,0,0,0,0,0,0,0,0,0,0,0,0,0,0,0,0,0,0,0,0,0,0,0,0,0,0,0,0,0,0,0,0,0,0,0,0,0,0,0,0,0,0,0,0,0,0,0,0,0,0,0,0,0,0,66,67,67,60,68,69,61,65,60,69,64,70,70,71,72,73,74,75,76,0,0,0,0,0,0,0,0,0,0,0,0,0,0,0,0,0,0,0,0,0,0,0,0,0,0,0,0,0,0,0,0,0,0,0,0,0,0,0,0,0,0,0,0,0,0,0,0,0,0,0,0,0,0,0,0,0,0,0,0,0,0,0,0,0,0,0,0,0,0,68,60,69,77,77,60,64,73,72,78,79,76,75,76,73,79,78,71,80,81,82,83,84,85,86,86,0,0,0,0,0,0,0,0,0,0,0,0,0,0,0,0,0,0,0,0,0,0,0,0,0,0,0,0,0,0,0,0,0,0,0,0,0,0,0,0,0,0,0,0,0,0,0,0,0,0,0,0,0,0,0,0,0,0,0,0,0,0,0,0,0,64,69,60,66,63,79,87,79,80,87,72,74,72,88,88,89,88,83,90,81,84,91,89,84,0,0,0,0,0,0,0,0,0,0,0,0,0,0,0,0,0,0,0,0,0,0,0,0,0,0,0,0,0,0,0,0,0,0,0,0,0,0,0,0,0,0,0,0,0,0,0,0,0,0,0,0,0,0,0,0,0,0,0,0,0,0,0,0,0,0,0,0,0,0,61,68,76,74,78,78,97,97,98,82,83,90,91,98,86,0,0,0,0,0,0,0,0,0,0,0,0,0,0,0,0,0,0,0,0,0,0,0,0,0,0,0,0,0,0,0,0,0,0,0,0,0,0,0,0,0,0,0,0,0,0,0,0,0,0,0,0,0,0,0,0,0,0,0,0,0,0,0,0,0,0,0,0,0,0,0,0,0,0,0,0,0,0,66,111,111,72,71,76,86,88,83,98,88,0,0,0,0,0,0,0,0,0,0,0,0,0,0,0,0,0,0,0,0,0,0,0,0,0,0,0,0,0,0,0,0,0,0,0,0,0,0,0,0,0,0,0,0,0,0,0,0,0,0,0,0,0,0,0,0,0,0,0,0,0,0,0,0,0,0,0,0,0,0,0,0,0,0,0,0,0,0,0,0,0,0,0,65,64,76,72,72,76,88,84,0,0,0,0,0,0,0,0,0,0,0,0,0,0,0,0,0,0,0,0,0,0,0,0,0,0,0,0,0,0,0,0,0,0,0,0,0,0,0,0,0,0,0,0,0,0,0,0,0,0,0,0,0,0,0,0,0,0,0,0,0,0,0,0,0,0,0,0,0,0,0,0,0,0,0,0,0,0,0,0,0,0,0,0,0,69,111,111,75,78,97,83,98,85,0,0,0,0,0,0,0,0,0,0,0,0,0,0,0,0,0,0,0,0,0,0,0,0,0,0,0,0,0,0,0,0,0,0,0,0,0,0,0,0,0,0,0,0,0,0,0,0,0,0,0,0,0,0,0,0,0,0,0,0,0,0,0,0,0,0,0,0,0,0,0,0,0,0,0,0,0,0,0,0,0,0,0,0,0,0,111,75,78,87,75,85,91,0,0,0,0,0,0,0,0,0,0,0,0,0,0,0,0,0,0,0,0,0,0,0,0,0,0,0,0,0,0,0,0,0,0,0,0,0,0,0,0,0,0,0,0,0,0,0,0,0,0,0,0,0,0,0,0,0,0,0,0,0,0,0,0,0,0,0,0,0,0,0,0,0,0,0,0,0,0,0,0,0,0,0,65,62,0,0,0,0,78,76,83,81,84,0,0,0,0,0,0,0,0,0,0,0,0,0,0,0,0,0,0,0,0,0,0,0,0,0,0,0,0,0,0,0,0,0,0,0,0,0,0,0,0,0,0,0,0,0,0,0,0,0,0,0,0,0,0,0,0,0,0,0,0,0,0,0,0,0,67,66,65,62,60,61,64,61,68,60,65,60,69,64,63,69,64,63,65,60,87,0,0,0,0,0,89,82,0,0,0,0,0,0,0,0,0,0,0,0,0,0,0,0,0,0,0,0,0,0,0,0,0,0,0,0,0,0,0,0,0,0,0,0,0,0,0,0,0,0,0,0,0,0,0,0,0,0,0,0,0,0,0,0,0,0,0,0,0,0,0,0,0,66,65,68,74,71,97,71,97,79,75,79,74,76,75,87,97,87,75,78,74,70,87,87,75,90,0,0,0,0,0,0,0,0,0,0,0,0,0,0,0,0,0,0,0,0,0,0,0,0,0,0,0,0,0,0,0,0,0,0,0,0,0,0,0,0,0,0,0,0,0,0,0,0,0,0,0,0,0,0,0,0,0,0,0,0,0,0,0,0,0,0,64,64,63,67,60,75,80,80,75,84,90,85,90,98,86,91,83,90,85,84,81,88,83,91,91,84,85,84,83,0,0,0,0,0,0,0,0,0,0,0,0,0,0,0,0,0,0,0,0,0,0,0,0,0,0,0,0,0,0,0,0,0,0,0,0,0,0,0,0,0,0,0,0,0,0,0,66,67,68,62,69,77,66,111,69,0,0,0,0,77,61,68,60,111,62,60,78,72,79,70,78,71,89,82,98,0,0,0,0,0,0,0,0,0,0,0,0,0,0,0,0,0,0,0,0,0,0,0,0,0,0,0,0,0,0,0,0,0,0,0,0,0,0,0,0,0,0,0,0,0,0,0,0,0,0,0,0,0,0,0,0,0,0,0,0,0,0,0,0,0,0,0,75,87,79,72,87,75,70,75,70,0,0,0,0,73,79,80,79,79,76,70,75,85,144,83,91,89,0,0,0,0,0,0,0,0,0,0,0,0,0,0,0,0,0,0,0,0,0,0,0,0,0,0,0,0,0,0,0,0,0,0,0,0,0,0,0,0,0,0,0,0,0,0,0,0,0,0,0,0,0,0,0,0,0,0,0,0,0,0,0,0,0,0,0,0,0,0,86,144,98,91,144,91,84,85,83,0,0,0,0,81,84,89,86,83,81,91,83,0,0,0,0,0,0,0,0,0,0,0,0,0,0,0,0,0,0,0,0,0,0,0,0,0,0,0,0,0,0,0,0,0,0,0,0,0,0,0,0,0,0,0,0,0,0,0,0,0,0,0,0,0,0,0,0,0,0,0,0,0,0,0,0,0,0,0,0,0,0,0,0,0,0,0,0,0,0,0,0,0,0,0,0,0,0,0,0,0,0,0,0,0,0,0,0,0,0,0,0,0,0,0,0,0,0,0,0,0,0,0,0,0,0,0,0,0,0,0,0,0,0,0,0,0,0,0,0,0,0,0,0,0,0,0,0,0,0,0,0,0,0,0,0,0,0,0,0,0,0,0,0,0,0,0,0,0,0,0,0,0,0,0,0,0,0,0,0,0,0,0,0,0,0,0,0,0,0,0,0,0,0,0,0,0,0,0,0,0,0,0,0,0,0,0,0,0,0,0,0,0,0,0,0,0,0,0,0,0,0,0,0,0,0,0,0,0,0,0,0,0,0,0,0,0,0,0,0,0,0,0,0,0,0,0,0,0,0,0,0,0,0,0,0,0,0,0,0,0,0,0,0,0,0,0,0,0,0,0,0,0,0,0,0,0,0,0,0,0,0,0,0,0,0,0,0,0,0,0,0,0,0,0,0,0,0,0,0,0,0,0,0,0,0,0,0,0,0,0,0,0,0,0,0,0,0,0,0,0,0,0,0,0,0,0,0,0,0,0,0,0,0,0,0,0,0,0,0,0,0,0,0,0,0,0,0,0,0,0,0,0,0,0,0,0,0,0,0,0,0,0,0,0,0,0,0,0,0,0,0,0,0,0,0,0,0,0,0,0,0,0,0,0,0,0,0,0,0,0,0,0,0,0,0,0,0,0,0,0,0,0,0,0,0,0,0,0,0,0,0,0,0,0,0,0,0,0,0,0,0,0,0,0,0,0,0,0,0,0,0,0,0,0,0,0,0,0,0,0,0,0,0,0,0,0,0,0,0,0,0,0,0,0,0,0,0,0,0,0,0,0,0,0,0,0,0,0,0,0,0,0,0,0,0,0,0,0,0,0,0,0,0,0,0,0,0,0,0,0,0,0,0,0,0,0,0,0,0,0,0,0,0,0,0,0,0,0,0,0,0,0,0,0,0,0,0,0,0,0,0,0,0,0,0,0,0,0,0,0,0,0,0,0,0,0,0,0,0,0,0,0,0,0,0,0,0,0,0,0,0,0,0,0,0,0,0,0,0,0,0,0,0,0,0,0,0,0,0,0,0,0,0,0,0,0,0,0,0,0,0,0,0,0,0,0,0,0,0,0,0,0,0,0,0,0,0,0,0,0,0,0,0,0,0,0,0,0,0,0,0,0,0,0,0,0,0,0,0,0,0,0,0,0,0,0,0,0,0,0,0,0,0,0,0,0,0,0,0,0,0,0,0,0,0,0,0,0,0,0,0,0,0,0,0,0,0,0,0,0,0,0,0,0,0,0,0,0,0,0,0,0,0,0,0,0,0,0,0,0,0,0,0,0,0,0,0,0,0,0,0,0,0,0,0,0,0,0,0,0,0,0,0,0,0,0,0,0,0,0,0,0,0,0,0,0,0,0,0,0,0,0,0,0,0,0,0,0,0,0,0,0,0,0,0,0,0,0,0,0,0,0,0,0,0,0,0,0,0,0,0,0,0,0,0,0,0,0,0,0,0,0,0,0,0,0,0,0,0,0,0,0,0,0,0,0,0,0,0,0,0,0,0,0,0,0,0,0,0,0,0,0,0,0,0,0,0,0,0,0,0,0,0,0,0,0,0,0,0,0,0,0,0,0,0,0,0,0,0,0,0,0,0,0,0,0,0,0,0,0,0,0,0,0,0,0,0,0,0,0,0,0,0,0,0,0,0,0,0,0,0,0,0,0,0,0,0,0,0,0,0,0,0,0,0,0,0,0,0,0,0,0,0,0,0,0,0,0,0,0,0,0,0,0,0,0,0,0,0,0,0,0,0,0,0,0,0,0,0,0,0,0,0,0,0,0,0,0,0,0,0,0,0,0,0,0,0,0,0,0,0,0,0,0,0,0,0,0,0,0,0,0,0,0,0,0,0,0,0,0,0,0,0,0,0,0,0,0,0,0,0,0,0,0,0,0,0,0,0,0,0,0,0,0,0,0,0,0,0,0,0,0,0,0,0,0,0,0,0,0,0,0,0,0,0,0,0,0,0,0,0,0,0,0,0,0,0,0,0,0,0,0,0,0,0,0,0,0,0,0,0,0,0,0,0,0,0,0,0,0,0,0,0,0,0,0,0,0,0,0,0,0,0,0,0,0,0,0,0,0,0,0,0,0,0,0,0,0,0,0,0,0,0,0,0,0,0,0,0,0,0,0,0,0,0,0,0,0,0,0,0,0,0,0,0,0,0,0,0,0,0,0,0,0,0,0,0,0,0,0,0,0,0,0,0,0,0,0,0,0,0,0,0,0,0,0,0,0,0,0,0,0,0,0,0,0,0,0,0,0,0,0,0,0,0,0,0,0,0,0,0,0,0,0,0,0,0,0,0,0,0,0,0,0,0,0,0,0,0,0,0,0,0,0,0,0,0,0,0,0,0,0,0,0,0,0,0,0,0,0,0,0,0,0,0,0,0,0,0,0,0,0,0,0,0,0,0,0,0,0,0,0,0,0,0,0,0,0,0,0,0,0,0,0,0,0,0,0,0,0,0,0,0,0,0,0,0,0,0,0,0,0,0,0,0,0,0,0,0,0,0,0,0,0,0,0,0,0,0,0,0,0,0,0,0,0,0,0,0,0,0,0,0,0,0,0,0,0,0,0,0,0,0,0,0,0,0,0,0,0,0,0,0,0,0,0,0,0,0,0,0,0,0,0,0,0,0,0,0,0,0,0,0,0,0,0,0,0,0,0,0,0,0,0,0,0,0,0,0,0,0,0,0,0,0,0,0,0,0,0,0,0,0,0,0,0,0,0,0,0,0,0,0,0,0,0,0,0,0,0,0,0,0,0,0,0,0,0,0,0,0,0,0,0,0,0,0,0,0,0,0,0,0,0,0,0,0,0,0,0,0,0,0,0,0,0,0,0,0,0,0,0,0,0,0,0,0,0,0,0,0,0,0,0,0,0,0,0,0,0,0,0,0,0,0,0,0,0,0,0,0,0,0,0,0,0,0,0,0,0,0,0,0,0,0,0,0,0,0,0,0,0,0,0,0,0,0,0,0,0,0,0,0,0,0,0,0,0,0,0,0,0,0,0,0,0,0,0,0,0,0,0,0,0,0,0,0,0,0,0,0,0,0,0,0,0,0,0,0,0,0,0,0,0,0,0,0,0,0,0,0,0,0,0,0,0,0,0,0,0,0,0,0,0,0,0,0,0,0,0,0,0,0,0,0,0,0,0,0,0,0,0,0,0,0,0,0,0,0,0,0,0,0,0,0,0,0,0,0,0,0,0,0,0,0,0,0,0,0,0,0,0,0,0,0,0,0,0,0,0,0,0,0,0,0,0,0,0,0,0,0,0,0,0,0,0,0,0,0,0,0,0,0,0,0,0,0,0,0,0,0,0,0,0,0,0,0,0,0,0,0,0,0,0,0,0,0,0,0,0,0,0,0,0,0,0,0,0,0,0,0,0,0,0,0,0,0,0,0,0,0,0,0,0,0,0,0,0,0,0,0,0,0,0,0,0,0,0,0,0,0,0,0,0,0,0,0,0,0,0,0,0,0,0,0,0,0,0,0,0,0,0,0,0,0,0,0,0,0,0,0,0,0,0,0,0,0,0,0,0,0,0,0,0,0,0,0,0,0,0,0,0,0,0,0,0,0,0,0,0,0,0,0,0,0,0,0,0,0,0,0,0,0,0,0,0,0,0,0,0,0,0,0,0,0,0,0,0,0,0,0,0,0,0,0,0,0,0,0,0,0,0,0,0,0,0,0,0,0,0,0,0,0,0,0,0,0,0,0,0,0,0,0,0,0,0,0,0,0,0,0,0,0,0,0,0,0,0,0,0,0,0,0,0,0,0,0,0,0,0,0,0,0,0,0,0,0,0,0,0,0,0,0,0,0,0,0,0,0,0,0,0,0,0,0,0,0,0,0,0,0,0,0,0,0,0,0,0,0,0,0,0,0,0,0,0,0,0,0,0,0,0,0,0,0,0,0,0,0,0,0,0,0,0,0,0,0,0,0,0,0,0,0,0,0,0,0,0,0,0,0,0,0,0,0,0,0,0,0,0,0,0,0,0,0,0,0,0,0,0,0,0,0,0,0,0,0,0,0,0,0,0,0,0,0,0,0,0,0,0,0,0,0,0,0,0,0,0,0,0,0,0,0,0,0,0,0,0,0,0,0,0,0,0,0,0,0,0,0,0,0,0,0,0,0,0,0,0,0,0,0,0,0,0,0,0,0,0,0,0,0,0,0,0,0,0,0,0,0,0,0,0,0,0,0,0,0,0,0,0,0,0,0,0,0,0,0,0,0,0,0,0,0,0,0,0,0,0,0,0,0,0,0,0,0,0,0,0,0,0,0,0,0,0,0,0,0,0,0,0,0,0,0,0,0,0,0,0,0,0,0,0,0,0,0,0,0,0,0,0,0,0,0,0,0,0,0,0,0,0,0,0,0,0,0,0,0,0,0,0,0,0,0,0,0,0,0,0,0,0,0,0,0,0,0,0,0,0,0,0,0,0,0,0,0,0,0,0,0,0,0,0,0,0,0,0,0,0,0,0,0,0,0,0,0,0,0,0,0,0,0,0,0,0,0,0,0,0,0,0,0,0,0,0,0,0,0,0,0,0,0,0,0,0,0,0,0,0,0,0,0,0,0,0,0,0,0,0,0,0,0,0,0,0,0,0,0,0,0,0,0,0,0,0,0,0,0,0,0,0,0,0,0,0,0,0,0,0,0,0,0,0,0,0,0,0,0,0,0,0,0,0,0,0,0,0,0,0,0,0,0,0,0,0,0,0,0,0,0,0,0,0,0,0,0,0,0,0,0,0,0,0,0,0,0,0,0,0,0,0,0,0,0,0,0,0,0,0,0,0,0,0,0,0,0,0,0,0,0,0,0,0,0,0,0,0,0,0,0,0,0,0,0,0,0,0,0,0,0,0,0,0,0,0,0,0,0,0,0,0,0,0,0,0,0,0,0,0,0,0,0,0,0,0,0,0,0,0,0,0,0,0,0,0,0,0,0,0,0,0,0,0,0,0,0,0,0,0,0,0,0,0,0,0,0,0,0,0,0,0,0,0,0,0,0,0,0,0,0,0,0,0,0,0,0,0,0,0,0,0,0,0,0,0,0,0,0,0,0,0,0,0,0,0,0,0,0,0,0,0,0,0,0,0,0,0,0,0,0,0,0,0,0,0,0,0,0,0,0,0,0,0,0,0,0,0,0,0,0,0,0,0,0,0,0,0,0,0,0,0,0,0,0,0,0,0,0,0,0,0,0,0,0,0,0,0,0,0,0,0,0,0,0,0,0,0,0,0,0,0,0,0,0,0,0,0,0,0,0,0,0,0,0,0,0,0,0,0,0,0,0,0,0,0,0,0,0,0,0,0,0,0,0,0,0,0,0,0,0,0,0,0,0,0,0,0,0,0,0,0,0,0,0,0,0,0,0,0,0,0,0,0,0,0,0,0,0,0,0,0,0,0,0,0,0,0,0,0,0,0,0,0,0,0,0,0,0,0,0,0,0,0,0,0,0,0,0,0,0,0,0,0,0,0,0,0,0,0,0,0,0,0,0,0,0,0,0,0,0,0,0,0,0,0,0,0,0,0,0,0,0,0,0,0,0,0,0,0,0,0,0,0,0,0,0,0,0,0,0,0,0,0,0,0,0,0,0,0,0,0,0,0,0,0,0,0,0,0,0,0,0,0,0,0,0,0,0,0,0,0,0,0,0,0,0,0,0,0,0,0,0,0,0,0,0,0,0,0,0,0,0,0,0,0,0,0,0,0,0,0,0,0,0,0,0,0,0,0,0,0,0,0,0,0,0,0,0,0,0,0,0,0,0,0,0,0,0,0,0,0,0,0,0,0,0,0,0,0,0,0,0,0,0,0,0,0,0,0,0,0,0,0,0,0,0,0,0,0,0,0,0,0,0,0,0,0,0,0,0,0,0,0,0,0,0,0,0,0,0,0,0,0,0,0,0,0,0,0,0,0,0,0,0,0,0,0,0,0,0,0,0,0,0,0,0,0,0,0,0,0,0,0,0,0,0,0,0,0,0,0,0,0,0,0,0,0,0,0,0,0,0,0,0,0,0,0,0,0,0,0,0,0,0,0,0,0,0,0,0,0,0,0,0,0,0,0,0,0,0,0,0,0,0,0,0,0,0,0,0,0,0,0,0,0,0,0,0,0,0,0,0,0,0,0,0,0,0,0,0,0,0,0,0,0,0,0,0,0,0,0,0,0,0,0,0,0,0,0,0,0,0,0,0,0,0,0,0,0,0,0,0,0,0,0,0,0,0,0,0,0,0,0,0,0,0,0,0,0,0,0,0,0,0,0,0,0,0,0,0,0,0,0,0,0,0,0,0,0,0,0,0,0,0,0,0,0,0,0,0,0,0,0,0,0,0,0,0,0,0,0,0,0,0,0,0,0,0,0,0,0,0,0,0,0,0,0,0,0,0,0,0,0,0,0,0,0,0,0,0,0,0,0,0,0,0,0,0,0,0,0,0,0,0,0,0,0,0,0,0,0,0,0,0,0,0,0,0,0,0,0,0,0,0,0,0,0,0,0,0,0,0,0,0,0,0,0,0,0,0,0,0,0,0,0,0,0,0,0,0,0,0,0,0,0,0,0,0,0,0,0,0,0,0,0,0,0,0,0,0,0,0,0,0,0,0,0,0,0,0,0,0,0,0,0,0,0,0,0,0,0,0,0,0,0,0,0,0,0,0,0,0,0,0,0,0,0,0,0,0,0,0,0,0,0,0,0,0,0,0,0,0,0,0,0,0,0,0,0,0,0,0,0,0,0,0,0,0,0,0,0,0,0,0,0,0,0,0,0,0,0,0,0,0,0,0,0,0,0,0,0,0,0,0,0,0,0,0,0,0,0,0,0,0,0,0,0,0,0,0,0,0,0,0,0,0,0,0,0,0,0,0,0,0,0,0,0,0,0,0,0,0,0,0,0,0,0,0,0,0,0,0,0,0,0,0,0,0,0,0,0,0,0,0,0,0,0,0,0,0,0,0,0,0,0,0,0,0,0,0,0,0,0,0,0,0,0,0,0,0,0,0,0,0,0,0,0,0,0,0,0,0,0,0,0,0,0,0,0,0,0,0,0,0,0,0,0,0,0,0,0,0,0,0,0,0,0,0,0,0,0,0,0,0,0,0,0,0,0,0,0,0,0,0,0,0,0,0,0,0,0,0,0,0,0,0,0,0,0,0,0,0,0,0,0,0,0,0,0,0,0,0,0,0,0,0,0,0,0,0,0,0,0,0,0,0,0,0,0,0,0,0,0,0,0,0,0,0,0,0,0,0,0,0,0,0,0,0,0,0,0,0,0,0,0,0,0,0,0,0,0,0,0,0,0,0,0,0,0,0,0,0,0,0,0,0,0,0,0,0,0,0,0,0,0,0,0,0,0,0,0,0,0,0,0,0,0,0,0,0,0,0,0,0,0,0,0,0,0,0,0,0,0,0,0,0,0,0,0,0,0,0,0,0,0,0,0,0,0,0,0,0,0,0,0,0,0,0,0,0,0,0,0,0,0,0,0,0,0,0,0,0,0,0,0,0,0,0,0,0,0,0,0,0,0,0,0,0,0,0,0,0,0,0,0,0,0,0,0,0,0,0,0,0,0,0,0,0,0,0,0,0,0,0,0,0,0,0,0,0,0,0,0,0,0,0,0,0,0,0,0,0,0,0,0,0,0,0,0,0,0,0,0,0,0,0,0,0,0,0,0,0,0,0,0,0,0,0,0,0,0,0,0,0,0,0,0,0,0,0,0,0,0,0,0,0,0,0,0,0,0,0,0,0,0,0,0,0,0,0,0,0,0,0,0,0,0,0,0,0,0,0,0,0,0,0,0,0,0,0,0,0,0,0,0,0,0,0,0,0,0,0,0,0,0,0,0,0,0,0,0,0,0,0,0,0,0,0,0,0,0,0,0,0,0,0,0,0,0,0,0,0,0,0,0,0,0,0,0,0,0,0,0,0,0,0,0,0,0,0,0,0,0,0,0,0,0,0,0,0,0,0,0,0,0,0,0,0,0,0,0,0,0,0,0,0,0,0,0,0,0,0,0,0,0,0,0,0,0,0,0,0,0,0,0,0,0,0,0,0,0,0,0,0,0,0,0,0,0,0,0,0,0,0,0,0,0,0,0,0,0,0,0,0,0,0,0,0,0,0,0,0,0,0,0,0,0,0,0,0,0,0,0,0,0,0,0,0,0,0,0,0,0,0,0,0,0,0,0,0,0,0,0,0,0,0,0,0,0,0,0,0,0,0,0,0,0,0,0,0,0,0,0,0,0,0,0,0,0,0,0,0,0,0,0,0,0,0,0,0,0,0,0,0,0,0,0,0,0,0,0,0,0,0,0,0,0,0,0,0,0,0,0,0,0,0,0,0,0,0,0,0,0,0,0,0,0,0,0,0,0,0,0,0,0,0,0,0,0,0,0,0,0,0,0,0,0,0,0,0,0,0,0,0,0,0,0,0,0,0,0,0,0,0,0,0,0,0,0,0,0,0,0,0,0,0,0,0,0,0,0,0,0,0,0,0,0,0,0,0,0,0,0,0,0,0,0,0,0,0,0,0,0,0,0,0,0,0,0,0,0,0,0,0,0,0,0,0,0,0,0,0,0,0,0,0,0,0,0,0,0,0,0,0,0,0,0,0,0,0,0,0,0,0,0,0,0,0,0,0,0,0,0,0,0,0,0,0,0,0,0,0,0,0,0,0,0,0,0,0,0,0,0,0,0,0,0,0,0,0,0,0,0,0,0,0,0,0,0,0,0,0,0,0,0,0,0,0,0,0,0,0,0,0,0,0,0,0,0,0,0,0,0,0,0,0,0,0,0,0,0,0,0,0,0,0,0,0,0,0,0,0,0,0,0,0,0,0,0,0,0,0,0,0,0,0,0,0,0,0,0,0,0,0,0,0,0,0,0,0,0,0,0,0,0,0,0,0,0,0,0,0,0,0,0,0,0,0,0,0,0,0,0,0,0,0,0,0,0,0,0,0,0,0,0,0,0,0,0,0,0,0,0,0,0,0,0,0,0,0,0,0,0,0,0,0,0,0,0,0,0,0,0,0,0,0,0,0,0,0,0,0,0,0,0,0,0,0,0,0,0,0,0,0,0,0,0,0,0,0,0,0,0,0,0,0,0,0,0,0,0,0,0,0,0,0,0,0,0,0,0,0,0,0,0,0,0,0,0,0,0,0,0,0,0,0,0,0,0,0,0,0,0,0,0,0,0,0,0,0,0,0,0,0,0,0,0,0,0,0,0,0,0,0,0,0,0,0,0,0,0,0,0,0,0,0,0,0,0,0,0,0,0,0,0,0,0,0,0,0,0,0,0,0,0,0,0,0,0,0,0,0,0,0,0,0,0,0,0,0,0,0,0,0,0,0,0,0,0,0,0,0,0,0,0,0,0,0,0,0,0,0,0,0,0,0,0,0,0,0,0,0,0,0,0,0,0,0,0,0,0,0,0,0,0,0,0,0,0,0,0,0,0,0,0,0,0,0,0,0,0,0,0,0,0,0,0,0,0,0,0,0,0,0,0,0,0,0,0,0,0,0,0,0,0,0,0,0,0,0,0,0,0,0,0,0,0,0,0,0,0,0,0,0,0,0,0,0,0,0,0,0,0,0,0,0,0,0,0,0,0,0,0,0,0,0,0,0,0,0,0,0,0,0,0,0,0,0,0,0,0,0,0,0,0,0,0,0,0,0,0,0,0,0,0,0,0,0,0,0,0,0,0,0,0,0,0,0,0,0,0,0,0,0,0,0,0,0,0,0,0,0,0,0,0,0,0,0,0,0,0,0,0,0,0,0,0,0,0,0,0,0,0,0,0,0,0,0,0,0,0,0,0,0,0,0,0,0,0,0,0,0,0,0,0,0,0,0,0,0,0,0,0,0,0,0,0,0,0,0,0,0,0,0,0,0,0,0,0,0,0,0,0,0,0,0,0,0,0,0,0,0,0,0,0,0,0,0,0,0,0,0,0,0,0,0,0,0,0,0,0,0,0,0,0,0,0,0,0,0,0,0,0,0,0,0,0,0,0,0,0,0,0,0,0,0,0,0,0,0,0,0,0,0,0,0,0,0,0,0,0,0,0,0,0,0,0,0,0,0,0,0,0,0,0,0,0,0,0,0,0,0,0,0,0,0,0,0,0,0,0,0,0,0,0,0,0,0,0,0,0,0,0,0,0,0,0,0,0,0,0,0,0,0,0,0,0,0,0,0,0,0,0,0,0,0,0,0,0,0,0,0,0,0,0,0,0,0,0,0,0,0,0,0,0,0,0,0,0,0,0,0,0,0,0,0,0,0,0,0,0,0,0,0,0,0,0,0,0,0,0,0,0,0,0,0,0,0,0,0,0,0,0,0,0,0,0,0,0,0,0,0,0,0,0,0,0,0,0,0,0,0,0,0,0,0,0,0,0,0,0,0,0,0,0,0,0,0,0,0,0,0,0,0,0,0,0,0,0,0,0,0,0,0,0,0,0,0,0,0,0,0,0,0,0,0,0,0,0,0,0,0,0,0,0,0,0,0,0,0,0,0,0,0,0,0,0,0,0,0,0,0,0,0,0,0,0,0,0,0,0,0,0,0,0,0,0,0,0,0,0,0,0,0,0,0,0,0,0,0,0,0,0,0,0,0,0,0,0,0,0,0,0,0,0,0,0,0,0,0,0,0,0,0,0,0,0,0,0,0,0,0,0,0,0,0,0,0,0,0,0,0,0,0,0,0,0,0,0,0,0,0,0,0,0,0,0,0,0,0,0,0,0,0,0,0,0,0,0,0,0,0,0,0,0,0,0,0,0,0,0,0,0,0,0,0,0,0,0,0,0,0,0,0,0,0,0,0,0,0,0,0,0,0,0,0,0,0,0,0,0,0,0,0,0,0,0,0,0,0,0,0,0,0,0,0,0,0,0,0,0,0,0,0,0,0,0,0,0,0,0,0,0,0,0,0,0,0,0,0,0,0,0,0,0,0,0,0,0,0,0,0,0,0,0,0,0,0,0,0,0,0,0,0,0,0,0,0,0,0,0,0,0,0,0,0,0,0,0,0,0,0,0,0,0,0,0,0,0,0,0,0,0,0,0,0,0,0,0,0,0,0,0,0,0,0,0,0,0,0,0,0,0,0,0,0,0,0,0,0,0,0,0,0,0,0,0,0,0,0,0,0,0,0,0,0,0,0,0,0,0,0,0,0,0,0,0,0,0,0,0,0,0,0,0,0,0,0,0,0,0,0,0,0,0,0,0,0,0,0,0,0,0,0,0,0,0,0,0,0,0,0,0,0,0,0,0,0,0,0,0,0,0,0,0,0,0,0,0,0,0,0,0,0,0,0,0,0,0,0,0,0,0,0,0,0,0,0,0,0,0,0,0,0,0,0,0,0,0,0,0,0,0,0,0,0,0,0,0,0,0,0,0,0,0,0,0,0,0,0,0,0,0,0,0,0,0,0,0,0,0,0,0,0,0,0,0,0,0,0,0,0,0,0,0,0,0,0,0,0,0,0,0,0,0,0,0,0,0,0,0,0,0,0,0,0,0,0,0,0,0,0,0,0,0,0,0,0,0,0,0,0,0,0,0,0,0,0,0,0,0,0,0,0,0,0,0,0,0,0,0,0,0,0,0,0,0,0,0,0,0,0,0,0,0,0,0,0,0,0,0,0,0,0,0,0,0,0,0,0,0,0,0,0,0,0,0,0,0,0,0,0,0,0,0,0,0,0,0,0,0,0,0,0,0,0,0,0,0,0,0,0,0,0,0,0,0,0,0,0,0,0,0,0,0,0,0,0,0,0,0,0,0,0,0,0,0,0,0,0,0,0,0,0,0,0,0,0,0,0,0,0,0,0,0,0,0,0,0,0,0,0,0,0,0,0,0,0,0,0,0,0,0,0,0,0,0,0,0,0,0,0,0,0,0,0,0,0,0,0,0,0,0,0,0,0,0,0,0,0,0,0,0,0,0,0,0,0,0,0,0,0,0,0,0,0,0,0,0,0,0,0,0,0,0,0,0,0,0,0,0,0,0,0,0,0,0,0,0,0,0,0,0]},{"id":4,"name":"Artichoke Decals","type":"tilelayer","x":0,"y":0,"width":96,"height":84,"opacity":1,"visible":true,"data":[0,0,0,0,0,0,0,0,0,0,0,0,0,0,0,0,0,0,0,0,0,0,0,0,0,0,0,0,0,0,0,0,0,0,0,0,0,0,0,0,0,0,0,0,0,0,0,0,0,0,0,0,0,0,0,0,0,0,0,0,0,0,0,0,0,0,0,0,0,0,0,0,0,0,0,0,0,0,0,0,0,0,0,0,0,0,0,0,0,0,0,0,0,0,0,0,0,0,0,0,0,0,0,0,0,0,0,0,0,0,0,0,0,0,0,0,0,0,0,0,0,0,0,0,0,0,0,0,0,0,0,0,0,0,0,0,0,0,0,0,0,0,0,0,0,0,0,0,0,0,0,0,0,0,0,0,0,0,0,0,0,0,0,0,0,0,0,0,0,0,0,0,0,0,0,0,0,0,0,0,0,0,0,0,0,0,0,0,0,0,0,0,0,0,0,0,0,0,0,0,0,0,0,0,0,0,0,0,0,0,0,0,0,0,0,0,0,0,0,0,0,0,0,0,0,0,0,0,0,0,0,0,0,0,0,0,0,0,0,0,0,0,0,0,0,0,0,0,0,0,0,0,0,0,0,0,0,0,0,0,0,0,0,0,0,0,0,0,0,0,0,0,0,0,0,0,0,0,0,0,0,0,0,0,0,0,0,0,0,0,0,0,0,0,0,0,0,0,0,0,0,0,0,0,0,0,0,0,0,0,0,0,0,0,0,0,0,0,0,0,0,0,0,0,0,0,0,0,0,0,0,0,0,0,0,0,0,0,0,0,0,0,0,0,0,0,0,0,0,0,0,0,0,0,0,0,0,0,0,0,0,0,0,0,0,0,0,0,0,0,0,0,0,0,0,0,0,0,0,0,0,0,0,0,0,0,0,0,0,0,0,0,0,0,0,0,0,0,0,0,0,0,0,0,0,0,0,0,0,0,0,0,0,0,0,0,0,0,0,0,0,0,0,0,0,0,0,0,0,0,0,0,0,0,0,0,0,0,0,0,0,0,0,0,0,0,0,0,0,0,0,0,0,0,0,0,0,0,0,0,0,0,0,0,0,0,0,0,0,0,0,0,0,0,0,0,0,0,0,0,0,0,0,0,0,0,0,0,0,0,0,0,0,0,0,0,0,0,0,0,0,0,0,0,0,0,0,0,0,0,0,0,0,0,0,0,0,0,0,0,0,0,0,0,0,0,0,0,0,0,0,0,0,0,0,0,0,0,0,0,0,0,0,0,0,0,0,0,0,0,0,0,0,0,0,0,0,0,0,0,0,0,0,0,0,0,0,0,0,0,0,0,0,0,0,0,0,0,0,0,0,0,0,0,0,0,0,0,0,0,0,0,0,0,0,0,0,0,0,0,0,0,0,0,0,0,0,0,0,0,0,0,0,0,0,0,0,0,0,0,0,0,0,0,0,0,0,0,0,0,0,0,0,0,0,0,0,0,0,0,0,0,0,0,0,0,0,0,0,0,0,0,0,0,0,0,0,0,0,0,0,0,0,0,0,0,0,0,0,0,0,0,0,0,0,0,0,0,0,0,0,0,0,0,0,0,0,0,0,0,0,0,0,0,0,0,0,0,0,0,0,0,0,0,0,0,0,0,0,0,0,0,0,0,0,0,0,0,0,0,0,0,0,0,0,0,0,0,0,0,0,0,0,0,0,0,0,0,0,0,0,0,0,0,0,0,0,0,0,0,0,0,0,0,0,0,0,0,0,0,0,0,0,0,0,0,0,0,0,0,0,0,0,0,0,0,0,0,0,0,0,0,0,0,0,0,0,0,0,0,0,0,0,0,0,0,0,0,0,0,0,0,0,0,0,0,0,0,0,0,0,0,0,0,0,0,0,0,0,0,0,0,0,0,0,0,0,0,0,0,0,0,0,0,0,0,0,0,0,0,0,0,0,0,0,0,0,0,0,0,0,0,0,0,0,0,0,0,0,0,0,0,0,0,0,0,0,0,0,0,0,0,0,0,0,0,0,0,0,0,0,0,0,0,0,0,206,206,206,206,206,206,206,206,206,206,206,206,206,206,206,206,206,0,0,0,0,0,0,0,0,0,0,0,0,0,0,0,0,0,0,0,0,0,0,0,0,0,0,0,0,0,0,0,0,0,0,0,0,0,0,0,0,0,0,0,0,0,0,0,0,0,0,0,0,0,0,0,0,0,0,0,0,0,0,0,0,0,0,0,0,0,0,206,206,206,206,206,206,206,206,206,0,0,0,0,0,0,0,0,0,0,0,0,0,0,0,0,0,206,206,206,206,206,206,206,206,0,0,0,0,0,0,0,0,0,0,0,0,0,0,0,0,0,0,0,0,0,0,0,0,0,0,0,0,0,0,0,0,0,0,0,0,0,0,0,0,0,0,0,0,0,0,0,0,0,0,0,0,0,0,0,0,0,0,0,0,0,0,0,0,0,0,0,0,0,0,0,0,0,0,0,0,0,0,0,0,0,0,0,0,0,0,0,0,0,0,0,0,0,0,0,0,0,0,0,0,0,0,0,0,0,0,0,206,0,0,0,0,0,0,0,0,0,0,0,0,0,0,0,0,0,0,0,0,0,0,0,0,0,0,0,0,0,0,0,0,0,0,0,0,0,0,0,0,0,0,0,0,0,0,0,0,0,0,0,0,0,0,0,0,0,0,0,0,0,0,0,0,0,0,0,0,0,0,0,0,0,0,0,0,0,0,0,0,0,0,0,0,0,0,0,0,0,0,0,0,0,206,206,0,0,0,0,0,0,0,0,0,0,0,0,0,0,0,0,0,0,0,0,0,0,0,0,0,0,0,0,0,0,0,0,0,0,0,0,0,0,0,0,0,0,0,0,0,0,0,0,0,0,0,0,0,0,0,0,0,0,0,0,0,206,206,206,206,206,206,206,206,206,206,206,206,206,0,0,0,0,0,0,0,0,0,0,0,0,0,0,0,0,0,0,0,206,0,0,0,0,0,0,0,0,0,0,0,0,0,0,0,0,0,0,0,0,0,0,0,0,0,0,0,0,0,0,0,0,0,0,0,0,0,0,0,0,0,0,0,0,0,0,0,0,0,0,0,0,0,0,0,206,206,206,206,206,206,206,206,0,0,0,0,0,0,0,0,0,0,0,0,0,206,206,206,206,206,206,0,0,0,0,0,0,0,0,0,0,0,206,206,0,0,0,0,0,0,206,0,0,0,0,0,0,0,0,0,0,0,0,0,0,0,0,0,0,0,0,0,0,0,0,0,0,0,0,0,0,0,0,0,0,0,0,0,0,0,0,0,0,0,0,0,0,0,0,0,0,0,0,0,0,0,0,0,0,0,0,0,0,0,0,0,0,0,0,0,0,0,0,0,0,0,0,0,0,0,0,0,0,0,0,0,206,206,0,0,0,0,0,0,206,206,0,0,0,0,0,0,0,0,0,0,0,0,0,0,0,0,0,0,0,0,0,0,0,0,0,0,0,0,0,0,0,0,0,0,0,0,0,0,0,0,0,0,0,0,0,0,0,0,0,0,0,0,0,0,0,0,0,0,0,0,0,0,206,206,206,206,206,206,206,206,0,0,0,0,0,0,0,0,0,0,0,0,0,0,0,206,0,0,0,0,0,0,206,206,0,0,0,0,0,0,0,0,0,0,0,0,0,0,0,0,0,0,0,0,0,0,0,0,0,0,0,0,0,0,0,0,0,0,0,0,0,0,0,0,0,0,0,0,0,0,0,0,0,0,0,0,0,0,0,0,0,0,0,0,0,0,206,206,0,0,0,0,0,0,0,0,206,206,206,206,206,206,206,206,0,0,0,0,0,206,206,0,0,0,0,0,206,206,0,0,0,0,0,0,0,0,0,0,0,0,0,0,0,0,0,0,0,0,0,0,0,0,0,0,0,0,0,0,0,0,0,0,0,0,0,0,0,0,0,0,0,0,0,0,0,0,0,0,0,0,0,0,0,0,0,0,0,0,0,0,206,206,0,0,0,0,0,0,0,0,0,0,0,0,0,0,0,0,0,0,0,0,0,0,206,0,0,0,0,0,0,206,0,0,0,0,0,0,0,0,0,0,0,0,0,0,0,0,0,0,0,0,0,0,0,0,0,0,0,0,0,0,0,0,0,0,0,0,0,0,0,0,0,0,0,0,0,0,0,0,0,0,0,0,0,0,0,0,0,0,0,0,0,0,206,206,0,0,0,0,0,0,0,0,0,0,0,0,0,0,0,0,0,0,0,0,0,0,0,0,0,0,0,0,0,206,206,0,0,0,0,0,0,0,0,0,0,0,0,0,0,0,0,0,0,0,0,0,0,0,0,0,0,0,0,0,0,0,0,0,0,0,0,0,0,0,0,0,0,0,0,0,0,0,0,0,0,0,0,0,0,0,0,0,0,0,0,0,0,0,0,0,0,0,0,0,0,0,0,0,0,0,0,0,0,0,0,0,0,0,0,0,0,0,0,0,0,0,0,206,206,0,0,0,0,0,0,0,0,0,0,0,0,0,0,0,0,0,0,0,0,0,0,0,0,0,0,0,0,0,0,0,0,0,0,0,0,0,0,0,0,0,0,0,0,0,0,0,206,206,206,206,206,206,206,206,206,206,206,206,206,206,0,0,0,0,0,0,0,0,0,0,0,0,0,0,0,0,0,0,0,0,0,0,0,0,0,0,0,0,0,0,0,0,0,0,0,0,0,0,0,0,0,0,0,0,0,0,0,0,0,0,0,0,0,0,0,0,0,0,0,0,0,0,0,0,0,0,0,0,0,0,0,0,0,0,0,0,0,0,0,0,0,0,0,0,0,0,0,0,0,0,0,0,0,0,0,0,0,0,0,0,0,0,0,0,0,0,0,0,0,0,0,0,0,0,0,0,0,0,0,0,0,0,0,0,0,0,0,0,0,0,0,0,0,0,0,0,0,0,0,0,0,0,0,0,0,0,0,0,0,0,0,0,0,0,0,0,0,0,0,0,0,0,0,0,0,0,0,0,0,0,0,0,0,0,0,0,0,0,0,0,0,0,0,0,0,0,0,0,0,0,0,0,0,0,0,0,0,0,0,0,0,0,0,0,0,0,0,0,0,0,0,0,0,0,0,0,0,0,0,0,0,0,0,0,0,0,0,0,0,0,0,0,0,0,0,0,0,0,0,0,0,0,0,0,0,0,0,0,0,0,0,0,0,0,0,0,0,0,0,0,0,0,0,0,0,0,0,0,0,0,0,0,0,0,0,0,0,0,0,0,0,0,0,0,0,0,0,0,0,0,0,0,0,0,0,0,0,0,0,0,0,0,0,0,0,0,0,0,0,0,0,0,0,0,0,0,0,0,0,0,0,0,0,0,0,0,0,0,0,0,0,0,0,0,0,0,0,0,0,0,0,0,0,0,0,0,0,0,0,0,0,0,0,0,0,0,0,0,0,0,0,0,0,0,0,0,0,0,0,0,0,0,0,0,0,0,0,0,0,0,0,0,0,0,0,0,0,0,0,0,0,0,0,0,0,0,0,0,0,0,0,0,0,0,0,0,0,0,0,0,0,0,0,0,0,0,0,0,0,0,0,0,0,0,0,0,0,0,0,0,0,0,0,0,0,0,0,0,0,0,0,207,209,211,213,0,0,0,0,0,0,0,0,0,0,0,0,0,0,0,0,0,0,0,0,0,0,0,0,0,0,0,0,0,0,0,0,0,0,0,0,0,0,0,0,0,0,0,0,0,0,0,0,0,0,0,0,0,0,0,0,0,0,0,0,0,0,0,0,0,0,0,0,0,0,0,0,0,0,0,0,0,0,0,0,0,0,0,0,0,0,0,0,0,0,0,0,208,210,212,214,0,0,0,0,0,0,0,0,0,0,0,0,0,0,0,0,0,0,0,0,0,0,0,0,0,0,0,0,0,0,0,0,0,0,0,0,0,0,0,0,0,0,0,0,0,0,0,0,0,0,0,0,0,0,0,0,0,0,0,0,0,0,0,0,0,0,0,0,0,0,0,0,0,0,0,0,0,0,0,0,0,0,0,0,0,0,0,0,0,0,0,0,0,0,0,0,0,0,0,0,0,0,0,0,0,0,0,0,0,0,0,0,0,0,0,0,0,0,0,0,0,0,0,0,0,0,0,0,0,0,0,0,0,0,0,0,0,0,0,0,0,0,0,0,0,0,0,0,0,0,0,0,0,0,0,0,0,0,0,0,0,0,0,0,0,0,0,0,0,0,0,0,0,0,0,0,0,0,0,0,0,0,0,0,0,0,0,0,0,0,0,0,0,0,0,0,0,0,0,0,0,0,0,0,0,0,0,0,0,0,0,0,0,0,0,0,0,0,0,0,0,0,0,0,0,0,0,0,0,0,0,0,0,0,0,0,0,0,0,0,0,0,0,0,0,0,0,0,0,0,0,0,0,0,0,0,0,0,0,0,0,0,0,0,0,0,0,0,0,0,0,0,0,0,0,0,0,0,0,0,0,0,0,0,0,0,0,0,0,0,0,0,0,0,0,0,0,0,0,0,0,0,0,0,0,0,0,0,0,0,0,0,0,0,0,0,0,0,0,0,0,0,0,0,0,0,0,0,0,0,0,0,0,0,0,0,0,0,0,0,0,0,0,0,0,0,0,0,0,0,0,0,0,0,0,0,0,0,0,0,0,0,0,0,0,0,0,0,0,0,0,0,0,0,0,0,0,0,0,0,0,0,0,0,0,0,0,0,0,0,0,0,0,0,0,0,0,0,0,0,0,0,0,0,0,0,0,0,0,0,0,0,0,0,0,0,0,0,0,0,0,0,0,0,0,0,0,0,0,0,0,0,0,0,0,0,0,0,0,0,0,0,0,0,0,0,0,0,0,0,0,0,0,0,0,0,0,0,0,0,0,0,0,0,0,0,0,0,0,0,0,0,0,0,0,0,0,0,0,0,0,0,0,0,0,0,0,0,0,0,0,0,0,0,0,0,0,0,0,0,0,0,0,0,0,0,0,0,0,0,0,0,0,0,0,0,0,0,0,0,0,0,0,0,0,0,0,0,0,0,0,0,0,0,0,0,0,0,0,0,0,0,0,0,0,0,0,0,0,0,0,0,0,0,0,0,0,0,0,0,0,0,239,241,243,245,0,0,0,0,0,0,0,0,0,0,0,0,0,0,0,0,0,0,0,0,0,0,0,0,0,0,0,0,0,0,0,0,0,0,0,0,0,0,0,0,0,0,0,0,0,0,0,0,0,0,0,0,0,0,0,0,0,0,0,0,0,0,0,0,0,0,0,0,0,0,0,0,0,0,0,0,0,0,0,0,0,0,0,0,0,0,0,0,0,0,0,0,240,242,244,246,0,0,0,0,0,0,0,0,0,0,0,0,0,0,0,0,0,0,0,0,0,0,0,0,0,0,0,0,0,0,0,0,0,0,0,0,0,0,0,0,0,0,0,0,0,0,0,0,0,0,0,0,0,0,0,0,0,0,0,0,0,0,0,0,0,0,0,0,0,0,0,0,0,0,0,0,0,0,0,0,0,0,0,0,0,0,0,0,0,0,0,0,0,0,0,0,0,0,0,0,0,0,0,0,0,0,0,0,0,0,0,0,0,0,0,0,0,0,0,0,0,0,0,0,0,0,0,0,0,0,0,0,0,0,0,0,0,0,0,0,0,0,0,0,0,0,0,0,0,0,0,0,0,0,0,0,0,0,0,0,0,0,0,0,0,0,0,0,0,0,0,0,0,0,0,0,0,0,0,0,0,0,0,0,0,0,0,0,0,0,0,0,0,0,0,0,0,0,0,0,0,0,0,0,0,0,0,0,0,0,0,0,0,0,0,0,0,0,0,0,0,0,0,0,0,0,0,0,0,0,0,0,0,0,0,0,0,0,0,0,0,0,0,0,0,0,0,0,0,0,0,0,0,0,0,0,0,0,0,0,0,0,0,0,0,0,227,229,0,0,0,0,0,0,0,0,0,0,0,0,0,0,0,0,0,0,0,0,0,206,206,206,206,206,206,0,0,0,0,0,0,0,0,0,0,0,0,0,0,0,0,0,0,0,0,0,0,0,0,0,0,0,0,0,0,0,0,0,0,0,0,0,0,0,0,0,0,0,0,0,0,0,0,0,0,0,0,0,0,0,0,0,0,0,0,0,0,0,0,0,0,0,228,230,0,0,0,0,0,0,0,0,0,0,0,0,0,0,206,206,206,206,206,206,206,0,0,0,0,0,0,0,0,0,0,0,0,0,0,0,0,0,0,0,0,0,0,0,0,0,0,0,0,0,0,0,0,0,0,0,0,0,0,0,0,0,0,0,0,0,0,0,0,0,0,0,0,0,0,0,0,0,0,0,0,0,0,0,0,0,0,0,0,0,0,0,0,0,0,0,0,0,0,0,0,0,0,0,0,0,0,0,0,0,0,0,0,0,0,0,0,0,0,0,0,0,0,0,0,0,0,0,0,0,0,0,0,0,0,0,0,0,0,0,0,0,0,0,0,0,0,0,0,0,0,0,0,0,0,0,0,0,0,0,0,0,0,0,0,0,0,0,0,0,0,0,0,0,0,0,0,0,0,0,0,0,0,0,0,0,0,0,0,0,0,0,0,0,0,0,0,0,0,0,0,0,0,0,0,0,0,0,0,0,0,0,0,0,0,0,0,0,0,0,0,0,0,0,0,0,0,0,0,0,0,0,0,0,0,0,0,0,0,0,0,0,0,0,0,0,0,0,0,0,0,0,0,0,0,0,0,0,0,0,0,0,0,0,0,0,0,0,0,215,217,0,0,0,0,0,0,0,0,0,0,0,0,0,0,0,0,0,0,0,0,0,0,0,0,0,0,0,0,0,0,0,0,0,0,0,0,0,0,0,0,0,0,0,0,0,0,0,0,0,0,0,0,0,0,0,0,0,0,0,0,0,0,0,0,0,0,0,0,0,0,0,0,0,0,0,0,0,0,0,0,0,0,0,0,0,0,0,0,0,0,0,0,0,0,216,218,0,0,0,0,0,0,0,0,0,0,0,0,0,0,0,0,0,0,0,0,0,0,0,0,0,0,0,0,0,0,0,0,0,0,0,0,0,0,0,0,0,0,0,0,0,0,0,0,0,0,0,0,0,0,0,0,0,0,0,0,0,0,0,0,0,0,0,0,0,0,0,0,0,0,0,0,0,0,0,0,0,0,0,0,0,0,0,0,0,0,0,0,0,0,0,0,0,0,0,0,0,0,0,0,0,0,0,0,0,0,0,0,0,0,0,0,0,0,0,0,0,0,0,0,0,0,0,0,0,0,0,0,0,0,0,0,0,0,0,0,0,0,0,0,0,0,0,0,0,0,0,0,0,0,0,0,0,0,0,0,0,0,0,0,0,0,0,0,0,0,0,0,0,0,0,0,0,0,0,0,0,0,0,0,0,0,0,0,0,0,0,0,0,0,0,0,0,0,0,0,0,0,0,0,0,0,0,0,0,0,0,0,231,233,235,237,0,0,0,0,0,0,0,0,0,0,0,0,0,0,0,0,0,0,0,0,0,0,0,0,0,0,0,0,0,0,0,0,0,0,0,0,0,0,0,0,0,0,0,0,0,0,0,0,0,0,0,0,0,0,0,0,0,0,0,0,0,0,0,0,0,0,0,0,0,0,0,0,0,0,0,0,0,0,0,0,0,0,0,0,0,0,0,0,0,0,0,0,232,234,236,238,0,0,0,0,0,0,0,0,0,0,0,0,0,0,0,0,0,0,0,0,0,0,0,0,0,0,0,0,0,0,0,0,0,0,0,0,0,0,0,0,0,0,0,0,0,0,0,0,0,0,0,0,0,0,0,0,0,0,0,0,0,0,0,0,0,0,0,0,0,0,0,0,0,0,0,0,0,0,219,221,223,225,0,0,0,0,0,0,0,0,0,0,0,0,0,0,0,0,0,0,0,0,0,0,0,0,0,0,0,0,0,0,0,0,0,0,0,0,0,0,0,0,0,0,0,0,0,0,0,0,0,0,0,0,0,0,0,0,0,0,0,0,0,0,0,0,0,0,0,0,0,0,0,0,0,0,0,0,0,0,0,0,0,0,0,0,0,0,0,0,0,0,0,0,220,222,224,226,0,0,0,0,0,0,0,0,0,0,0,0,0,0,0,0,0,0,0,0,0,0,0,0,0,0,0,0,0,0,0,0,0,0,0,0,0,0,0,0,0,0,0,0,0,0,0,0,0,0,0,0,0,0,0,0,0,0,0,0,0,0,0,0,0,0,0,0,0,0,0,0,0,207,209,211,213,0,0,0,0,0,0,0,0,0,0,0,0,0,0,0,0,0,0,0,0,0,0,0,0,0,0,0,0,0,0,0,0,0,0,0,0,0,0,0,0,0,0,0,0,0,0,0,0,0,0,0,0,0,0,0,0,0,0,0,0,0,0,0,0,0,0,0,0,0,0,0,0,0,0,0,0,0,0,0,0,0,0,0,0,0,0,0,0,0,0,0,0,208,210,212,214,0,0,0,0,0,0,0,0,0,0,0,0,0,0,0,0,0,0,0,0,0,0,0,0,0,0,0,0,0,0,0,0,0,0,0,0,0,0,0,0,0,0,0,0,0,0,0,0,0,0,0,0,0,0,0,0,0,0,0,0,0,0,0,0,0,0,0,0,0,0,0,0,0,0,0,0,0,0,0,0,0,0,0,0,0,0,0,0,0,0,0,0,0,0,0,0,0,0,0,0,0,0,0,0,0,0,0,0,0,0,0,0,0,0,0,0,0,0,0,0,0,0,0,0,0,0,0,0,0,0,0,0,0,0,0,0,0,0,0,0,0,0,0,0,0,0,0,0,0,0,0,0,0,0,0,0,0,0,0,0,0,0,0,0,0,0,0,0,0,0,0,0,0,0,0,0,0,0,0,0,0,0,0,0,0,0,0,0,0,0,0,0,0,0,0,0,0,0,0,0,0,0,0,0,0,0,0,0,0,0,0,0,0,0,0,0,0,0,0,0,0,0,0,0,0,0,0,0,0,0,0,0,0,0,0,0,0,0,0,0,0,0,0,0,0,0,0,0,0,0,0,0,0,0,0,0,0,0,0,0,0,0,0,0,0,0,0,0,0,0,0,0,0,0,0,0,0,0,0,0,0,0,0,0,0,0,0,0,0,0,0,0,0,0,0,0,0,0,0,0,0,0,0,0,0,0,0,0,0,0,0,0,0,0,0,0,0,0,0,0,0,0,0,0,0,0,0,0,0,0,0,0,0,0,0,0,0,0,0,0,0,0,0,0,0,0,0,0,0,0,0,0,0,0,0,0,0,0,0,0,0,0,0,0,0,0,0,0,0,0,0,0,0,0,0,0,0,0,0,0,0,0,0,0,0,0,0,0,0,0,0,0,0,0,0,0,0,0,0,0,0,0,0,0,0,0,0,0,0,0,0,0,0,0,0,0,0,0,0,0,0,0,0,0,0,0,0,0,0,0,0,0,0,0,0,0,0,0,0,0,0,0,0,0,0,0,0,0,0,0,0,0,0,0,0,0,0,0,0,0,0,0,0,0,0,0,0,0,0,0,0,0,0,0,0,0,0,0,0,0,0,0,0,0,0,0,0,0,0,0,0,0,0,0,0,0,0,0,0,0,0,0,0,0,0,0,0,0,0,0,0,0,0,0,0,0,0,0,0,0,0,0,0,0,0,0,0,0,0,0,0,0,0,0,0,0,0,0,0,0,0,0,0,0,0,0,0,0,0,0,0,0,0,0,0,0,0,0,0,0,0,0,0,0,0,0,0,0,0,0,0,0,0,0,0,206,206,206,206,206,0,0,0,0,0,0,0,0,0,0,0,0,0,0,0,0,0,0,0,0,0,0,0,0,0,0,0,0,0,0,0,0,0,0,0,0,0,0,0,0,0,0,0,0,0,0,0,0,0,0,0,0,0,0,0,0,0,0,0,0,0,0,0,0,0,0,0,0,0,0,0,0,0,0,0,0,0,0,0,0,0,0,206,206,206,206,206,206,206,206,206,0,0,0,0,0,0,0,0,0,0,0,0,0,0,0,0,0,0,0,0,0,0,0,0,0,0,0,0,0,0,0,0,0,0,0,0,0,0,0,0,0,0,0,0,0,0,0,0,0,0,0,0,0,0,0,0,0,0,0,0,0,0,0,0,0,0,0,0,0,0,0,0,0,0,0,0,0,0,0,0,0,0,206,206,206,206,206,0,0,0,0,0,0,0,0,0,0,0,0,0,0,0,0,0,0,0,0,0,0,0,0,0,0,0,0,0,0,0,0,0,0,0,0,0,0,0,0,0,0,0,0,0,0,0,0,0,0,0,0,0,0,0,0,0,0,0,0,0,0,0,0,0,0,0,0,0,0,0,0,0,0,0,0,0,0,0,0,0,0,0,0,0,0,0,0,0,0,0,0,0,0,0,0,0,0,0,0,0,0,0,0,0,0,0,0,0,0,0,0,0,0,0,0,0,0,0,0,0,0,0,0,0,0,0,0,0,0,0,0,0,0,0,0,0,0,0,0,0,0,0,0,0,0,0,0,0,0,0,0,0,0,0,0,0,0,0,0,0,0,0,0,0,0,0,0,0,0,0,0,0,0,0,0,0,0,0,0,0,0,0,0,0,0,0,0,0,0,0,0,0,0,0,0,0,0,0,0,0,0,0,0,0,0,0,0,0,0,0,0,0,0,0,0,0,0,0,0,0,0,0,0,0,0,0,0,0,0,0,0,0,0,0,0,0,0,0,0,0,0,0,0,0,0,0,0,0,0,0,0,0,0,0,0,0,0,0,0,0,0,0,0,0,0,0,0,0,0,0,0,0,0,0,0,0,0,0,0,0,0,0,0,0,0,0,0,0,0,0,0,0,0,0,0,0,0,0,0,0,0,0,0,0,0,0,0,0,0,0,0,0,0,0,0,0,0,0,0,0,0,0,0,0,0,0,0,0,0,0,0,0,0,0,0,0,0,0,0,0,0,0,0,0,0,0,0,0,0,0,0,0,0,0,0,0,0,0,0,0,0,0,0,0,0,0,0,0,0,0,0,0,0,0,0,0,0,0,0,0,0,0,0,0,0,0,0,0,0,0,0,0,0,0,0,0,0,0,0,0,0,0,0,0,0,0,0,0,0,0,0,0,0,0,0,0,0,0,0,0,0,0,0,0,0,0,0,0,0,0,0,0,0,0,0,0,0,0,0,0,0,0,0,0,0,0,0,0,0,0,0,0,0,0,0,0,0,0,0,0,0,0,0,0,0,0,0,0,0,0,0,0,0,0,0,0,0,0,0,0,0,0,0,0,0,0,0,0,0,0,0,0,0,0,0,0,0,0,0,0,0,0,0,0,0,0,0,0,0,0,0,0,0,0,0,0,0,0,0,0,0,0,0,0,0,0,0,0,0,0,0,0,0,0,0,0,0,0,0,0,0,0,0,0,0,0,0,0,0,0,0,0,0,0,0,0,0,0,0,0,0,0,0,0,0,0,0,0,0,0,0,0,0,0,0,0,0,0,0,0,0,0,0,0,0,0,0,0,0,0,0,0,0,0,0,0,0,0,0,0,0,0,0,0,0,0,0,0,0,0,0,0,0,0,0,0,0,0,0,0,0,0,0,0,0,0,0,0,0,0,0,0,0,0,0,0,0,0,0,0,0,0,0,0,0,0,0,0,0,0,0,0,0,0,0,0,0,0,0,0,0,0,0,0,0,0,0,0,0,0,0,0,0,0,0,0,0,0,0,0,0,0,0,0,0,0,0,0,0,0,0,0,0,0,0,0,0,0,0,0,0,0,0,0,0,0,0,0,0,0,0,0,0,0,0,0,0,0,0,0,0,0,0,0,0,0,0,0,0,0,0,0,0,0,0,0,0,0,0,0,0,0,0,0,0,0,0,0,0,0,0,0,0,0,0,0,0,0,0,0,0,0,0,0,0,0,0,0,0,0,0,0,0,0,0,0,0,0,0,0,0,0,0,0,0,0,0,0,0,0,0,0,0,0,0,0,0,0,0,0,0,0,0,0,0,0,0,0,0,0,0,0,0,0,0,0,0,0,0,0,0,0,0,0,0,0,0,0,0,0,0,0,0,0,0,0,0,0,0,0,0,0,0,0,0,0,0,0,0,0,0,0,0,0,0,0,0,0,0,0,0,0,0,0,0,0,0,0,0,0,0,0,0,0,0,0,0,0,0,0,0,0,0,0,0,0,0,0,0,0,0,0,0,0,0,0,0,0,0,0,0,0,0,0,0,0,0,0,0,0,0,0,0,0,0,0,0,0,0,0,0,0,0,0,0,0,0,0,0,0,0,0,0,0,0,0,0,0,0,0,0,0,0,0,0,0,0,0,0,0,0,0,0,0,0,0,0,0,0,0,0,0,0,0,0,0,0,0,0,0,0,0,0,0,0,0,0,0,0,0,0,0,0,0,0,0,0,0,0,0,0,0,0,0,0,0,0,0,0,0,0,0,0,0,0,0,0,0,0,0,0,0,0,0,0,0,0,0,0,0,0,0,0,0,0,0,0,0,0,0,0,0,0,0,0,0,0,0,0,0,0,0,0,0,0,0,0,0,0,0,0,0,0,0,0,0,0,0,0,0,0,0,0,0,0,0,0,0,0,0,0,0,0,0,0,0,0,0,0,0,0,0,0,0,0,0,0,0,0,0,0,0,0,0,0,0,0,0,0,0,0,0,0,0,0,0,0,0,0,0,0,0,0,0,0,0,0,0,0,0,0,0,0,0,0,0,0,0,0,0,0,0,0,0,0,0,0,0,0,0,0,0,0,0,0,0,0,0,0,0,0,0,0,0,0,0,0,0,0,0,0,0,0,0,0,0,0,0,0,0,0,0,0,0,0,0,0,0,0,0,0,0,0,0,0,0,0,0,0,0,0,0,0,0,0,0,0,0,0,0,0,0,0,0,0,0,0,0,0,0,0,0,0,0,0,0,0,0,0,0,0,0,0,0,0,0,0,0,0,0,0,0,0,0,0,0,0,0,0,0,0,0,0,0,0,0,0,0,0,0,0,0,0,0,0,0,0,0,0,0,0,0,0,0,0,0,0,0,0,0,0,0,0,0,0,0,0,0,0,0,0,0,0,0,0,0,0,0,0,0,0,0,0,0,0,0,0,0,0,0,0,0,0,0,0,0,0,0,0,0,0,0,0,0,0,0,0,0,0,0,0,0,0,0,0,0,0,0,0,0,0,0,0,0,0,0,0,0,0,0,0,0,0,0,0,0,0,0,0,0,0,0,0,0,0,0,0,0,0,0,0,0,0,0,0,0,0,0,0,0,0,0,0,0,0,0,0,0,0,0,0,0,0,0,0,0,0,0,0,0,0,0,0,0,0,0,0,0,0,0,0,0,0,0,0,0,0,0,0,0,0,0,0,0,0,0,0,0,0,0,0,0,0,0,0,0,0,0,0,0,0,0,0,0,0,0,0,0,0,0,0,0,0,0,0,0,0,0,0,0,0,0,0,0,0,0,0,0,0,0,0,0,0,0,0,0,0,0,0,0,0,0,0,0,0,0,0,0,0,0,0,0,0,0,0,0,0,0,0,0,0,0,0,0,0,0,0,0,0,0,0,0,0,0,0,0,0,0,0,0,0,0,0,0,0,0,0,0,0,0,0,0,0,0,0,0,0,0,0,0,0,0,0,0,0,0,0,0,0,0,0,0,0,0,0,0,0,0,0,0,0,0,0,0,0,0,0,0,0,0,0,0,0,0,0,0,0,0,0,0,0,0,0,0,0,0,0,0,0,0,0,0,0,0,0,0,0,0,0,0,0,0,0,0,0,0,0,0,0,0,0,0,0,0,0,0,0,0,0,0,0,0,0,0,0,0,0,0,0,0,0,0,0,0,0,0,0,0,0,0,0,0,0,0,0,0,0,0,0,0,0,0,0,0,0,0,0,0,0,0,0,0,0,0,0,0,0,0,0,0,0,0,0,0,0,0,0,0,0,0,0,0,0,0,0,0,0,0,0,0,0,0,0,0,0,0,0,0,0,0,0,0,0,0,0,0,0,0,0,0,0,0,0,0,0,0,0,0,0,0,0,0,0,0,0,0,0,0,0,0,0,0,0,0,0,0,0,0,0,0,0,0,0,0,0,0,0,0,0,0,0,0,0,0,0,0,0,0,0,0,0,0,0,0,0,0,0,0,0,0,0,0,0,0,0,0,0,0,0,0,0,0,0,0,0,0,0,0,0,0,0,0,0,0,0,0,0,0,0,0,0,0,0,0,0,0,0,0,0,0,0,0,0,0,0,0,0,0,0,0,0,0,0,0,0,0,0,0,0,0,0,0,0,0,0,0,0,0,0,0,0,0,0,0,0,0,0,0,0,0,0,0,0,0,0,0,0,0,0,0,0,0,0,0,0,0,0,0,0,0,0,0,0,0,0,0,0,0,0,0,0,0,0,0,0,0,0,0,0,0,0,0,0,0,0,0,0,0,0,0,0,0,0,0,0,0,0,0,0,0,0,0,0,0,0,0,0,0,0,0,0,0,0,0,0,0,0,0,0,0,0,0,0,0,0,0,0,0,0,0,0,0,0,0,0,0,0,0,0,0,0,0,0,0,0,0,0,0,0,0,0,0,0,0,0,0,0,0,0,0,0,0,0,0,0,0,0,0,0,0,0,0,0,0,0,0,0,0,0,0,0,0,0,0,0,0,0,0,0,0,0,0,0,0,0,0,0,0,0,0,0,0,0,0,0,0,0,0,0,0,0,0,0,0,0,0,0,0,0,0,0,0,0,0,0,0,0,0,0,0,0,0,0,0,0,0,0,0,0,0,0,0,0,0,0,0,0,0,0,0,0,0,0,0,0,0,0,0,0,0,0,0,0,0,0,0,0,0,0,0,0,0,0,0,0,0,0,0,0,0,0,0,0,0,0,0,0,0,0,0,0,0,0,0,0,0,0,0,0,0,0,0,0,0,0,0,0,0,0,0,0,0,0,0,0,0,0,0,0,0,0,0,0,0,0,0,0,0,0,0,0,0,0,0,0,0,0,0,0,0,0,0,0,0,0,0,0,0,0,0,0,0,0,0,0,0,0,0,0,0,0,0,0,0,0,0,0,0,0,0,0,0,0,0,0,0,0,0,0,0,0,0,0,0,0,0,0,0,0,0,0,0,0,0,0,0,0,0,0,0,0,0,0,0,0,0,0,0,0,0,0,0,0,0,0,0,0,0,0,0,0,0,0,0,0,0,0,0,0,0,0,0,0,0,0,0,0,0,0,0,0,0,0,0,0,0,0,0,0,0,0,0,0,0,0,0,0,0,0,0,0,0,0,0,0,0,0,0,0,0,0,0,0,0,0,0,0,0,0,0,0,0,0,0,0,0,0,0,0,0,0,0,0,0,0,0,0,0,0,0,0,0,0,0,0,0,0,0,0,0,0,0,0,0,0,0,0,0,0,0,0,0,0,0,0,0,0,0,0,0,0,0,0,0,0,0,0,0,0,0,0,0,0,0,0,0,0,0,0,0,0,0,0,0,0,0,0,0,0,0,0,0,0,0,0,0,0,0,0,0,0,0,0,0,0,0,0,0,0,0,0,0,0,0,0,0,0,0,0,0,0,0,0,0,0,0,0,0,0,0,0,0,0,0,0,0,0,0,0,0,0,0,0,0,0,0,0,0,0,0,0,0,0,0,0,0,0,0,0,0,0,0,0,0,0,0,0,0,0,0,0,0,0,0,0,0,0,0,0,0,0,0,0,0,0,0,0,0,0,0,0,0,0,0,0,0,0,0,0,0,0,0,0,0,0,0,0,0,0,0,0,0,0,0,0,0,0,0,0,0,0,0,0,0,0,0,0,0,0,0,0,0,0,0,0,0,0,0,0,0,0,0,0,0,0,0,0,0,0,0,0,0,0,0,0,0,0,0,0,0,0,0,0,0,0,0,0,0,0,0,0,0,0,0,0,0,0,0,0,0,0,0,0,0,0,0,0,0,0,0,0,0,0,0,0,0,0,0,0,0,0,0,0,0,0,0,0,0,0,0,0,0,0,0,0,0,0,0,0,0,0,0,0,0,0,0,0,0,0,0,0,0,0,0,0,0,0,0,0,0,0,0,0,0,0,0,0,0,0,0,0,0,0,0,0,0,0,0,0,0,0,0,0,0,0,0,0,0,0,0,0,0,0,0,0,0,0,0,0,0,0,0,0,0,0,0,0,0,0,0,0,0,0,0,0,0,0,0,0,0,0,0,0,0,0]},{"id":5,"name":"Artichoke Objects","type":"objectgroup","draworder":"topdown","x":0,"y":0,"opacity":1,"visible":true,"objects":[{"id":1,"name":"boulder","type":"","gid":300,"x":638,"y":32,"width":20,"height":16,"rotation":0,"visible":true},{"id":2,"name":"tree_conifer","type":"","gid":301,"x":237,"y":32,"width":22,"height":33,"rotation":0,"visible":true},{"id":3,"name":"boulder","type":"","gid":302,"x":1508,"y":48,"width":24,"height":15,"rotation":0,"visible":true},{"id":4,"name":"tree_conifer","type":"","gid":301,"x":557,"y":48,"width":22,"height":33,"rotation":0,"visible":true},{"id":5,"name":"boulder","type":"","gid":303,"x":1118,"y":48,"width":21,"height":16,"rotation":0,"visible":true},{"id":6,"name":"warship_escort","type":"","gid":304,"x":32,"y":90,"width":96,"height":56,"rotation":0,"visible":true},{"id":7,"name":"warship_scout","type":"","gid":305,"x":160,"y":90,"width":96,"height":56,"rotation":0,"visible":true},{"id":8,"name":"plateau_house","type":"","gid":306,"x":1288,"y":90,"width":64,"height":80,"rotation":0,"visible":true},{"id":9,"name":"confederation_flag","type":"","gid":307,"x":1350,"y":90,"width":16,"height":30,"rotation":0,"visible":true},{"id":10,"name":"warship_escort","type":"","gid":304,"x":1016,"y":96,"width":96,"height":56,"rotation":0,"visible":true},{"id":11,"name":"warship_escort","type":"","gid":304,"x":1144,"y":96,"width":96,"height":56,"rotation":0,"visible":true},{"id":12,"name":"plateau_house","type":"","gid":308,"x":1416,"y":96,"width":64,"height":80,"rotation":0,"visible":true},{"id":13,"name":"confederation_flag","type":"","gid":307,"x":1478,"y":96,"width":16,"height":30,"rotation":0,"visible":true},{"id":14,"name":"plateau_house","type":"","gid":309,"x":904,"y":102,"width":64,"height":80,"rotation":0,"visible":true},{"id":15,"name":"confederation_flag","type":"","gid":307,"x":966,"y":102,"width":16,"height":30,"rotation":0,"visible":true},{"id":16,"name":"artichoke_ship","type":"","gid":310,"x":280,"y":106,"width":192,"height":112,"rotation":0,"visible":true},{"id":17,"name":"front_soldier","type":"","gid":311,"x":1376,"y":106,"width":16,"height":24,"rotation":0,"visible":true},{"id":18,"name":"front_soldier","type":"","gid":312,"x":992,"y":115,"width":16,"height":24,"rotation":0,"visible":true},{"id":19,"name":"front_soldier","type":"","gid":313,"x":1120,"y":118,"width":16,"height":24,"rotation":0,"visible":true},{"id":20,"name":"confederation_barracks","type":"","gid":314,"x":648,"y":120,"width":64,"height":72,"rotation":0,"visible":true},{"id":21,"name":"confederation_barracks","type":"","gid":315,"x":720,"y":120,"width":64,"height":72,"rotation":0,"visible":true},{"id":22,"name":"confederation_headquarters","type":"","gid":316,"x":520,"y":122,"width":112,"height":96,"rotation":0,"visible":true},{"id":23,"name":"munitions_crate","type":"","gid":317,"x":792,"y":122,"width":32,"height":32,"rotation":0,"visible":true},{"id":24,"name":"munitions_crate","type":"","gid":317,"x":813,"y":122,"width":32,"height":32,"rotation":0,"visible":true},{"id":25,"name":"boulder","type":"","gid":318,"x":1221,"y":131,"width":22,"height":15,"rotation":0,"visible":true},{"id":26,"name":"boulder","type":"","gid":319,"x":964,"y":134,"width":23,"height":16,"rotation":0,"visible":true},{"id":27,"name":"player","type":"","gid":320,"x":296,"y":136,"width":16,"height":24,"rotation":0,"visible":true},{"id":28,"name":"front_soldier","type":"","gid":313,"x":568,"y":138,"width":16,"height":24,"rotation":0,"visible":true},{"id":29,"name":"front_soldier","type":"","gid":312,"x":456,"y":141,"width":16,"height":24,"rotation":0,"visible":true},{"id":30,"name":"munitions_crate","type":"","gid":317,"x":10,"y":144,"width":32,"height":32,"rotation":0,"visible":true},{"id":31,"name":"confederation_officer","type":"","gid":321,"x":256,"y":144,"width":16,"height":24,"rotation":0,"visible":true},{"id":32,"name":"watchtower","type":"","gid":322,"x":1360,"y":150,"width":48,"height":80,"rotation":0,"visible":true},{"id":33,"name":"confederation_flag","type":"","gid":307,"x":1424,"y":150,"width":16,"height":30,"rotation":0,"visible":true},{"id":34,"name":"watchtower","type":"","gid":322,"x":472,"y":154,"width":48,"height":80,"rotation":0,"visible":true},{"id":35,"name":"watchtower","type":"","gid":322,"x":864,"y":154,"width":48,"height":80,"rotation":0,"visible":true},{"id":36,"name":"front_soldier","type":"","gid":323,"x":1400,"y":157,"width":16,"height":24,"rotation":0,"visible":true},{"id":37,"name":"boulder","type":"","gid":324,"x":1476,"y":163,"width":23,"height":15,"rotation":0,"visible":true},{"id":38,"name":"front_tnt_pile","type":"","gid":325,"x":182,"y":166,"width":32,"height":32,"rotation":0,"visible":true},{"id":39,"name":"boulder","type":"","gid":326,"x":1252,"y":170,"width":25,"height":17,"rotation":0,"visible":true},{"id":40,"name":"front_soldier","type":"","gid":327,"x":1352,"y":170,"width":16,"height":24,"rotation":0,"visible":true},{"id":41,"name":"front_cannon","type":"","gid":328,"x":16,"y":173,"width":80,"height":40,"rotation":0,"visible":true},{"id":42,"name":"front_cannon","type":"","gid":328,"x":88,"y":173,"width":80,"height":40,"rotation":0,"visible":true},{"id":43,"name":"front_soldier","type":"","gid":323,"x":344,"y":174,"width":16,"height":24,"rotation":0,"visible":true},{"id":44,"name":"plateau_house","type":"","gid":329,"x":1232,"y":176,"width":64,"height":56,"rotation":0,"visible":true},{"id":45,"name":"front_soldier","type":"","gid":313,"x":584,"y":179,"width":16,"height":24,"rotation":0,"visible":true},{"id":46,"name":"front_soldier","type":"","gid":330,"x":1312,"y":179,"width":16,"height":24,"rotation":0,"visible":true},{"id":47,"name":"front_soldier","type":"","gid":311,"x":72,"y":182,"width":16,"height":24,"rotation":0,"visible":true},{"id":48,"name":"front_soldier","type":"","gid":312,"x":696,"y":184,"width":16,"height":24,"rotation":0,"visible":true},{"id":49,"name":"front_soldier","type":"","gid":327,"x":232,"y":186,"width":16,"height":24,"rotation":0,"visible":true},{"id":50,"name":"confederation_arms","type":"","gid":331,"x":984,"y":198,"width":96,"height":72,"rotation":0,"visible":true},{"id":51,"name":"confederation_mess","type":"","gid":332,"x":1096,"y":198,"width":96,"height":72,"rotation":0,"visible":true},{"id":52,"name":"confederation_cook","type":"","gid":333,"x":1195,"y":206,"width":16,"height":24,"rotation":0,"visible":true},{"id":53,"name":"bunker","type":"","gid":334,"x":551,"y":213,"width":34,"height":28,"rotation":0,"visible":true},{"id":54,"name":"bunker","type":"","gid":334,"x":951,"y":214,"width":34,"height":28,"rotation":0,"visible":true},{"id":55,"name":"watchtower","type":"","gid":322,"x":368,"y":218,"width":48,"height":80,"rotation":0,"visible":true},{"id":56,"name":"watchtower","type":"","gid":322,"x":624,"y":218,"width":48,"height":80,"rotation":0,"visible":true},{"id":57,"name":"bunker","type":"","gid":334,"x":327,"y":218,"width":34,"height":28,"rotation":0,"visible":true},{"id":58,"name":"front_soldier","type":"","gid":330,"x":536,"y":240,"width":16,"height":24,"rotation":0,"visible":true},{"id":59,"name":"front_soldier","type":"","gid":311,"x":296,"y":245,"width":16,"height":24,"rotation":0,"visible":true},{"id":60,"name":"front_soldier","type":"","gid":312,"x":856,"y":262,"width":16,"height":24,"rotation":0,"visible":true},{"id":61,"name":"bunker","type":"","gid":334,"x":695,"y":269,"width":34,"height":28,"rotation":0,"visible":true},{"id":62,"name":"bunker","type":"","gid":334,"x":487,"y":282,"width":34,"height":28,"rotation":0,"visible":true},{"id":63,"name":"bunker","type":"","gid":334,"x":887,"y":288,"width":34,"height":28,"rotation":0,"visible":true},{"id":64,"name":"front_soldier","type":"","gid":311,"x":904,"y":294,"width":16,"height":24,"rotation":0,"visible":true},{"id":65,"name":"front_soldier","type":"","gid":327,"x":392,"y":298,"width":16,"height":24,"rotation":0,"visible":true},{"id":66,"name":"front_soldier","type":"","gid":323,"x":600,"y":299,"width":16,"height":24,"rotation":0,"visible":true},{"id":67,"name":"front_soldier","type":"","gid":313,"x":792,"y":307,"width":16,"height":24,"rotation":0,"visible":true},{"id":68,"name":"barbed_wire","type":"","gid":335,"x":1228,"y":317,"width":40,"height":18,"rotation":0,"visible":true},{"id":69,"name":"bunker","type":"","gid":334,"x":199,"y":330,"width":34,"height":28,"rotation":0,"visible":true},{"id":70,"name":"bunker","type":"","gid":334,"x":103,"y":333,"width":34,"height":28,"rotation":0,"visible":true},{"id":71,"name":"hedgehog","type":"","gid":336,"x":1191,"y":357,"width":18,"height":18,"rotation":0,"visible":true},{"id":72,"name":"front_soldier","type":"","gid":330,"x":120,"y":362,"width":16,"height":24,"rotation":0,"visible":true},{"id":73,"name":"front_soldier","type":"","gid":327,"x":216,"y":363,"width":16,"height":24,"rotation":0,"visible":true},{"id":74,"name":"barbed_wire","type":"","gid":335,"x":1292,"y":371,"width":40,"height":18,"rotation":0,"visible":true},{"id":75,"name":"boulder","type":"","gid":303,"x":1486,"y":384,"width":21,"height":16,"rotation":0,"visible":true},{"id":76,"name":"hedgehog","type":"","gid":336,"x":1111,"y":410,"width":18,"height":18,"rotation":0,"visible":true},{"id":77,"name":"front_soldier","type":"","gid":323,"x":152,"y":422,"width":16,"height":24,"rotation":0,"visible":true},{"id":78,"name":"destroyed_house","type":"","gid":337,"x":1023,"y":422,"width":66,"height":60,"rotation":0,"visible":true},{"id":79,"name":"burnt_stump","type":"","gid":338,"x":954,"y":440,"width":12,"height":14,"rotation":0,"visible":true},{"id":80,"name":"trap_marker","type":"","gid":339,"x":1127,"y":448,"width":18,"height":18,"rotation":0,"visible":true},{"id":81,"name":"boulder","type":"","gid":300,"x":526,"y":464,"width":20,"height":16,"rotation":0,"visible":true},{"id":82,"name":"barbed_wire","type":"","gid":335,"x":1068,"y":467,"width":40,"height":18,"rotation":0,"visible":true},{"id":83,"name":"village_house","type":"","gid":340,"x":1352,"y":467,"width":64,"height":80,"rotation":0,"visible":true},{"id":84,"name":"republic_banner","type":"","gid":341,"x":1414,"y":467,"width":14,"height":30,"rotation":0,"visible":true},{"id":85,"name":"tree_conifer","type":"","gid":301,"x":1261,"y":480,"width":22,"height":33,"rotation":0,"visible":true},{"id":86,"name":"hedgehog","type":"","gid":336,"x":967,"y":486,"width":18,"height":18,"rotation":0,"visible":true},{"id":87,"name":"republic_soldier","type":"","gid":342,"x":1176,"y":490,"width":16,"height":24,"rotation":0,"visible":true},{"id":88,"name":"tree_conifer","type":"","gid":343,"x":445,"y":496,"width":22,"height":33,"rotation":0,"visible":true},{"id":89,"name":"boulder","type":"","gid":303,"x":302,"y":496,"width":21,"height":16,"rotation":0,"visible":true},{"id":90,"name":"republic_soldier","type":"","gid":344,"x":1336,"y":502,"width":16,"height":24,"rotation":0,"visible":true},{"id":91,"name":"barbed_wire","type":"","gid":335,"x":1148,"y":517,"width":40,"height":18,"rotation":0,"visible":true},{"id":92,"name":"trap_marker","type":"","gid":339,"x":695,"y":528,"width":18,"height":18,"rotation":0,"visible":true},{"id":93,"name":"boulder","type":"","gid":345,"x":191,"y":528,"width":18,"height":18,"rotation":0,"visible":true},{"id":94,"name":"barbed_wire","type":"","gid":335,"x":748,"y":531,"width":40,"height":18,"rotation":0,"visible":true},{"id":95,"name":"boulder","type":"","gid":300,"x":1102,"y":544,"width":20,"height":16,"rotation":0,"visible":true},{"id":96,"name":"destroyed_house","type":"","gid":346,"x":887,"y":547,"width":66,"height":60,"rotation":0,"visible":true},{"id":97,"name":"village_house","type":"","gid":347,"x":1192,"y":554,"width":64,"height":80,"rotation":0,"visible":true},{"id":98,"name":"republic_banner","type":"","gid":341,"x":1254,"y":554,"width":14,"height":30,"rotation":0,"visible":true},{"id":99,"name":"village_house","type":"","gid":348,"x":1392,"y":570,"width":64,"height":80,"rotation":0,"visible":true},{"id":100,"name":"republic_banner","type":"","gid":341,"x":1454,"y":570,"width":14,"height":30,"rotation":0,"visible":true},{"id":101,"name":"tree_conifer","type":"","gid":301,"x":285,"y":576,"width":22,"height":33,"rotation":0,"visible":true},{"id":102,"name":"hedgehog","type":"","gid":336,"x":807,"y":579,"width":18,"height":18,"rotation":0,"visible":true},{"id":103,"name":"destroyed_house","type":"","gid":349,"x":639,"y":582,"width":66,"height":60,"rotation":0,"visible":true},{"id":104,"name":"burnt_stump","type":"","gid":338,"x":1082,"y":584,"width":12,"height":14,"rotation":0,"visible":true},{"id":105,"name":"barbed_wire","type":"","gid":335,"x":988,"y":598,"width":40,"height":18,"rotation":0,"visible":true},{"id":106,"name":"republic_soldier","type":"","gid":350,"x":1256,"y":598,"width":16,"height":24,"rotation":0,"visible":true},{"id":107,"name":"tree_conifer","type":"","gid":351,"x":173,"y":608,"width":22,"height":33,"rotation":0,"visible":true},{"id":108,"name":"republic_soldier","type":"","gid":352,"x":1448,"y":618,"width":16,"height":24,"rotation":0,"visible":true},{"id":109,"name":"tree_conifer","type":"","gid":301,"x":109,"y":624,"width":22,"height":33,"rotation":0,"visible":true},{"id":110,"name":"barbed_wire","type":"","gid":335,"x":588,"y":630,"width":40,"height":18,"rotation":0,"visible":true},{"id":111,"name":"burnt_stump","type":"","gid":338,"x":554,"y":632,"width":12,"height":14,"rotation":0,"visible":true},{"id":112,"name":"barbed_wire","type":"","gid":335,"x":892,"y":643,"width":40,"height":18,"rotation":0,"visible":true},{"id":113,"name":"hedgehog","type":"","gid":336,"x":679,"y":650,"width":18,"height":18,"rotation":0,"visible":true},{"id":114,"name":"village_house","type":"","gid":353,"x":1256,"y":650,"width":64,"height":56,"rotation":0,"visible":true},{"id":115,"name":"republic_banner","type":"","gid":341,"x":1318,"y":650,"width":14,"height":30,"rotation":0,"visible":true},{"id":116,"name":"barbed_wire","type":"","gid":335,"x":444,"y":659,"width":40,"height":18,"rotation":0,"visible":true},{"id":117,"name":"trap_marker","type":"","gid":339,"x":1015,"y":664,"width":18,"height":18,"rotation":0,"visible":true},{"id":118,"name":"village_house","type":"","gid":354,"x":1400,"y":666,"width":64,"height":56,"rotation":0,"visible":true},{"id":119,"name":"republic_banner","type":"","gid":341,"x":1462,"y":666,"width":14,"height":30,"rotation":0,"visible":true},{"id":120,"name":"trap_marker","type":"","gid":339,"x":135,"y":672,"width":18,"height":18,"rotation":0,"visible":true},{"id":121,"name":"trap_marker","type":"","gid":339,"x":311,"y":672,"width":18,"height":18,"rotation":0,"visible":true},{"id":122,"name":"boulder","type":"","gid":345,"x":1119,"y":672,"width":18,"height":18,"rotation":0,"visible":true},{"id":123,"name":"barbed_wire","type":"","gid":335,"x":700,"y":691,"width":40,"height":18,"rotation":0,"visible":true},{"id":124,"name":"barbed_wire","type":"","gid":335,"x":252,"y":691,"width":40,"height":18,"rotation":0,"visible":true},{"id":125,"name":"tree_conifer","type":"","gid":351,"x":1325,"y":704,"width":22,"height":33,"rotation":0,"visible":true},{"id":126,"name":"hedgehog","type":"","gid":336,"x":519,"y":709,"width":18,"height":18,"rotation":0,"visible":true},{"id":127,"name":"republic_soldier","type":"","gid":355,"x":1368,"y":709,"width":16,"height":24,"rotation":0,"visible":true},{"id":128,"name":"burnt_stump","type":"","gid":338,"x":378,"y":714,"width":12,"height":14,"rotation":0,"visible":true},{"id":129,"name":"tree_conifer","type":"","gid":343,"x":989,"y":720,"width":22,"height":33,"rotation":0,"visible":true},{"id":130,"name":"barbed_wire","type":"","gid":335,"x":108,"y":723,"width":40,"height":18,"rotation":0,"visible":true},{"id":131,"name":"destroyed_house","type":"","gid":356,"x":399,"y":726,"width":66,"height":60,"rotation":0,"visible":true},{"id":132,"name":"boulder","type":"","gid":300,"x":1198,"y":736,"width":20,"height":16,"rotation":0,"visible":true},{"id":133,"name":"tree_conifer","type":"","gid":301,"x":669,"y":736,"width":22,"height":33,"rotation":0,"visible":true},{"id":134,"name":"barbed_wire","type":"","gid":335,"x":556,"y":741,"width":40,"height":18,"rotation":0,"visible":true},{"id":135,"name":"hedgehog","type":"","gid":336,"x":343,"y":742,"width":18,"height":18,"rotation":0,"visible":true},{"id":136,"name":"boulder","type":"","gid":303,"x":782,"y":752,"width":21,"height":16,"rotation":0,"visible":true},{"id":137,"name":"trap_marker","type":"","gid":339,"x":487,"y":760,"width":18,"height":18,"rotation":0,"visible":true},{"id":138,"name":"hedgehog","type":"","gid":336,"x":871,"y":762,"width":18,"height":18,"rotation":0,"visible":true},{"id":139,"name":"hedgehog","type":"","gid":336,"x":167,"y":765,"width":18,"height":18,"rotation":0,"visible":true},{"id":140,"name":"republic_soldier","type":"","gid":342,"x":1320,"y":765,"width":16,"height":24,"rotation":0,"visible":true},{"id":141,"name":"tree_conifer","type":"","gid":351,"x":1293,"y":768,"width":22,"height":33,"rotation":0,"visible":true},{"id":142,"name":"boulder","type":"","gid":345,"x":1135,"y":768,"width":18,"height":18,"rotation":0,"visible":true},{"id":143,"name":"tree_conifer","type":"","gid":301,"x":1021,"y":768,"width":22,"height":33,"rotation":0,"visible":true},{"id":144,"name":"burnt_stump","type":"","gid":338,"x":778,"y":778,"width":12,"height":14,"rotation":0,"visible":true},{"id":145,"name":"barbed_wire","type":"","gid":335,"x":396,"y":789,"width":40,"height":18,"rotation":0,"visible":true},{"id":146,"name":"republic_wall","type":"","gid":357,"x":1168,"y":800,"width":16,"height":30,"rotation":0,"visible":true},{"id":147,"name":"republic_wall","type":"","gid":358,"x":1184,"y":800,"width":16,"height":30,"rotation":0,"visible":true},{"id":148,"name":"republic_wall","type":"","gid":357,"x":1200,"y":800,"width":16,"height":30,"rotation":0,"visible":true},{"id":149,"name":"republic_wall","type":"","gid":358,"x":1216,"y":800,"width":16,"height":30,"rotation":0,"visible":true},{"id":150,"name":"republic_wall","type":"","gid":357,"x":1232,"y":800,"width":16,"height":30,"rotation":0,"visible":true},{"id":151,"name":"tree_conifer","type":"","gid":343,"x":637,"y":800,"width":22,"height":33,"rotation":0,"visible":true},{"id":152,"name":"tree_conifer","type":"","gid":351,"x":1437,"y":800,"width":22,"height":33,"rotation":0,"visible":true},{"id":153,"name":"destroyed_house","type":"","gid":359,"x":207,"y":803,"width":66,"height":60,"rotation":0,"visible":true},{"id":154,"name":"republic_battery_soldier","type":"","gid":360,"x":296,"y":810,"width":16,"height":24,"rotation":0,"visible":true},{"id":155,"name":"republic_battery_soldier","type":"","gid":361,"x":152,"y":813,"width":16,"height":24,"rotation":0,"visible":true},{"id":156,"name":"republic_wall","type":"","gid":357,"x":1104,"y":816,"width":16,"height":30,"rotation":0,"visible":true},{"id":157,"name":"republic_wall","type":"","gid":358,"x":1120,"y":816,"width":16,"height":30,"rotation":0,"visible":true},{"id":158,"name":"republic_wall","type":"","gid":357,"x":1136,"y":816,"width":16,"height":30,"rotation":0,"visible":true},{"id":159,"name":"republic_wall","type":"","gid":358,"x":1152,"y":816,"width":16,"height":30,"rotation":0,"visible":true},{"id":160,"name":"republic_wall","type":"","gid":358,"x":1312,"y":816,"width":16,"height":30,"rotation":0,"visible":true},{"id":161,"name":"republic_wall","type":"","gid":357,"x":1328,"y":816,"width":16,"height":30,"rotation":0,"visible":true},{"id":162,"name":"republic_wall","type":"","gid":358,"x":1344,"y":816,"width":16,"height":30,"rotation":0,"visible":true},{"id":163,"name":"republic_wall","type":"","gid":357,"x":1104,"y":816,"width":16,"height":30,"rotation":0,"visible":true},{"id":164,"name":"republic_tower","type":"","gid":362,"x":1094,"y":816,"width":36,"height":64,"rotation":0,"visible":true},{"id":165,"name":"boulder","type":"","gid":303,"x":478,"y":816,"width":21,"height":16,"rotation":0,"visible":true},{"id":166,"name":"republic_gate","type":"","gid":363,"x":1240,"y":819,"width":64,"height":48,"rotation":0,"visible":true},{"id":167,"name":"republic_wall","type":"","gid":357,"x":1360,"y":832,"width":16,"height":30,"rotation":0,"visible":true},{"id":168,"name":"republic_wall","type":"","gid":358,"x":1376,"y":832,"width":16,"height":30,"rotation":0,"visible":true},{"id":169,"name":"republic_wall","type":"","gid":357,"x":1392,"y":832,"width":16,"height":30,"rotation":0,"visible":true},{"id":170,"name":"republic_wall","type":"","gid":358,"x":1088,"y":832,"width":16,"height":30,"rotation":0,"visible":true},{"id":171,"name":"republic_tower","type":"","gid":362,"x":1382,"y":832,"width":36,"height":64,"rotation":0,"visible":true},{"id":172,"name":"boulder","type":"","gid":345,"x":751,"y":832,"width":18,"height":18,"rotation":0,"visible":true},{"id":173,"name":"barbed_wire","type":"","gid":335,"x":140,"y":837,"width":40,"height":18,"rotation":0,"visible":true},{"id":174,"name":"republic_soldier","type":"","gid":352,"x":1240,"y":838,"width":16,"height":24,"rotation":0,"visible":true},{"id":175,"name":"republic_soldier","type":"","gid":342,"x":1288,"y":842,"width":16,"height":24,"rotation":0,"visible":true},{"id":176,"name":"republic_soldier","type":"","gid":364,"x":1048,"y":845,"width":16,"height":24,"rotation":0,"visible":true},{"id":177,"name":"republic_wall","type":"","gid":358,"x":1408,"y":848,"width":16,"height":30,"rotation":0,"visible":true},{"id":178,"name":"republic_wall","type":"","gid":358,"x":1056,"y":848,"width":16,"height":30,"rotation":0,"visible":true},{"id":179,"name":"republic_wall","type":"","gid":357,"x":1072,"y":848,"width":16,"height":30,"rotation":0,"visible":true},{"id":180,"name":"republic_tnt_pile","type":"","gid":365,"x":381,"y":858,"width":32,"height":32,"rotation":0,"visible":true},{"id":181,"name":"republic_tower","type":"","gid":362,"x":1014,"y":858,"width":36,"height":64,"rotation":0,"visible":true},{"id":182,"name":"republic_battery_soldier","type":"","gid":366,"x":245,"y":864,"width":16,"height":24,"rotation":0,"visible":true},{"id":183,"name":"republic_wall","type":"","gid":357,"x":1408,"y":864,"width":16,"height":30,"rotation":0,"visible":true},{"id":184,"name":"republic_wall","type":"","gid":357,"x":1040,"y":864,"width":16,"height":30,"rotation":0,"visible":true},{"id":185,"name":"republic_cannon","type":"","gid":367,"x":152,"y":867,"width":80,"height":40,"rotation":0,"visible":true},{"id":186,"name":"republic_cannon","type":"","gid":367,"x":272,"y":867,"width":80,"height":40,"rotation":0,"visible":true},{"id":187,"name":"republic_munitions_crate","type":"","gid":368,"x":83,"y":874,"width":32,"height":32,"rotation":0,"visible":true},{"id":188,"name":"republic_wall","type":"","gid":358,"x":1424,"y":880,"width":16,"height":30,"rotation":0,"visible":true},{"id":189,"name":"republic_wall","type":"","gid":358,"x":1024,"y":880,"width":16,"height":30,"rotation":0,"visible":true},{"id":190,"name":"tree_conifer","type":"","gid":301,"x":557,"y":880,"width":22,"height":33,"rotation":0,"visible":true},{"id":191,"name":"tree_conifer","type":"","gid":301,"x":653,"y":880,"width":22,"height":33,"rotation":0,"visible":true},{"id":192,"name":"republic_battery_soldier","type":"","gid":369,"x":432,"y":888,"width":16,"height":24,"rotation":0,"visible":true},{"id":193,"name":"republic_battery_soldier","type":"","gid":370,"x":344,"y":893,"width":16,"height":24,"rotation":0,"visible":true},{"id":194,"name":"republic_battery_soldier","type":"","gid":371,"x":128,"y":893,"width":16,"height":24,"rotation":0,"visible":true},{"id":195,"name":"republic_wall","type":"","gid":357,"x":1440,"y":896,"width":16,"height":30,"rotation":0,"visible":true},{"id":196,"name":"republic_wall","type":"","gid":358,"x":992,"y":896,"width":16,"height":30,"rotation":0,"visible":true},{"id":197,"name":"republic_wall","type":"","gid":357,"x":1008,"y":896,"width":16,"height":30,"rotation":0,"visible":true},{"id":198,"name":"boulder","type":"","gid":300,"x":766,"y":896,"width":20,"height":16,"rotation":0,"visible":true},{"id":199,"name":"republic_battery_soldier","type":"","gid":372,"x":248,"y":902,"width":16,"height":24,"rotation":0,"visible":true},{"id":200,"name":"republic_battery_soldier","type":"","gid":361,"x":168,"y":910,"width":16,"height":24,"rotation":0,"visible":true},{"id":201,"name":"republic_wall","type":"","gid":358,"x":1456,"y":912,"width":16,"height":30,"rotation":0,"visible":true},{"id":202,"name":"republic_wall","type":"","gid":357,"x":976,"y":912,"width":16,"height":30,"rotation":0,"visible":true},{"id":203,"name":"republic_bunker","type":"","gid":373,"x":55,"y":915,"width":34,"height":28,"rotation":0,"visible":true},{"id":204,"name":"republic_banner","type":"","gid":341,"x":1329,"y":918,"width":14,"height":30,"rotation":0,"visible":true},{"id":205,"name":"republic_banner","type":"","gid":341,"x":1153,"y":922,"width":14,"height":30,"rotation":0,"visible":true},{"id":206,"name":"republic_wall","type":"","gid":357,"x":1456,"y":928,"width":16,"height":30,"rotation":0,"visible":true},{"id":207,"name":"republic_wall","type":"","gid":358,"x":960,"y":928,"width":16,"height":30,"rotation":0,"visible":true},{"id":208,"name":"republic_tower","type":"","gid":362,"x":950,"y":928,"width":36,"height":64,"rotation":0,"visible":true},{"id":209,"name":"republic_soldier","type":"","gid":355,"x":1192,"y":938,"width":16,"height":24,"rotation":0,"visible":true},{"id":210,"name":"republic_wall","type":"","gid":358,"x":1472,"y":944,"width":16,"height":30,"rotation":0,"visible":true},{"id":211,"name":"republic_wall","type":"","gid":357,"x":960,"y":944,"width":16,"height":30,"rotation":0,"visible":true},{"id":212,"name":"boulder","type":"","gid":300,"x":766,"y":944,"width":20,"height":16,"rotation":0,"visible":true},{"id":213,"name":"republic_barracks_a","type":"","gid":374,"x":1000,"y":954,"width":64,"height":72,"rotation":0,"visible":true},{"id":214,"name":"republic_wall","type":"","gid":357,"x":1472,"y":960,"width":16,"height":30,"rotation":0,"visible":true},{"id":215,"name":"republic_wall","type":"","gid":358,"x":944,"y":960,"width":16,"height":30,"rotation":0,"visible":true},{"id":216,"name":"republic_banner","type":"","gid":341,"x":1433,"y":970,"width":14,"height":30,"rotation":0,"visible":true},{"id":217,"name":"republic_wall","type":"","gid":358,"x":1488,"y":976,"width":16,"height":30,"rotation":0,"visible":true},{"id":218,"name":"republic_wall","type":"","gid":357,"x":944,"y":976,"width":16,"height":30,"rotation":0,"visible":true},{"id":219,"name":"republic_headquarters","type":"","gid":375,"x":1176,"y":976,"width":112,"height":96,"rotation":0,"visible":true},{"id":220,"name":"tree_conifer","type":"","gid":343,"x":845,"y":976,"width":22,"height":33,"rotation":0,"visible":true},{"id":221,"name":"republic_warship_flagship","type":"","gid":376,"x":432,"y":984,"width":144,"height":72,"rotation":0,"visible":true},{"id":222,"name":"republic_banner","type":"","gid":341,"x":892,"y":989,"width":14,"height":30,"rotation":0,"visible":true},{"id":223,"name":"republic_warship_escort","type":"","gid":377,"x":600,"y":992,"width":96,"height":56,"rotation":0,"visible":true},{"id":224,"name":"republic_warship_escort","type":"","gid":377,"x":728,"y":992,"width":96,"height":56,"rotation":0,"visible":true},{"id":225,"name":"republic_wall","type":"","gid":357,"x":1488,"y":992,"width":16,"height":30,"rotation":0,"visible":true},{"id":226,"name":"republic_wall","type":"","gid":358,"x":944,"y":992,"width":16,"height":30,"rotation":0,"visible":true},{"id":227,"name":"boulder","type":"","gid":300,"x":94,"y":992,"width":20,"height":16,"rotation":0,"visible":true},{"id":228,"name":"boulder","type":"","gid":300,"x":158,"y":992,"width":20,"height":16,"rotation":0,"visible":true},{"id":229,"name":"republic_soldier","type":"","gid":350,"x":1400,"y":998,"width":16,"height":24,"rotation":0,"visible":true},{"id":230,"name":"republic_soldier","type":"","gid":378,"x":1128,"y":1002,"width":16,"height":24,"rotation":0,"visible":true},{"id":231,"name":"republic_wall","type":"","gid":358,"x":1504,"y":1008,"width":16,"height":30,"rotation":0,"visible":true},{"id":232,"name":"republic_soldier","type":"","gid":364,"x":584,"y":1014,"width":16,"height":24,"rotation":0,"visible":true},{"id":233,"name":"republic_soldier","type":"","gid":364,"x":1272,"y":1018,"width":16,"height":24,"rotation":0,"visible":true},{"id":234,"name":"republic_wall","type":"","gid":357,"x":1504,"y":1024,"width":16,"height":30,"rotation":0,"visible":true},{"id":235,"name":"boulder","type":"","gid":303,"x":558,"y":1024,"width":21,"height":16,"rotation":0,"visible":true},{"id":236,"name":"tree_conifer","type":"","gid":343,"x":413,"y":1024,"width":22,"height":33,"rotation":0,"visible":true},{"id":237,"name":"republic_soldier","type":"","gid":355,"x":824,"y":1034,"width":16,"height":24,"rotation":0,"visible":true},{"id":238,"name":"republic_wall","type":"","gid":358,"x":1504,"y":1040,"width":16,"height":30,"rotation":0,"visible":true},{"id":239,"name":"boulder","type":"","gid":303,"x":238,"y":1040,"width":21,"height":16,"rotation":0,"visible":true},{"id":240,"name":"republic_banner","type":"","gid":341,"x":892,"y":1046,"width":14,"height":30,"rotation":0,"visible":true},{"id":241,"name":"republic_wall","type":"","gid":357,"x":1520,"y":1056,"width":16,"height":30,"rotation":0,"visible":true},{"id":242,"name":"republic_barracks_a","type":"","gid":374,"x":1064,"y":1056,"width":64,"height":72,"rotation":0,"visible":true},{"id":243,"name":"republic_barracks_b","type":"","gid":379,"x":1336,"y":1064,"width":64,"height":72,"rotation":0,"visible":true},{"id":244,"name":"republic_wall","type":"","gid":358,"x":1520,"y":1072,"width":16,"height":30,"rotation":0,"visible":true},{"id":245,"name":"republic_wall","type":"","gid":357,"x":912,"y":1072,"width":16,"height":30,"rotation":0,"visible":true},{"id":246,"name":"republic_tower","type":"","gid":362,"x":550,"y":1072,"width":36,"height":64,"rotation":0,"visible":true},{"id":247,"name":"boulder","type":"","gid":345,"x":79,"y":1072,"width":18,"height":18,"rotation":0,"visible":true},{"id":248,"name":"boulder","type":"","gid":345,"x":239,"y":1072,"width":18,"height":18,"rotation":0,"visible":true},{"id":249,"name":"republic_wall","type":"","gid":357,"x":1504,"y":1088,"width":16,"height":30,"rotation":0,"visible":true},{"id":250,"name":"republic_wall","type":"","gid":358,"x":912,"y":1088,"width":16,"height":30,"rotation":0,"visible":true},{"id":251,"name":"republic_wall","type":"","gid":358,"x":1488,"y":1104,"width":16,"height":30,"rotation":0,"visible":true},{"id":252,"name":"republic_wall","type":"","gid":357,"x":896,"y":1104,"width":16,"height":30,"rotation":0,"visible":true},{"id":253,"name":"republic_soldier","type":"","gid":352,"x":1240,"y":1110,"width":16,"height":24,"rotation":0,"visible":true},{"id":254,"name":"republic_warship_escort","type":"","gid":377,"x":664,"y":1120,"width":96,"height":56,"rotation":0,"visible":true},{"id":255,"name":"republic_wall","type":"","gid":357,"x":1472,"y":1120,"width":16,"height":30,"rotation":0,"visible":true},{"id":256,"name":"republic_wall","type":"","gid":358,"x":896,"y":1120,"width":16,"height":30,"rotation":0,"visible":true},{"id":257,"name":"republic_tower","type":"","gid":362,"x":886,"y":1120,"width":36,"height":64,"rotation":0,"visible":true},{"id":258,"name":"tree_conifer","type":"","gid":301,"x":157,"y":1120,"width":22,"height":33,"rotation":0,"visible":true},{"id":259,"name":"republic_soldier","type":"","gid":344,"x":1000,"y":1130,"width":16,"height":24,"rotation":0,"visible":true},{"id":260,"name":"republic_soldier","type":"","gid":378,"x":792,"y":1130,"width":16,"height":24,"rotation":0,"visible":true},{"id":261,"name":"republic_wall","type":"","gid":358,"x":1472,"y":1136,"width":16,"height":30,"rotation":0,"visible":true},{"id":262,"name":"republic_wall","type":"","gid":357,"x":912,"y":1136,"width":16,"height":30,"rotation":0,"visible":true},{"id":263,"name":"tree_conifer","type":"","gid":343,"x":61,"y":1136,"width":22,"height":33,"rotation":0,"visible":true},{"id":264,"name":"boulder","type":"","gid":380,"x":236,"y":1136,"width":24,"height":18,"rotation":0,"visible":true},{"id":265,"name":"tree_conifer","type":"","gid":343,"x":589,"y":1136,"width":22,"height":33,"rotation":0,"visible":true},{"id":266,"name":"republic_wall","type":"","gid":357,"x":1456,"y":1152,"width":16,"height":30,"rotation":0,"visible":true},{"id":267,"name":"republic_wall","type":"","gid":358,"x":928,"y":1152,"width":16,"height":30,"rotation":0,"visible":true},{"id":268,"name":"republic_weapons_storage","type":"","gid":381,"x":1112,"y":1165,"width":96,"height":72,"rotation":0,"visible":true},{"id":269,"name":"republic_cafeteria","type":"","gid":382,"x":1312,"y":1165,"width":96,"height":72,"rotation":0,"visible":true},{"id":270,"name":"republic_wall","type":"","gid":358,"x":1440,"y":1168,"width":16,"height":30,"rotation":0,"visible":true},{"id":271,"name":"republic_wall","type":"","gid":357,"x":944,"y":1168,"width":16,"height":30,"rotation":0,"visible":true},{"id":272,"name":"boulder","type":"","gid":300,"x":414,"y":1168,"width":20,"height":16,"rotation":0,"visible":true},{"id":273,"name":"tree_conifer","type":"","gid":301,"x":797,"y":1168,"width":22,"height":33,"rotation":0,"visible":true},{"id":274,"name":"republic_wall","type":"","gid":357,"x":1424,"y":1184,"width":16,"height":30,"rotation":0,"visible":true},{"id":275,"name":"republic_wall","type":"","gid":358,"x":960,"y":1184,"width":16,"height":30,"rotation":0,"visible":true},{"id":276,"name":"tree_conifer","type":"","gid":343,"x":157,"y":1184,"width":22,"height":33,"rotation":0,"visible":true},{"id":277,"name":"republic_wall","type":"","gid":358,"x":1408,"y":1200,"width":16,"height":30,"rotation":0,"visible":true},{"id":278,"name":"republic_wall","type":"","gid":357,"x":1392,"y":1200,"width":16,"height":30,"rotation":0,"visible":true},{"id":279,"name":"republic_wall","type":"","gid":358,"x":1376,"y":1200,"width":16,"height":30,"rotation":0,"visible":true},{"id":280,"name":"republic_wall","type":"","gid":357,"x":1360,"y":1200,"width":16,"height":30,"rotation":0,"visible":true},{"id":281,"name":"republic_wall","type":"","gid":358,"x":1344,"y":1200,"width":16,"height":30,"rotation":0,"visible":true},{"id":282,"name":"republic_wall","type":"","gid":357,"x":1328,"y":1200,"width":16,"height":30,"rotation":0,"visible":true},{"id":283,"name":"republic_wall","type":"","gid":358,"x":1312,"y":1200,"width":16,"height":30,"rotation":0,"visible":true},{"id":284,"name":"republic_wall","type":"","gid":357,"x":1296,"y":1200,"width":16,"height":30,"rotation":0,"visible":true},{"id":285,"name":"republic_wall","type":"","gid":358,"x":1280,"y":1200,"width":16,"height":30,"rotation":0,"visible":true},{"id":286,"name":"republic_wall","type":"","gid":357,"x":1264,"y":1200,"width":16,"height":30,"rotation":0,"visible":true},{"id":287,"name":"republic_wall","type":"","gid":358,"x":1248,"y":1200,"width":16,"height":30,"rotation":0,"visible":true},{"id":288,"name":"republic_wall","type":"","gid":357,"x":1232,"y":1200,"width":16,"height":30,"rotation":0,"visible":true},{"id":289,"name":"republic_wall","type":"","gid":358,"x":1216,"y":1200,"width":16,"height":30,"rotation":0,"visible":true},{"id":290,"name":"republic_wall","type":"","gid":357,"x":1200,"y":1200,"width":16,"height":30,"rotation":0,"visible":true},{"id":291,"name":"republic_wall","type":"","gid":357,"x":976,"y":1200,"width":16,"height":30,"rotation":0,"visible":true},{"id":292,"name":"tree_conifer","type":"","gid":351,"x":637,"y":1200,"width":22,"height":33,"rotation":0,"visible":true},{"id":293,"name":"tree_conifer","type":"","gid":301,"x":269,"y":1200,"width":22,"height":33,"rotation":0,"visible":true},{"id":294,"name":"republic_wall","type":"","gid":358,"x":1184,"y":1216,"width":16,"height":30,"rotation":0,"visible":true},{"id":295,"name":"republic_wall","type":"","gid":357,"x":1168,"y":1216,"width":16,"height":30,"rotation":0,"visible":true},{"id":296,"name":"republic_wall","type":"","gid":358,"x":1152,"y":1216,"width":16,"height":30,"rotation":0,"visible":true},{"id":297,"name":"republic_wall","type":"","gid":357,"x":1136,"y":1216,"width":16,"height":30,"rotation":0,"visible":true},{"id":298,"name":"republic_wall","type":"","gid":358,"x":1120,"y":1216,"width":16,"height":30,"rotation":0,"visible":true},{"id":299,"name":"republic_wall","type":"","gid":357,"x":1104,"y":1216,"width":16,"height":30,"rotation":0,"visible":true},{"id":300,"name":"republic_wall","type":"","gid":358,"x":1088,"y":1216,"width":16,"height":30,"rotation":0,"visible":true},{"id":301,"name":"republic_wall","type":"","gid":357,"x":1072,"y":1216,"width":16,"height":30,"rotation":0,"visible":true},{"id":302,"name":"republic_wall","type":"","gid":358,"x":1056,"y":1216,"width":16,"height":30,"rotation":0,"visible":true},{"id":303,"name":"republic_wall","type":"","gid":357,"x":1040,"y":1216,"width":16,"height":30,"rotation":0,"visible":true},{"id":304,"name":"republic_wall","type":"","gid":358,"x":1024,"y":1216,"width":16,"height":30,"rotation":0,"visible":true},{"id":305,"name":"republic_wall","type":"","gid":357,"x":1008,"y":1216,"width":16,"height":30,"rotation":0,"visible":true},{"id":306,"name":"republic_wall","type":"","gid":358,"x":992,"y":1216,"width":16,"height":30,"rotation":0,"visible":true},{"id":307,"name":"boulder","type":"","gid":380,"x":892,"y":1216,"width":24,"height":18,"rotation":0,"visible":true}]}]}
