{
  "type": "map",
  "version": "1.10",
  "tiledversion": "1.12.2",
  "orientation": "orthogonal",
  "renderorder": "right-down",
  "width": 96,
  "height": 72,
  "tilewidth": 16,
  "tileheight": 16,
  "infinite": false,
  "nextlayerid": 8,
  "nextobjectid": 434,
  "backgroundcolor": "#26442c",
  "layers": [
    {
      "id": 1,
      "name": "Ground",
      "type": "tilelayer",
      "x": 0,
      "y": 0,
      "width": 96,
      "height": 72,
      "opacity": 1,
      "visible": true,
      "data": [
        1,
        1,
        1,
        2,
        1,
        2,
        2,
        4,
        2,
        1,
        2,
        1,
        2,
        3,
        1,
        1,
        1,
        2,
        2,
        2,
        3,
        1,
        1,
        1,
        2,
        2,
        1,
        4,
        1,
        4,
        2,
        3,
        1,
        4,
        3,
        2,
        3,
        1,
        1,
        1,
        1,
        1,
        1,
        4,
        2,
        1,
        1,
        1,
        1,
        2,
        4,
        1,
        1,
        1,
        1,
        1,
        1,
        1,
        1,
        1,
        2,
        2,
        2,
        4,
        2,
        2,
        2,
        4,
        1,
        3,
        1,
        1,
        1,
        2,
        1,
        2,
        4,
        1,
        1,
        4,
        1,
        1,
        1,
        1,
        3,
        1,
        3,
        1,
        1,
        1,
        2,
        2,
        4,
        1,
        4,
        1,
        2,
        3,
        4,
        1,
        1,
        2,
        1,
        1,
        1,
        2,
        2,
        2,
        1,
        1,
        1,
        2,
        4,
        1,
        2,
        1,
        1,
        4,
        3,
        1,
        3,
        1,
        1,
        1,
        2,
        4,
        2,
        1,
        1,
        4,
        2,
        1,
        1,
        2,
        2,
        2,
        2,
        4,
        1,
        4,
        1,
        1,
        1,
        4,
        1,
        4,
        1,
        1,
        4,
        1,
        2,
        1,
        1,
        4,
        2,
        2,
        1,
        1,
        1,
        1,
        2,
        4,
        1,
        2,
        1,
        1,
        1,
        4,
        1,
        1,
        1,
        4,
        1,
        1,
        3,
        2,
        1,
        2,
        2,
        1,
        1,
        1,
        1,
        1,
        4,
        2,
        1,
        1,
        2,
        4,
        1,
        3,
        1,
        1,
        1,
        1,
        2,
        1,
        4,
        4,
        1,
        2,
        2,
        1,
        1,
        3,
        3,
        2,
        1,
        1,
        2,
        1,
        3,
        1,
        2,
        1,
        1,
        3,
        2,
        4,
        1,
        1,
        2,
        2,
        2,
        1,
        3,
        3,
        2,
        1,
        1,
        4,
        1,
        2,
        1,
        3,
        2,
        1,
        4,
        1,
        1,
        2,
        1,
        4,
        1,
        1,
        2,
        4,
        2,
        1,
        3,
        1,
        2,
        2,
        2,
        2,
        1,
        1,
        1,
        1,
        1,
        1,
        12,
        12,
        2,
        12,
        12,
        2,
        12,
        1,
        2,
        12,
        12,
        1,
        12,
        12,
        1,
        1,
        12,
        2,
        12,
        1,
        12,
        2,
        2,
        2,
        2,
        4,
        4,
        2,
        3,
        4,
        2,
        1,
        1,
        1,
        2,
        2,
        1,
        1,
        1,
        1,
        1,
        1,
        2,
        1,
        1,
        1,
        1,
        1,
        2,
        2,
        1,
        2,
        1,
        2,
        4,
        2,
        2,
        1,
        1,
        1,
        2,
        1,
        2,
        1,
        1,
        3,
        2,
        1,
        1,
        1,
        2,
        1,
        2,
        2,
        2,
        2,
        1,
        1,
        1,
        4,
        1,
        1,
        2,
        3,
        4,
        1,
        1,
        2,
        1,
        1,
        2,
        2,
        4,
        1,
        4,
        4,
        4,
        12,
        12,
        12,
        12,
        12,
        12,
        12,
        12,
        12,
        12,
        12,
        12,
        12,
        12,
        12,
        12,
        12,
        12,
        12,
        12,
        12,
        12,
        1,
        1,
        3,
        1,
        2,
        1,
        1,
        1,
        1,
        4,
        1,
        1,
        1,
        1,
        1,
        2,
        2,
        1,
        2,
        1,
        2,
        1,
        1,
        1,
        1,
        1,
        1,
        1,
        2,
        4,
        3,
        4,
        1,
        3,
        4,
        1,
        1,
        3,
        1,
        1,
        1,
        1,
        4,
        4,
        1,
        4,
        1,
        1,
        1,
        4,
        2,
        1,
        4,
        2,
        1,
        1,
        1,
        2,
        2,
        1,
        1,
        1,
        1,
        1,
        4,
        1,
        1,
        3,
        1,
        4,
        1,
        2,
        4,
        3,
        12,
        12,
        12,
        12,
        12,
        12,
        12,
        12,
        12,
        12,
        12,
        12,
        12,
        12,
        12,
        12,
        12,
        12,
        12,
        12,
        12,
        12,
        2,
        1,
        1,
        4,
        2,
        1,
        2,
        1,
        4,
        1,
        1,
        1,
        2,
        4,
        1,
        2,
        4,
        1,
        1,
        2,
        1,
        2,
        1,
        2,
        1,
        4,
        2,
        4,
        4,
        2,
        2,
        4,
        1,
        3,
        2,
        1,
        1,
        1,
        2,
        4,
        4,
        1,
        1,
        4,
        4,
        1,
        1,
        1,
        4,
        4,
        1,
        4,
        1,
        1,
        1,
        2,
        4,
        1,
        1,
        1,
        4,
        1,
        1,
        2,
        1,
        3,
        1,
        1,
        1,
        3,
        1,
        4,
        4,
        1,
        12,
        12,
        12,
        12,
        12,
        12,
        12,
        12,
        12,
        12,
        12,
        12,
        12,
        12,
        12,
        12,
        12,
        12,
        12,
        12,
        12,
        12,
        1,
        1,
        2,
        4,
        1,
        1,
        2,
        1,
        2,
        1,
        2,
        3,
        2,
        1,
        3,
        1,
        1,
        2,
        4,
        1,
        1,
        1,
        1,
        1,
        1,
        2,
        1,
        1,
        2,
        2,
        1,
        1,
        2,
        1,
        3,
        1,
        4,
        3,
        4,
        1,
        1,
        2,
        2,
        1,
        3,
        1,
        1,
        3,
        1,
        1,
        1,
        2,
        1,
        2,
        1,
        1,
        2,
        3,
        3,
        1,
        4,
        1,
        2,
        2,
        1,
        1,
        1,
        4,
        1,
        1,
        2,
        4,
        3,
        12,
        12,
        12,
        12,
        12,
        12,
        12,
        12,
        12,
        12,
        12,
        12,
        12,
        12,
        12,
        12,
        12,
        12,
        12,
        12,
        12,
        12,
        12,
        4,
        2,
        1,
        1,
        3,
        1,
        2,
        1,
        1,
        2,
        2,
        1,
        4,
        1,
        1,
        2,
        2,
        2,
        1,
        4,
        2,
        4,
        3,
        3,
        2,
        1,
        1,
        1,
        2,
        1,
        4,
        1,
        4,
        4,
        1,
        4,
        1,
        1,
        2,
        1,
        1,
        1,
        4,
        2,
        1,
        1,
        1,
        4,
        2,
        2,
        3,
        1,
        1,
        1,
        1,
        1,
        1,
        1,
        1,
        1,
        1,
        2,
        1,
        1,
        2,
        4,
        1,
        1,
        3,
        1,
        1,
        1,
        1,
        4,
        12,
        12,
        12,
        12,
        12,
        12,
        12,
        12,
        12,
        12,
        12,
        12,
        12,
        12,
        12,
        12,
        12,
        12,
        12,
        12,
        12,
        12,
        1,
        2,
        1,
        2,
        1,
        1,
        4,
        3,
        1,
        2,
        3,
        2,
        1,
        2,
        2,
        3,
        1,
        1,
        4,
        1,
        2,
        1,
        1,
        1,
        2,
        4,
        3,
        1,
        1,
        1,
        1,
        1,
        1,
        3,
        1,
        2,
        2,
        2,
        1,
        4,
        1,
        1,
        2,
        1,
        1,
        2,
        4,
        1,
        2,
        1,
        1,
        2,
        2,
        1,
        1,
        2,
        4,
        1,
        2,
        1,
        1,
        3,
        1,
        2,
        3,
        4,
        4,
        4,
        1,
        1,
        2,
        1,
        2,
        12,
        12,
        12,
        12,
        12,
        12,
        12,
        12,
        12,
        12,
        12,
        12,
        12,
        12,
        12,
        12,
        12,
        12,
        12,
        12,
        12,
        12,
        12,
        3,
        4,
        2,
        2,
        1,
        2,
        2,
        1,
        1,
        1,
        1,
        1,
        1,
        3,
        2,
        1,
        1,
        1,
        3,
        1,
        2,
        1,
        3,
        1,
        2,
        1,
        4,
        1,
        1,
        2,
        1,
        1,
        2,
        1,
        1,
        1,
        2,
        4,
        1,
        3,
        2,
        1,
        4,
        1,
        2,
        1,
        1,
        1,
        1,
        1,
        3,
        1,
        1,
        4,
        2,
        1,
        4,
        1,
        1,
        4,
        2,
        2,
        1,
        1,
        2,
        3,
        1,
        1,
        1,
        1,
        1,
        3,
        1,
        1,
        12,
        12,
        12,
        12,
        12,
        12,
        12,
        12,
        12,
        12,
        12,
        12,
        12,
        12,
        12,
        12,
        12,
        12,
        12,
        12,
        12,
        12,
        1,
        1,
        1,
        2,
        1,
        1,
        1,
        1,
        2,
        1,
        1,
        1,
        1,
        4,
        2,
        1,
        1,
        3,
        1,
        1,
        4,
        1,
        1,
        1,
        1,
        4,
        1,
        2,
        3,
        1,
        4,
        1,
        2,
        1,
        1,
        3,
        4,
        3,
        4,
        1,
        1,
        4,
        2,
        1,
        2,
        3,
        1,
        1,
        2,
        2,
        1,
        3,
        4,
        2,
        2,
        3,
        2,
        1,
        1,
        1,
        1,
        1,
        1,
        2,
        2,
        1,
        3,
        3,
        2,
        3,
        3,
        2,
        2,
        4,
        12,
        12,
        12,
        12,
        12,
        12,
        12,
        12,
        12,
        12,
        12,
        12,
        12,
        12,
        12,
        12,
        12,
        12,
        12,
        12,
        12,
        12,
        12,
        2,
        1,
        1,
        1,
        4,
        1,
        1,
        1,
        2,
        1,
        1,
        1,
        4,
        1,
        2,
        2,
        1,
        4,
        4,
        1,
        2,
        2,
        2,
        1,
        2,
        1,
        1,
        1,
        1,
        1,
        1,
        3,
        2,
        2,
        1,
        1,
        1,
        1,
        4,
        4,
        3,
        1,
        2,
        1,
        2,
        1,
        2,
        1,
        1,
        1,
        1,
        1,
        1,
        1,
        2,
        1,
        4,
        1,
        1,
        1,
        2,
        1,
        1,
        2,
        1,
        2,
        4,
        1,
        1,
        2,
        2,
        1,
        12,
        12,
        12,
        12,
        12,
        12,
        12,
        12,
        12,
        12,
        12,
        12,
        12,
        12,
        12,
        12,
        12,
        12,
        12,
        12,
        12,
        12,
        12,
        12,
        4,
        1,
        1,
        1,
        1,
        1,
        2,
        2,
        4,
        3,
        1,
        1,
        1,
        1,
        2,
        1,
        1,
        3,
        1,
        3,
        1,
        2,
        2,
        1,
        1,
        1,
        2,
        2,
        1,
        4,
        1,
        1,
        1,
        3,
        2,
        1,
        3,
        1,
        4,
        1,
        4,
        1,
        1,
        1,
        1,
        2,
        2,
        1,
        4,
        1,
        4,
        1,
        1,
        3,
        2,
        2,
        1,
        1,
        4,
        1,
        4,
        2,
        1,
        1,
        1,
        4,
        1,
        1,
        1,
        1,
        1,
        2,
        3,
        12,
        12,
        12,
        12,
        12,
        12,
        12,
        12,
        12,
        12,
        12,
        12,
        12,
        12,
        12,
        12,
        12,
        12,
        12,
        12,
        12,
        12,
        3,
        1,
        1,
        2,
        2,
        1,
        4,
        2,
        1,
        1,
        1,
        4,
        2,
        1,
        4,
        2,
        2,
        2,
        1,
        4,
        3,
        2,
        1,
        2,
        3,
        2,
        4,
        2,
        1,
        1,
        1,
        1,
        2,
        3,
        2,
        1,
        4,
        1,
        1,
        4,
        1,
        4,
        1,
        3,
        4,
        1,
        2,
        2,
        2,
        1,
        2,
        4,
        1,
        4,
        2,
        2,
        1,
        2,
        3,
        2,
        2,
        1,
        4,
        4,
        2,
        4,
        2,
        1,
        2,
        3,
        1,
        1,
        2,
        1,
        12,
        12,
        12,
        12,
        12,
        12,
        12,
        12,
        12,
        12,
        12,
        12,
        12,
        12,
        12,
        12,
        12,
        12,
        12,
        12,
        12,
        12,
        1,
        3,
        1,
        1,
        4,
        1,
        4,
        2,
        3,
        1,
        1,
        2,
        2,
        1,
        2,
        1,
        1,
        1,
        1,
        4,
        1,
        4,
        1,
        4,
        3,
        1,
        1,
        3,
        2,
        1,
        1,
        1,
        1,
        1,
        1,
        2,
        1,
        1,
        1,
        2,
        1,
        2,
        4,
        1,
        3,
        2,
        2,
        3,
        1,
        1,
        4,
        3,
        4,
        1,
        1,
        2,
        1,
        4,
        1,
        1,
        1,
        4,
        1,
        2,
        1,
        4,
        1,
        4,
        1,
        4,
        1,
        2,
        1,
        2,
        12,
        12,
        12,
        12,
        12,
        12,
        12,
        12,
        12,
        12,
        12,
        12,
        12,
        12,
        12,
        12,
        12,
        12,
        12,
        12,
        12,
        12,
        12,
        1,
        1,
        1,
        2,
        1,
        1,
        1,
        1,
        3,
        1,
        4,
        1,
        1,
        1,
        4,
        1,
        2,
        1,
        1,
        1,
        2,
        1,
        1,
        1,
        2,
        4,
        1,
        1,
        3,
        1,
        1,
        2,
        2,
        2,
        1,
        1,
        1,
        3,
        1,
        1,
        3,
        4,
        4,
        1,
        1,
        2,
        4,
        1,
        1,
        1,
        2,
        4,
        4,
        1,
        1,
        1,
        4,
        1,
        1,
        2,
        4,
        1,
        1,
        1,
        3,
        1,
        3,
        2,
        1,
        1,
        4,
        1,
        3,
        12,
        12,
        12,
        12,
        12,
        12,
        12,
        12,
        12,
        12,
        12,
        12,
        12,
        12,
        12,
        12,
        12,
        12,
        12,
        12,
        12,
        12,
        2,
        1,
        1,
        1,
        1,
        1,
        2,
        2,
        1,
        1,
        4,
        4,
        1,
        3,
        1,
        1,
        1,
        1,
        2,
        1,
        1,
        1,
        2,
        3,
        4,
        1,
        1,
        1,
        2,
        1,
        4,
        1,
        4,
        3,
        1,
        1,
        1,
        1,
        2,
        2,
        1,
        2,
        2,
        1,
        2,
        3,
        1,
        2,
        3,
        1,
        2,
        1,
        4,
        1,
        2,
        4,
        1,
        2,
        2,
        1,
        2,
        1,
        4,
        1,
        2,
        2,
        1,
        1,
        4,
        2,
        2,
        1,
        2,
        2,
        12,
        12,
        12,
        12,
        12,
        12,
        12,
        12,
        12,
        12,
        12,
        12,
        12,
        12,
        12,
        12,
        12,
        12,
        12,
        12,
        12,
        12,
        12,
        4,
        1,
        4,
        1,
        1,
        1,
        4,
        1,
        2,
        1,
        4,
        3,
        4,
        1,
        2,
        3,
        2,
        1,
        2,
        1,
        3,
        2,
        1,
        2,
        1,
        1,
        2,
        2,
        2,
        1,
        2,
        1,
        1,
        1,
        1,
        1,
        1,
        1,
        1,
        1,
        1,
        1,
        4,
        2,
        1,
        1,
        1,
        3,
        3,
        1,
        1,
        1,
        1,
        1,
        4,
        2,
        2,
        1,
        2,
        1,
        4,
        1,
        1,
        2,
        1,
        2,
        2,
        1,
        1,
        1,
        1,
        2,
        2,
        12,
        12,
        12,
        12,
        12,
        12,
        12,
        12,
        12,
        12,
        12,
        12,
        12,
        12,
        12,
        12,
        12,
        12,
        12,
        12,
        12,
        12,
        12,
        1,
        2,
        2,
        4,
        1,
        1,
        1,
        1,
        1,
        4,
        1,
        1,
        2,
        4,
        1,
        1,
        1,
        1,
        4,
        3,
        1,
        4,
        1,
        3,
        1,
        2,
        3,
        1,
        2,
        1,
        1,
        4,
        1,
        1,
        1,
        1,
        2,
        1,
        2,
        1,
        1,
        1,
        4,
        1,
        1,
        1,
        3,
        2,
        2,
        2,
        1,
        1,
        2,
        1,
        4,
        1,
        4,
        1,
        3,
        1,
        1,
        1,
        3,
        2,
        3,
        1,
        1,
        1,
        1,
        1,
        2,
        1,
        1,
        12,
        12,
        12,
        12,
        12,
        12,
        12,
        12,
        12,
        12,
        12,
        12,
        12,
        12,
        12,
        12,
        12,
        12,
        12,
        12,
        12,
        12,
        1,
        1,
        1,
        1,
        1,
        1,
        2,
        1,
        1,
        2,
        1,
        2,
        1,
        1,
        1,
        1,
        1,
        1,
        1,
        1,
        2,
        1,
        1,
        3,
        2,
        3,
        1,
        2,
        3,
        2,
        4,
        4,
        1,
        4,
        2,
        4,
        3,
        1,
        3,
        2,
        3,
        4,
        2,
        2,
        3,
        1,
        2,
        2,
        1,
        3,
        3,
        2,
        2,
        1,
        4,
        1,
        2,
        1,
        4,
        1,
        2,
        1,
        1,
        2,
        4,
        1,
        1,
        1,
        2,
        1,
        1,
        1,
        1,
        12,
        12,
        12,
        12,
        12,
        12,
        12,
        12,
        12,
        12,
        12,
        12,
        12,
        12,
        12,
        12,
        12,
        12,
        12,
        12,
        12,
        12,
        12,
        12,
        1,
        1,
        1,
        1,
        4,
        1,
        1,
        2,
        3,
        1,
        1,
        3,
        1,
        1,
        1,
        1,
        1,
        1,
        4,
        2,
        1,
        1,
        3,
        3,
        2,
        1,
        4,
        1,
        1,
        4,
        1,
        1,
        1,
        1,
        1,
        2,
        2,
        1,
        1,
        1,
        2,
        2,
        1,
        1,
        2,
        2,
        1,
        4,
        4,
        2,
        2,
        1,
        1,
        3,
        3,
        4,
        4,
        2,
        2,
        1,
        1,
        1,
        2,
        1,
        2,
        1,
        2,
        2,
        2,
        1,
        1,
        4,
        12,
        12,
        12,
        12,
        12,
        12,
        12,
        12,
        12,
        12,
        12,
        12,
        12,
        12,
        12,
        12,
        12,
        12,
        12,
        12,
        12,
        12,
        12,
        1,
        3,
        1,
        2,
        1,
        1,
        1,
        4,
        1,
        1,
        2,
        1,
        1,
        1,
        4,
        1,
        1,
        2,
        1,
        1,
        3,
        2,
        1,
        1,
        3,
        2,
        1,
        1,
        1,
        1,
        1,
        1,
        4,
        1,
        1,
        1,
        4,
        1,
        4,
        1,
        4,
        1,
        1,
        4,
        1,
        1,
        2,
        1,
        1,
        1,
        1,
        2,
        1,
        1,
        1,
        4,
        1,
        1,
        1,
        4,
        2,
        1,
        2,
        1,
        1,
        4,
        1,
        4,
        1,
        1,
        2,
        1,
        1,
        3,
        12,
        12,
        12,
        12,
        12,
        12,
        12,
        12,
        12,
        12,
        12,
        12,
        12,
        12,
        12,
        12,
        12,
        12,
        12,
        12,
        12,
        12,
        12,
        2,
        2,
        1,
        3,
        4,
        2,
        2,
        1,
        1,
        3,
        3,
        1,
        1,
        1,
        1,
        2,
        2,
        2,
        2,
        1,
        4,
        1,
        1,
        1,
        1,
        1,
        1,
        2,
        4,
        1,
        1,
        1,
        1,
        2,
        1,
        1,
        1,
        1,
        1,
        1,
        3,
        4,
        2,
        4,
        1,
        1,
        1,
        2,
        1,
        2,
        1,
        1,
        1,
        1,
        3,
        2,
        1,
        2,
        2,
        2,
        4,
        2,
        1,
        2,
        1,
        1,
        2,
        1,
        3,
        1,
        2,
        1,
        1,
        12,
        1,
        1,
        12,
        1,
        4,
        1,
        12,
        3,
        12,
        12,
        12,
        12,
        12,
        12,
        2,
        12,
        1,
        12,
        12,
        2,
        2,
        1,
        2,
        1,
        2,
        1,
        2,
        4,
        1,
        1,
        2,
        1,
        1,
        3,
        1,
        2,
        1,
        3,
        3,
        1,
        1,
        4,
        1,
        4,
        2,
        3,
        1,
        1,
        2,
        4,
        1,
        2,
        2,
        1,
        1,
        3,
        2,
        2,
        2,
        1,
        4,
        4,
        2,
        1,
        3,
        1,
        1,
        3,
        1,
        2,
        4,
        1,
        4,
        1,
        1,
        2,
        1,
        2,
        1,
        4,
        2,
        1,
        1,
        1,
        2,
        4,
        1,
        4,
        2,
        1,
        1,
        1,
        2,
        1,
        3,
        2,
        2,
        2,
        3,
        2,
        4,
        2,
        3,
        1,
        1,
        4,
        1,
        1,
        2,
        1,
        1,
        3,
        4,
        1,
        4,
        2,
        4,
        1,
        1,
        2,
        2,
        4,
        2,
        1,
        1,
        1,
        4,
        2,
        2,
        1,
        2,
        1,
        1,
        4,
        2,
        2,
        1,
        1,
        1,
        4,
        2,
        2,
        1,
        2,
        2,
        4,
        3,
        1,
        4,
        2,
        2,
        1,
        2,
        1,
        2,
        1,
        1,
        1,
        4,
        1,
        1,
        1,
        1,
        1,
        1,
        1,
        1,
        4,
        2,
        1,
        1,
        1,
        2,
        1,
        2,
        1,
        1,
        2,
        4,
        4,
        1,
        1,
        2,
        2,
        1,
        1,
        1,
        1,
        2,
        3,
        1,
        2,
        1,
        3,
        2,
        1,
        1,
        4,
        1,
        1,
        1,
        2,
        2,
        1,
        2,
        2,
        1,
        4,
        4,
        4,
        1,
        1,
        2,
        1,
        2,
        4,
        1,
        1,
        1,
        1,
        4,
        1,
        4,
        4,
        3,
        2,
        1,
        1,
        1,
        4,
        2,
        1,
        1,
        1,
        2,
        1,
        2,
        1,
        1,
        2,
        2,
        4,
        1,
        4,
        1,
        4,
        1,
        4,
        3,
        2,
        1,
        1,
        1,
        2,
        1,
        1,
        1,
        4,
        2,
        2,
        4,
        2,
        1,
        2,
        4,
        1,
        1,
        1,
        2,
        2,
        1,
        1,
        1,
        1,
        1,
        1,
        1,
        2,
        1,
        2,
        1,
        3,
        1,
        2,
        4,
        1,
        1,
        1,
        1,
        1,
        2,
        3,
        1,
        2,
        4,
        2,
        2,
        4,
        2,
        4,
        4,
        4,
        1,
        1,
        1,
        1,
        3,
        2,
        1,
        1,
        4,
        2,
        2,
        1,
        1,
        2,
        1,
        2,
        1,
        1,
        2,
        1,
        1,
        2,
        1,
        1,
        1,
        2,
        1,
        1,
        1,
        2,
        1,
        1,
        2,
        3,
        1,
        1,
        1,
        1,
        3,
        1,
        4,
        4,
        1,
        1,
        1,
        1,
        2,
        1,
        1,
        1,
        2,
        1,
        1,
        2,
        1,
        3,
        1,
        1,
        1,
        1,
        3,
        1,
        1,
        3,
        1,
        2,
        2,
        2,
        1,
        1,
        2,
        1,
        1,
        1,
        4,
        2,
        4,
        1,
        2,
        3,
        1,
        1,
        2,
        4,
        2,
        3,
        2,
        4,
        1,
        1,
        4,
        2,
        1,
        4,
        1,
        1,
        2,
        4,
        2,
        1,
        3,
        1,
        3,
        1,
        2,
        1,
        1,
        2,
        1,
        1,
        1,
        4,
        4,
        1,
        4,
        1,
        1,
        2,
        1,
        1,
        1,
        3,
        1,
        1,
        1,
        1,
        1,
        1,
        1,
        3,
        1,
        1,
        2,
        1,
        4,
        1,
        1,
        2,
        4,
        2,
        2,
        1,
        3,
        2,
        1,
        4,
        2,
        2,
        3,
        1,
        1,
        1,
        1,
        2,
        1,
        4,
        1,
        2,
        1,
        1,
        2,
        1,
        4,
        1,
        1,
        1,
        4,
        1,
        4,
        1,
        3,
        1,
        1,
        1,
        1,
        1,
        2,
        3,
        3,
        1,
        1,
        4,
        1,
        1,
        1,
        4,
        2,
        2,
        4,
        1,
        1,
        4,
        1,
        1,
        1,
        1,
        2,
        1,
        4,
        1,
        1,
        1,
        1,
        3,
        1,
        1,
        1,
        3,
        1,
        1,
        2,
        1,
        4,
        2,
        1,
        1,
        4,
        4,
        2,
        4,
        1,
        4,
        2,
        1,
        1,
        1,
        1,
        2,
        1,
        1,
        1,
        1,
        4,
        3,
        1,
        3,
        1,
        4,
        1,
        2,
        2,
        4,
        2,
        2,
        4,
        2,
        1,
        1,
        2,
        2,
        1,
        1,
        4,
        1,
        2,
        4,
        2,
        1,
        1,
        1,
        2,
        1,
        4,
        2,
        1,
        1,
        4,
        4,
        1,
        4,
        4,
        1,
        2,
        4,
        1,
        3,
        1,
        4,
        1,
        1,
        1,
        4,
        1,
        1,
        2,
        1,
        1,
        3,
        1,
        1,
        1,
        4,
        1,
        2,
        1,
        2,
        2,
        1,
        1,
        1,
        1,
        1,
        2,
        2,
        2,
        4,
        2,
        1,
        3,
        1,
        1,
        1,
        1,
        4,
        1,
        1,
        1,
        2,
        2,
        2,
        1,
        2,
        2,
        1,
        1,
        1,
        2,
        1,
        2,
        1,
        3,
        1,
        1,
        2,
        1,
        2,
        4,
        1,
        1,
        2,
        1,
        1,
        1,
        2,
        2,
        1,
        3,
        1,
        2,
        2,
        2,
        1,
        1,
        1,
        2,
        1,
        4,
        1,
        1,
        1,
        3,
        1,
        2,
        3,
        2,
        4,
        2,
        1,
        1,
        1,
        1,
        4,
        2,
        1,
        2,
        3,
        4,
        1,
        1,
        1,
        3,
        3,
        1,
        1,
        1,
        2,
        1,
        4,
        1,
        4,
        2,
        1,
        1,
        1,
        3,
        3,
        2,
        1,
        4,
        1,
        1,
        3,
        2,
        2,
        1,
        1,
        1,
        1,
        2,
        1,
        2,
        1,
        2,
        1,
        2,
        1,
        4,
        2,
        1,
        2,
        1,
        1,
        3,
        4,
        3,
        1,
        4,
        1,
        2,
        2,
        1,
        1,
        1,
        4,
        1,
        3,
        2,
        1,
        1,
        1,
        1,
        4,
        1,
        1,
        3,
        4,
        1,
        1,
        1,
        2,
        4,
        4,
        1,
        1,
        4,
        2,
        3,
        2,
        1,
        1,
        1,
        1,
        1,
        1,
        1,
        1,
        1,
        4,
        2,
        1,
        2,
        3,
        1,
        4,
        1,
        1,
        1,
        4,
        2,
        1,
        4,
        1,
        2,
        1,
        4,
        2,
        1,
        1,
        1,
        1,
        2,
        1,
        1,
        2,
        2,
        3,
        4,
        1,
        1,
        2,
        4,
        4,
        1,
        1,
        2,
        1,
        1,
        1,
        2,
        2,
        2,
        1,
        3,
        4,
        1,
        1,
        4,
        1,
        2,
        1,
        2,
        1,
        1,
        1,
        3,
        1,
        4,
        4,
        2,
        1,
        1,
        3,
        2,
        1,
        1,
        3,
        1,
        2,
        4,
        1,
        4,
        1,
        1,
        1,
        1,
        4,
        2,
        1,
        4,
        1,
        1,
        1,
        1,
        1,
        4,
        4,
        1,
        4,
        1,
        1,
        3,
        3,
        1,
        1,
        2,
        1,
        1,
        1,
        2,
        1,
        1,
        1,
        2,
        1,
        3,
        1,
        1,
        4,
        2,
        1,
        1,
        4,
        1,
        3,
        1,
        4,
        1,
        4,
        1,
        1,
        4,
        1,
        2,
        1,
        1,
        2,
        1,
        1,
        1,
        2,
        2,
        1,
        2,
        2,
        1,
        1,
        1,
        3,
        1,
        1,
        1,
        2,
        1,
        1,
        2,
        1,
        4,
        2,
        1,
        1,
        3,
        2,
        4,
        1,
        4,
        1,
        1,
        1,
        1,
        2,
        1,
        1,
        4,
        4,
        4,
        1,
        1,
        2,
        1,
        2,
        1,
        1,
        1,
        2,
        1,
        1,
        2,
        2,
        2,
        1,
        2,
        1,
        2,
        1,
        1,
        1,
        4,
        4,
        2,
        4,
        2,
        1,
        1,
        4,
        4,
        1,
        1,
        1,
        1,
        1,
        2,
        3,
        1,
        3,
        4,
        4,
        3,
        1,
        2,
        1,
        1,
        1,
        2,
        1,
        1,
        1,
        2,
        1,
        1,
        1,
        1,
        3,
        1,
        4,
        2,
        2,
        1,
        1,
        2,
        1,
        3,
        2,
        1,
        2,
        2,
        1,
        4,
        3,
        3,
        3,
        1,
        1,
        1,
        2,
        3,
        1,
        1,
        3,
        1,
        1,
        1,
        4,
        3,
        2,
        4,
        1,
        2,
        1,
        1,
        1,
        1,
        1,
        1,
        1,
        1,
        2,
        1,
        2,
        2,
        2,
        1,
        2,
        1,
        1,
        2,
        1,
        4,
        2,
        4,
        1,
        2,
        4,
        2,
        2,
        3,
        1,
        1,
        1,
        1,
        3,
        4,
        1,
        2,
        2,
        2,
        3,
        2,
        1,
        1,
        1,
        1,
        4,
        1,
        1,
        1,
        1,
        2,
        3,
        4,
        1,
        4,
        2,
        2,
        1,
        1,
        2,
        1,
        1,
        1,
        1,
        1,
        2,
        1,
        2,
        1,
        2,
        1,
        1,
        1,
        4,
        1,
        1,
        1,
        4,
        2,
        2,
        2,
        1,
        1,
        2,
        4,
        4,
        1,
        2,
        2,
        1,
        1,
        1,
        4,
        1,
        1,
        1,
        3,
        2,
        1,
        1,
        2,
        1,
        1,
        4,
        2,
        1,
        2,
        1,
        1,
        1,
        4,
        1,
        2,
        1,
        1,
        2,
        4,
        4,
        1,
        3,
        2,
        1,
        1,
        1,
        1,
        2,
        2,
        3,
        1,
        3,
        2,
        1,
        1,
        2,
        1,
        2,
        1,
        1,
        1,
        3,
        4,
        1,
        1,
        3,
        4,
        2,
        1,
        4,
        1,
        1,
        2,
        4,
        1,
        1,
        1,
        1,
        1,
        1,
        1,
        1,
        1,
        1,
        1,
        3,
        4,
        4,
        2,
        2,
        2,
        2,
        1,
        1,
        1,
        1,
        3,
        2,
        4,
        2,
        1,
        1,
        2,
        1,
        1,
        1,
        3,
        1,
        1,
        1,
        2,
        1,
        4,
        1,
        2,
        2,
        4,
        1,
        1,
        1,
        1,
        2,
        1,
        2,
        1,
        2,
        4,
        1,
        1,
        4,
        1,
        1,
        4,
        1,
        1,
        1,
        1,
        3,
        1,
        1,
        4,
        1,
        2,
        1,
        2,
        1,
        1,
        1,
        2,
        2,
        1,
        2,
        1,
        1,
        1,
        1,
        4,
        1,
        1,
        2,
        3,
        3,
        1,
        1,
        2,
        1,
        2,
        1,
        1,
        2,
        1,
        3,
        4,
        1,
        3,
        1,
        2,
        4,
        1,
        4,
        1,
        1,
        1,
        1,
        1,
        1,
        3,
        3,
        1,
        2,
        1,
        1,
        2,
        1,
        2,
        2,
        1,
        4,
        2,
        4,
        1,
        2,
        1,
        1,
        1,
        1,
        2,
        1,
        2,
        1,
        2,
        1,
        2,
        2,
        1,
        1,
        2,
        1,
        1,
        1,
        1,
        4,
        1,
        1,
        4,
        4,
        2,
        4,
        1,
        1,
        1,
        2,
        1,
        1,
        2,
        1,
        1,
        1,
        1,
        4,
        1,
        4,
        2,
        1,
        1,
        2,
        1,
        1,
        1,
        1,
        1,
        1,
        1,
        1,
        3,
        2,
        2,
        1,
        2,
        1,
        2,
        1,
        2,
        1,
        2,
        1,
        1,
        1,
        2,
        1,
        4,
        1,
        4,
        1,
        2,
        4,
        1,
        3,
        1,
        4,
        1,
        3,
        1,
        1,
        1,
        1,
        4,
        1,
        3,
        3,
        1,
        2,
        1,
        2,
        2,
        4,
        1,
        4,
        4,
        2,
        4,
        4,
        1,
        1,
        1,
        1,
        2,
        1,
        1,
        2,
        3,
        1,
        1,
        4,
        2,
        2,
        3,
        1,
        1,
        3,
        1,
        1,
        2,
        2,
        4,
        2,
        1,
        3,
        1,
        1,
        1,
        4,
        1,
        3,
        1,
        1,
        3,
        1,
        1,
        2,
        1,
        4,
        1,
        2,
        1,
        4,
        1,
        3,
        2,
        4,
        3,
        3,
        3,
        1,
        2,
        1,
        1,
        1,
        3,
        1,
        2,
        1,
        2,
        3,
        2,
        1,
        2,
        2,
        2,
        1,
        1,
        4,
        1,
        1,
        4,
        3,
        4,
        1,
        1,
        1,
        4,
        1,
        1,
        1,
        1,
        1,
        2,
        2,
        1,
        2,
        2,
        2,
        1,
        3,
        1,
        4,
        2,
        2,
        2,
        1,
        2,
        1,
        3,
        1,
        3,
        1,
        1,
        1,
        2,
        1,
        2,
        4,
        1,
        3,
        4,
        2,
        2,
        2,
        4,
        2,
        1,
        1,
        1,
        1,
        1,
        1,
        1,
        2,
        3,
        1,
        2,
        2,
        1,
        1,
        1,
        2,
        1,
        4,
        1,
        1,
        1,
        1,
        1,
        4,
        1,
        1,
        1,
        1,
        2,
        1,
        2,
        1,
        1,
        1,
        1,
        1,
        2,
        1,
        2,
        1,
        1,
        1,
        2,
        1,
        3,
        1,
        1,
        4,
        4,
        2,
        1,
        4,
        1,
        1,
        2,
        4,
        1,
        3,
        4,
        1,
        2,
        1,
        1,
        2,
        1,
        1,
        1,
        4,
        1,
        1,
        3,
        2,
        1,
        2,
        2,
        1,
        2,
        2,
        2,
        3,
        1,
        2,
        1,
        1,
        3,
        1,
        2,
        2,
        4,
        1,
        1,
        2,
        1,
        1,
        1,
        1,
        4,
        1,
        1,
        2,
        1,
        1,
        4,
        1,
        2,
        1,
        1,
        2,
        4,
        1,
        1,
        1,
        1,
        1,
        2,
        1,
        1,
        2,
        2,
        1,
        1,
        1,
        1,
        2,
        4,
        1,
        1,
        1,
        1,
        4,
        1,
        1,
        2,
        3,
        2,
        1,
        2,
        1,
        1,
        1,
        1,
        1,
        3,
        1,
        3,
        1,
        4,
        4,
        2,
        1,
        3,
        3,
        1,
        1,
        1,
        1,
        1,
        2,
        1,
        4,
        2,
        4,
        1,
        3,
        1,
        3,
        1,
        1,
        3,
        3,
        1,
        4,
        2,
        2,
        2,
        1,
        1,
        1,
        1,
        1,
        1,
        1,
        1,
        1,
        3,
        1,
        4,
        1,
        2,
        1,
        1,
        1,
        4,
        1,
        3,
        2,
        1,
        4,
        1,
        1,
        2,
        1,
        4,
        2,
        1,
        1,
        3,
        1,
        1,
        2,
        1,
        2,
        4,
        2,
        2,
        2,
        1,
        2,
        2,
        1,
        4,
        1,
        1,
        1,
        1,
        1,
        1,
        1,
        1,
        1,
        1,
        4,
        1,
        1,
        2,
        2,
        1,
        1,
        1,
        1,
        2,
        2,
        1,
        1,
        1,
        4,
        1,
        2,
        2,
        1,
        1,
        1,
        1,
        1,
        2,
        1,
        3,
        3,
        1,
        3,
        1,
        1,
        1,
        2,
        1,
        1,
        1,
        4,
        3,
        1,
        2,
        1,
        1,
        2,
        1,
        1,
        2,
        4,
        1,
        2,
        1,
        4,
        1,
        2,
        1,
        2,
        1,
        1,
        1,
        1,
        2,
        3,
        3,
        1,
        4,
        1,
        1,
        1,
        1,
        1,
        1,
        3,
        4,
        1,
        2,
        4,
        1,
        1,
        1,
        2,
        2,
        4,
        1,
        4,
        4,
        1,
        1,
        1,
        1,
        1,
        1,
        1,
        1,
        1,
        1,
        1,
        1,
        1,
        4,
        1,
        2,
        1,
        2,
        1,
        4,
        2,
        1,
        3,
        4,
        1,
        1,
        2,
        1,
        1,
        1,
        3,
        1,
        4,
        3,
        1,
        2,
        1,
        2,
        2,
        1,
        1,
        4,
        4,
        1,
        4,
        1,
        1,
        1,
        1,
        1,
        4,
        1,
        2,
        3,
        2,
        1,
        1,
        1,
        4,
        4,
        2,
        4,
        4,
        2,
        1,
        4,
        1,
        3,
        2,
        1,
        1,
        1,
        1,
        1,
        3,
        4,
        4,
        1,
        1,
        1,
        1,
        2,
        1,
        1,
        1,
        1,
        4,
        1,
        1,
        1,
        3,
        3,
        1,
        3,
        3,
        4,
        1,
        1,
        1,
        4,
        4,
        2,
        4,
        1,
        4,
        1,
        4,
        3,
        2,
        4,
        4,
        1,
        1,
        4,
        1,
        1,
        1,
        1,
        4,
        2,
        1,
        1,
        2,
        4,
        1,
        1,
        2,
        4,
        1,
        1,
        1,
        1,
        2,
        4,
        1,
        4,
        2,
        3,
        1,
        4,
        2,
        4,
        1,
        1,
        2,
        1,
        1,
        2,
        1,
        1,
        4,
        2,
        2,
        4,
        1,
        4,
        1,
        2,
        3,
        1,
        2,
        4,
        1,
        2,
        1,
        2,
        2,
        2,
        1,
        2,
        3,
        1,
        1,
        4,
        1,
        1,
        1,
        2,
        1,
        1,
        3,
        1,
        1,
        2,
        2,
        1,
        1,
        4,
        3,
        1,
        4,
        4,
        4,
        1,
        2,
        1,
        1,
        1,
        2,
        1,
        1,
        1,
        2,
        1,
        4,
        1,
        1,
        1,
        1,
        1,
        3,
        1,
        1,
        1,
        1,
        4,
        2,
        1,
        4,
        1,
        2,
        4,
        3,
        2,
        2,
        1,
        2,
        1,
        4,
        3,
        4,
        1,
        1,
        2,
        1,
        2,
        2,
        2,
        1,
        1,
        1,
        2,
        3,
        1,
        4,
        1,
        1,
        4,
        2,
        1,
        1,
        2,
        1,
        3,
        1,
        2,
        2,
        3,
        1,
        2,
        1,
        1,
        1,
        1,
        3,
        2,
        1,
        2,
        1,
        1,
        1,
        1,
        2,
        3,
        1,
        1,
        2,
        1,
        1,
        4,
        1,
        2,
        1,
        2,
        2,
        1,
        2,
        1,
        1,
        1,
        1,
        1,
        2,
        2,
        4,
        2,
        2,
        1,
        2,
        2,
        4,
        2,
        1,
        1,
        1,
        1,
        1,
        2,
        4,
        1,
        1,
        1,
        1,
        1,
        3,
        1,
        1,
        1,
        3,
        4,
        2,
        1,
        1,
        4,
        4,
        2,
        2,
        4,
        2,
        2,
        2,
        3,
        4,
        2,
        1,
        1,
        4,
        1,
        1,
        2,
        3,
        1,
        1,
        3,
        1,
        2,
        3,
        1,
        4,
        2,
        2,
        2,
        1,
        4,
        2,
        1,
        1,
        2,
        3,
        1,
        1,
        1,
        1,
        1,
        1,
        2,
        1,
        3,
        1,
        1,
        1,
        1,
        3,
        1,
        3,
        2,
        2,
        1,
        4,
        1,
        1,
        1,
        4,
        1,
        4,
        4,
        4,
        1,
        1,
        2,
        4,
        2,
        2,
        1,
        1,
        2,
        4,
        2,
        2,
        1,
        1,
        1,
        1,
        1,
        1,
        4,
        1,
        2,
        2,
        1,
        1,
        1,
        2,
        1,
        2,
        1,
        1,
        4,
        4,
        1,
        1,
        2,
        2,
        1,
        1,
        1,
        2,
        1,
        1,
        1,
        2,
        4,
        1,
        1,
        1,
        1,
        1,
        2,
        2,
        1,
        2,
        1,
        1,
        1,
        2,
        1,
        2,
        2,
        1,
        2,
        3,
        1,
        2,
        1,
        4,
        3,
        2,
        1,
        1,
        2,
        4,
        1,
        1,
        2,
        4,
        1,
        1,
        4,
        2,
        2,
        2,
        1,
        1,
        1,
        2,
        1,
        1,
        1,
        1,
        4,
        2,
        1,
        1,
        2,
        4,
        2,
        1,
        2,
        1,
        4,
        1,
        1,
        1,
        1,
        3,
        2,
        2,
        1,
        3,
        1,
        1,
        1,
        1,
        4,
        4,
        2,
        1,
        1,
        4,
        1,
        3,
        1,
        2,
        1,
        2,
        1,
        2,
        1,
        1,
        1,
        1,
        1,
        4,
        1,
        1,
        1,
        2,
        1,
        2,
        2,
        3,
        1,
        2,
        2,
        1,
        1,
        2,
        1,
        1,
        2,
        1,
        1,
        3,
        1,
        1,
        1,
        2,
        1,
        2,
        2,
        2,
        1,
        1,
        2,
        1,
        2,
        1,
        4,
        4,
        1,
        1,
        1,
        1,
        4,
        2,
        1,
        1,
        4,
        1,
        4,
        3,
        3,
        1,
        1,
        1,
        1,
        1,
        3,
        1,
        1,
        2,
        4,
        1,
        1,
        1,
        1,
        1,
        1,
        2,
        1,
        2,
        4,
        1,
        4,
        1,
        2,
        1,
        1,
        2,
        2,
        2,
        1,
        1,
        1,
        1,
        3,
        1,
        2,
        1,
        2,
        3,
        3,
        2,
        1,
        4,
        2,
        1,
        4,
        4,
        4,
        1,
        1,
        4,
        1,
        2,
        4,
        1,
        1,
        1,
        1,
        1,
        1,
        4,
        2,
        1,
        2,
        2,
        2,
        2,
        3,
        2,
        1,
        1,
        1,
        1,
        1,
        1,
        1,
        4,
        1,
        2,
        1,
        1,
        1,
        1,
        1,
        1,
        1,
        1,
        1,
        1,
        1,
        4,
        2,
        1,
        1,
        2,
        1,
        4,
        1,
        4,
        1,
        1,
        1,
        2,
        3,
        1,
        1,
        2,
        2,
        2,
        4,
        2,
        1,
        2,
        1,
        3,
        4,
        2,
        2,
        1,
        1,
        4,
        1,
        4,
        1,
        2,
        4,
        4,
        1,
        1,
        1,
        3,
        1,
        1,
        2,
        1,
        4,
        1,
        1,
        2,
        2,
        1,
        2,
        4,
        1,
        1,
        1,
        2,
        1,
        1,
        1,
        4,
        2,
        4,
        1,
        3,
        1,
        1,
        4,
        1,
        2,
        4,
        1,
        4,
        1,
        3,
        1,
        1,
        2,
        2,
        1,
        4,
        1,
        2,
        1,
        1,
        4,
        4,
        1,
        1,
        2,
        1,
        1,
        4,
        1,
        3,
        1,
        2,
        2,
        4,
        1,
        1,
        1,
        1,
        4,
        4,
        4,
        1,
        2,
        1,
        1,
        2,
        1,
        4,
        2,
        1,
        1,
        1,
        1,
        3,
        1,
        2,
        2,
        2,
        1,
        2,
        3,
        1,
        1,
        1,
        3,
        4,
        3,
        1,
        2,
        1,
        1,
        2,
        3,
        4,
        4,
        1,
        1,
        4,
        2,
        1,
        1,
        1,
        4,
        1,
        3,
        1,
        1,
        3,
        4,
        1,
        1,
        4,
        4,
        4,
        1,
        1,
        1,
        1,
        1,
        1,
        2,
        1,
        1,
        1,
        1,
        2,
        2,
        2,
        2,
        1,
        1,
        1,
        2,
        3,
        1,
        2,
        1,
        1,
        1,
        3,
        2,
        3,
        3,
        3,
        1,
        1,
        4,
        1,
        1,
        1,
        3,
        3,
        1,
        1,
        2,
        1,
        1,
        1,
        4,
        1,
        3,
        1,
        4,
        1,
        1,
        1,
        1,
        1,
        2,
        1,
        1,
        3,
        3,
        1,
        1,
        2,
        1,
        1,
        2,
        2,
        1,
        1,
        1,
        1,
        1,
        4,
        2,
        1,
        1,
        1,
        3,
        1,
        1,
        1,
        1,
        1,
        1,
        2,
        1,
        1,
        2,
        1,
        1,
        1,
        2,
        2,
        1,
        1,
        1,
        1,
        3,
        1,
        1,
        4,
        3,
        1,
        1,
        2,
        1,
        4,
        1,
        2,
        1,
        2,
        1,
        1,
        1,
        1,
        1,
        1,
        2,
        2,
        2,
        2,
        1,
        1,
        4,
        2,
        1,
        1,
        1,
        1,
        1,
        2,
        4,
        4,
        2,
        1,
        1,
        1,
        1,
        4,
        1,
        4,
        1,
        1,
        1,
        1,
        1,
        4,
        1,
        1,
        1,
        3,
        4,
        2,
        1,
        1,
        4,
        4,
        1,
        4,
        1,
        1,
        2,
        4,
        3,
        1,
        1,
        1,
        1,
        1,
        1,
        1,
        3,
        2,
        2,
        1,
        3,
        4,
        2,
        2,
        4,
        2,
        3,
        1,
        1,
        1,
        1,
        1,
        2,
        2,
        1,
        1,
        1,
        4,
        3,
        1,
        4,
        1,
        2,
        1,
        2,
        1,
        1,
        1,
        4,
        2,
        2,
        1,
        3,
        2,
        2,
        2,
        1,
        2,
        1,
        3,
        3,
        1,
        1,
        1,
        2,
        2,
        2,
        1,
        1,
        1,
        1,
        2,
        1,
        2,
        1,
        2,
        1,
        2,
        2,
        3,
        1,
        1,
        1,
        2,
        1,
        1,
        3,
        3,
        2,
        2,
        1,
        1,
        1,
        1,
        1,
        4,
        3,
        1,
        1,
        2,
        1,
        1,
        1,
        1,
        1,
        1,
        2,
        4,
        4,
        1,
        1,
        4,
        4,
        1,
        4,
        4,
        2,
        1,
        2,
        2,
        4,
        1,
        2,
        2,
        4,
        4,
        1,
        1,
        2,
        2,
        1,
        4,
        1,
        4,
        2,
        1,
        1,
        1,
        2,
        2,
        1,
        2,
        1,
        2,
        1,
        1,
        1,
        1,
        2,
        4,
        3,
        2,
        1,
        2,
        1,
        1,
        1,
        4,
        1,
        1,
        4,
        1,
        2,
        1,
        1,
        1,
        1,
        2,
        1,
        1,
        2,
        4,
        2,
        4,
        1,
        1,
        1,
        1,
        4,
        1,
        1,
        1,
        1,
        1,
        1,
        1,
        2,
        1,
        1,
        1,
        1,
        1,
        1,
        2,
        2,
        1,
        3,
        4,
        4,
        1,
        1,
        3,
        1,
        1,
        2,
        1,
        4,
        1,
        4,
        1,
        4,
        4,
        1,
        3,
        2,
        1,
        1,
        1,
        2,
        1,
        4,
        1,
        1,
        1,
        1,
        2,
        1,
        1,
        1,
        1,
        4,
        1,
        2,
        1,
        4,
        1,
        1,
        1,
        1,
        2,
        1,
        3,
        1,
        1,
        1,
        1,
        1,
        2,
        1,
        3,
        2,
        2,
        2,
        1,
        4,
        1,
        4,
        2,
        1,
        3,
        1,
        2,
        2,
        4,
        2,
        3,
        1,
        4,
        4,
        1,
        1,
        1,
        2,
        2,
        1,
        1,
        3,
        1,
        1,
        1,
        1,
        2,
        4,
        4,
        1,
        4,
        2,
        3,
        1,
        2,
        2,
        1,
        1,
        4,
        1,
        1,
        2,
        3,
        2,
        2,
        2,
        1,
        1,
        1,
        4,
        4,
        3,
        2,
        1,
        1,
        4,
        2,
        1,
        1,
        2,
        3,
        3,
        1,
        2,
        1,
        1,
        1,
        1,
        1,
        1,
        1,
        2,
        2,
        1,
        2,
        2,
        4,
        1,
        1,
        1,
        1,
        4,
        1,
        1,
        1,
        3,
        4,
        4,
        1,
        3,
        2,
        1,
        1,
        1,
        2,
        4,
        1,
        1,
        4,
        2,
        2,
        4,
        1,
        2,
        2,
        2,
        1,
        4,
        2,
        1,
        3,
        2,
        1,
        4,
        1,
        2,
        2,
        2,
        3,
        1,
        3,
        1,
        4,
        2,
        1,
        4,
        4,
        4,
        1,
        1,
        1,
        4,
        2,
        2,
        4,
        3,
        2,
        1,
        1,
        1,
        1,
        2,
        2,
        4,
        2,
        1,
        1,
        1,
        1,
        3,
        1,
        2,
        1,
        1,
        1,
        1,
        1,
        1,
        1,
        4,
        2,
        1,
        2,
        1,
        2,
        2,
        1,
        2,
        2,
        1,
        1,
        4,
        1,
        2,
        4,
        1,
        3,
        4,
        1,
        1,
        1,
        1,
        4,
        1,
        4,
        1,
        2,
        1,
        2,
        4,
        4,
        3,
        1,
        3,
        2,
        3,
        1,
        2,
        1,
        1,
        1,
        1,
        2,
        1,
        1,
        4,
        4,
        2,
        1,
        4,
        1,
        4,
        1,
        1,
        1,
        4,
        3,
        4,
        1,
        1,
        1,
        1,
        1,
        3,
        4,
        1,
        1,
        2,
        1,
        1,
        4,
        1,
        2,
        2,
        1,
        1,
        2,
        4,
        1,
        1,
        4,
        1,
        1,
        1,
        3,
        1,
        2,
        2,
        1,
        1,
        2,
        1,
        1,
        1,
        1,
        1,
        1,
        1,
        3,
        3,
        1,
        2,
        1,
        1,
        1,
        3,
        1,
        3,
        3,
        2,
        2,
        1,
        1,
        2,
        4,
        1,
        4,
        3,
        1,
        2,
        1,
        2,
        2,
        1,
        1,
        2,
        2,
        1,
        1,
        2,
        1,
        1,
        1,
        1,
        2,
        1,
        3,
        1,
        2,
        1,
        1,
        1,
        3,
        2,
        1,
        3,
        1,
        1,
        4,
        1,
        1,
        4,
        1,
        1,
        2,
        1,
        1,
        1,
        1,
        1,
        1,
        1,
        1,
        4,
        1,
        1,
        2,
        1,
        1,
        1,
        1,
        2,
        4,
        2,
        1,
        1,
        1,
        1,
        1,
        4,
        2,
        1,
        2,
        2,
        1,
        1,
        1,
        1,
        4,
        3,
        1,
        2,
        4,
        2,
        1,
        4,
        3,
        1,
        2,
        3,
        2,
        1,
        2,
        2,
        2,
        1,
        4,
        1,
        1,
        1,
        3,
        2,
        1,
        1,
        2,
        2,
        2,
        1,
        3,
        1,
        4,
        1,
        2,
        1,
        2,
        1,
        1,
        1,
        2,
        2,
        1,
        3,
        1,
        2,
        1,
        2,
        3,
        1,
        2,
        1,
        1,
        4,
        2,
        1,
        1,
        1,
        1,
        2,
        4,
        1,
        3,
        2,
        1,
        1,
        1,
        1,
        4,
        1,
        2,
        1,
        1,
        4,
        1,
        2,
        2,
        4,
        2,
        4,
        4,
        2,
        2,
        1,
        1,
        2,
        2,
        1,
        1,
        1,
        4,
        2,
        1,
        1,
        1,
        1,
        2,
        4,
        1,
        2,
        1,
        1,
        1,
        2,
        3,
        4,
        1,
        1,
        2,
        2,
        1,
        1,
        4,
        1,
        1,
        2,
        2,
        1,
        1,
        1,
        2,
        1,
        2,
        1,
        1,
        4,
        1,
        2,
        2,
        1,
        2,
        3,
        1,
        1,
        1,
        1,
        4,
        1,
        1,
        3,
        1,
        3,
        1,
        2,
        1,
        2,
        4,
        1,
        2,
        2,
        2,
        1,
        2,
        2,
        1,
        2,
        4,
        1,
        1,
        1,
        1,
        1,
        1,
        1,
        1,
        2,
        4,
        1,
        1,
        2,
        1,
        1,
        4,
        3,
        1,
        1,
        1,
        4,
        1,
        1,
        1,
        1,
        2,
        1,
        1,
        4,
        1,
        1,
        1,
        1,
        1,
        4,
        2,
        1,
        1,
        4,
        1,
        4,
        1,
        1,
        1,
        1,
        2,
        1,
        1,
        1,
        1,
        1,
        4,
        1,
        4,
        4,
        3,
        4,
        1,
        4,
        3,
        4,
        1,
        1,
        2,
        1,
        1,
        1,
        1,
        1,
        1,
        1,
        1,
        1,
        3,
        1,
        4,
        2,
        1,
        2,
        1,
        3,
        1,
        1,
        2,
        4,
        1,
        4,
        2,
        2,
        1,
        1,
        1,
        4,
        4,
        1,
        1,
        4,
        1,
        1,
        2,
        2,
        2,
        1,
        1,
        4,
        1,
        1,
        1,
        4,
        2,
        1,
        1,
        1,
        4,
        2,
        3,
        1,
        1,
        1,
        1,
        2,
        1,
        1,
        4,
        1,
        1,
        1,
        4,
        1,
        2,
        1,
        1,
        1,
        1,
        2,
        1,
        1,
        1,
        2,
        1,
        2,
        1,
        1,
        2,
        4,
        1,
        1,
        1,
        1,
        2,
        2,
        1,
        2,
        4,
        1,
        1,
        3,
        3,
        2,
        1,
        3,
        1,
        2,
        2,
        2,
        4,
        1,
        1,
        3,
        4,
        1,
        1,
        1,
        4,
        2,
        1,
        1,
        1,
        1,
        4,
        1,
        1,
        1,
        4,
        1,
        3,
        4,
        1,
        2,
        2,
        1,
        1,
        4,
        1,
        4,
        3,
        2,
        1,
        4,
        1,
        2,
        1,
        4,
        2,
        2,
        1,
        1,
        1,
        1,
        1,
        4,
        2,
        4,
        1,
        1,
        1,
        1,
        4,
        2,
        1,
        1,
        3,
        3,
        1,
        2,
        1,
        1,
        2,
        1,
        1,
        1,
        2,
        4,
        2,
        1,
        1,
        1,
        1,
        4,
        4,
        4,
        2,
        1,
        4,
        2,
        1,
        2,
        1,
        1,
        2,
        2,
        1,
        1,
        2,
        1,
        2,
        3,
        2,
        1,
        1,
        1,
        1,
        1,
        2,
        1,
        4,
        1,
        1,
        1,
        1,
        1,
        1,
        2,
        1,
        1,
        4,
        2,
        1,
        2,
        2,
        1,
        1,
        1,
        1,
        1,
        2,
        3,
        1,
        2,
        2,
        2,
        1,
        3,
        1,
        1,
        1,
        1,
        4,
        2,
        1,
        2,
        1,
        2,
        4,
        1,
        2,
        1,
        1,
        3,
        2,
        1,
        2,
        1,
        2,
        2,
        2,
        1,
        2,
        3,
        3,
        1,
        4,
        1,
        1,
        4,
        1,
        1,
        1,
        1,
        4,
        1,
        4,
        1,
        4,
        2,
        1,
        1,
        4,
        1,
        2,
        1,
        3,
        1,
        1,
        3,
        4,
        4,
        1,
        1,
        2,
        1,
        2,
        2,
        4,
        4,
        2,
        2,
        1,
        1,
        2,
        2,
        2,
        1,
        1,
        1,
        1,
        1,
        1,
        1,
        1,
        1,
        1,
        1,
        1,
        1,
        3,
        1,
        1,
        2,
        1,
        1,
        1,
        1,
        4,
        2,
        2,
        4,
        3,
        3,
        1,
        3,
        1,
        1,
        3,
        1,
        2,
        1,
        2,
        4,
        2,
        2,
        3,
        2,
        1,
        4,
        4,
        1,
        1,
        4,
        1,
        3,
        1,
        2,
        4,
        4,
        1,
        1,
        1,
        1,
        1,
        1,
        1,
        1,
        1,
        4,
        4,
        4,
        4,
        2,
        3,
        1,
        4,
        1,
        2,
        1,
        1,
        1,
        1,
        2,
        4,
        1,
        1,
        2,
        1,
        3,
        1,
        2,
        2,
        2,
        1,
        1,
        1,
        1,
        1,
        1,
        2,
        4,
        1,
        1,
        2,
        2,
        1,
        1,
        1,
        1,
        2,
        1,
        2,
        1,
        4,
        1,
        1,
        1,
        1,
        3,
        1,
        1,
        1,
        1,
        1,
        1,
        1,
        1,
        2,
        1,
        1,
        1,
        1,
        1,
        2,
        4,
        2,
        1,
        4,
        2,
        2,
        2,
        3,
        1,
        1,
        2,
        1,
        4,
        1,
        3,
        4,
        3,
        1,
        1,
        3,
        1,
        4,
        2,
        2,
        2,
        3,
        3,
        1,
        3,
        1,
        1,
        1,
        2,
        1,
        1,
        1,
        1,
        1,
        1,
        1,
        2,
        3,
        1,
        1,
        4,
        1,
        4,
        1,
        3,
        1,
        1,
        1,
        1,
        1,
        1,
        1,
        2,
        4,
        2,
        4,
        1,
        4,
        1,
        4,
        4,
        4,
        1,
        1,
        2,
        4,
        1,
        2,
        2,
        2,
        4,
        1,
        2,
        4,
        1,
        4,
        1,
        3,
        2,
        1,
        1,
        4,
        2,
        4,
        1,
        1,
        1,
        2,
        1,
        2,
        1,
        2,
        1,
        1,
        1,
        3,
        1,
        1,
        2,
        1,
        1,
        2,
        2,
        1,
        4,
        1,
        1,
        4,
        2,
        1,
        3,
        3,
        1,
        1,
        2,
        2,
        1,
        2,
        4,
        2,
        2,
        3,
        1,
        1,
        1,
        2,
        4,
        3,
        1,
        1,
        1,
        1,
        1,
        1,
        4,
        1,
        1,
        4,
        1,
        2,
        1,
        1,
        4,
        1,
        1,
        3,
        2,
        2,
        2,
        1,
        4,
        3,
        2,
        1,
        4,
        2,
        1,
        4,
        4,
        2,
        1,
        1,
        4,
        4,
        1,
        3,
        1,
        2,
        1,
        2,
        4,
        2,
        1,
        1,
        4,
        1,
        1,
        4,
        2,
        2,
        4,
        1,
        2,
        4,
        1,
        2,
        2,
        1,
        1,
        1,
        1,
        4,
        1,
        1,
        2,
        1,
        1,
        1,
        2,
        1,
        2,
        4,
        2,
        2,
        4,
        2,
        1,
        4,
        1,
        1,
        1,
        3,
        3,
        1,
        1,
        1,
        4,
        1,
        2,
        2,
        1,
        4,
        2,
        2,
        2,
        1,
        4,
        2,
        2,
        1,
        3,
        1,
        2,
        4,
        1,
        2,
        3,
        2,
        1,
        1,
        2,
        1,
        2,
        2,
        2,
        1,
        1,
        2,
        4,
        4,
        4,
        1,
        4,
        4,
        3,
        1,
        4,
        2,
        1,
        1,
        1,
        2,
        2,
        2,
        1,
        1,
        2,
        3,
        2,
        1,
        1,
        3,
        4,
        1,
        2,
        4,
        2,
        3,
        1,
        3,
        4,
        1,
        1,
        2,
        1,
        2,
        4,
        1,
        2,
        1,
        4,
        2,
        1,
        1,
        4,
        2,
        1,
        2,
        4,
        2,
        4,
        1,
        2,
        1,
        3,
        3,
        1,
        2,
        1,
        1,
        4,
        1,
        4,
        3,
        1,
        1,
        2,
        1,
        4,
        1,
        1,
        4,
        1,
        2,
        2,
        1,
        1,
        1,
        1,
        1,
        1,
        1,
        1,
        2,
        1,
        4,
        4,
        1,
        1,
        2,
        4,
        1,
        1,
        1,
        4,
        1,
        1,
        1,
        1,
        1,
        2,
        1,
        2,
        4,
        1,
        2,
        1,
        1,
        3,
        3,
        1,
        1,
        3,
        1,
        1,
        1,
        1,
        2,
        4,
        2,
        1,
        1,
        2,
        1,
        2,
        2,
        1,
        4,
        2,
        2,
        1,
        3,
        1,
        1,
        1,
        1,
        1,
        2,
        1,
        4,
        1,
        1,
        2,
        1,
        2,
        2,
        1,
        1,
        2,
        1,
        1,
        1,
        1,
        1,
        4,
        1,
        1,
        1,
        4,
        4,
        2,
        1,
        1,
        1,
        1,
        4,
        2,
        4,
        1,
        2,
        1,
        1,
        1,
        1,
        4,
        1,
        2,
        2,
        2,
        3,
        1,
        3,
        1,
        1,
        1,
        1,
        1,
        4,
        2,
        1,
        1,
        1,
        1,
        4,
        2,
        1,
        1,
        4,
        2,
        1,
        2,
        4,
        1,
        1,
        1,
        3,
        1,
        3,
        2,
        2,
        1,
        1,
        2,
        1,
        4,
        4,
        1,
        1,
        2,
        2,
        1,
        1,
        1,
        1,
        2,
        2,
        1,
        4,
        2,
        1,
        2,
        1,
        1,
        1,
        4,
        4,
        1,
        1,
        1,
        2,
        3,
        1,
        2,
        2,
        2,
        2,
        2,
        3,
        1,
        1,
        1,
        1,
        1,
        1,
        2,
        2,
        2,
        1,
        1,
        4,
        2,
        1,
        1,
        1,
        2,
        1,
        1,
        1,
        1,
        1,
        1,
        2,
        1,
        1,
        1,
        1,
        1,
        1,
        1,
        2,
        1,
        2,
        1,
        2,
        1,
        1,
        1,
        1,
        1,
        2,
        3,
        4,
        1,
        4,
        1,
        2,
        1,
        1,
        1,
        1,
        4,
        1,
        1,
        4,
        2,
        2,
        1,
        2,
        3,
        1,
        1,
        1,
        2,
        2,
        2,
        2,
        1,
        1,
        1,
        1,
        4,
        2,
        1,
        4,
        1,
        1,
        4,
        3,
        1,
        1,
        1,
        1,
        1,
        1,
        2,
        2,
        4,
        1,
        1,
        4,
        1,
        3,
        1,
        1,
        3,
        1,
        4,
        1,
        1,
        2,
        2,
        1,
        2,
        3,
        1,
        2,
        1,
        4,
        2,
        2,
        4,
        2,
        1,
        2,
        3,
        1,
        1,
        1,
        3,
        1,
        1,
        4,
        2,
        2,
        1,
        1,
        3,
        1,
        1,
        4,
        2,
        2,
        1,
        2,
        1,
        1,
        2,
        3,
        1,
        4,
        1,
        1,
        1,
        2,
        2,
        1,
        1,
        1,
        1,
        1,
        3,
        1,
        1,
        1,
        1,
        1,
        2,
        2
      ]
    },
    {
      "id": 2,
      "name": "Paths",
      "type": "tilelayer",
      "x": 0,
      "y": 0,
      "width": 96,
      "height": 72,
      "opacity": 1,
      "visible": true,
      "data": [
        0,
        0,
        0,
        0,
        0,
        0,
        0,
        0,
        0,
        0,
        0,
        0,
        0,
        0,
        0,
        0,
        0,
        0,
        0,
        0,
        0,
        0,
        0,
        0,
        0,
        0,
        0,
        0,
        0,
        0,
        0,
        0,
        0,
        0,
        0,
        0,
        0,
        0,
        0,
        19,
        0,
        0,
        19,
        0,
        0,
        0,
        0,
        0,
        0,
        0,
        0,
        0,
        0,
        0,
        0,
        0,
        0,
        0,
        0,
        0,
        0,
        0,
        0,
        0,
        0,
        0,
        0,
        0,
        0,
        0,
        0,
        0,
        0,
        0,
        0,
        0,
        0,
        0,
        0,
        0,
        0,
        0,
        0,
        0,
        0,
        0,
        0,
        0,
        0,
        0,
        0,
        0,
        0,
        0,
        0,
        0,
        0,
        0,
        0,
        0,
        0,
        0,
        0,
        0,
        0,
        0,
        0,
        0,
        0,
        0,
        0,
        0,
        0,
        0,
        0,
        0,
        0,
        0,
        0,
        0,
        0,
        0,
        0,
        0,
        0,
        0,
        0,
        0,
        0,
        0,
        0,
        0,
        0,
        0,
        0,
        19,
        0,
        0,
        19,
        0,
        0,
        0,
        0,
        0,
        0,
        0,
        0,
        0,
        0,
        0,
        0,
        0,
        0,
        0,
        0,
        0,
        0,
        0,
        0,
        0,
        0,
        0,
        0,
        0,
        0,
        0,
        0,
        0,
        0,
        0,
        0,
        0,
        0,
        0,
        0,
        0,
        0,
        0,
        0,
        0,
        0,
        0,
        0,
        0,
        0,
        0,
        0,
        0,
        0,
        0,
        0,
        0,
        0,
        0,
        0,
        0,
        0,
        0,
        0,
        0,
        0,
        0,
        0,
        0,
        0,
        0,
        0,
        0,
        0,
        0,
        0,
        0,
        0,
        0,
        0,
        0,
        0,
        0,
        0,
        0,
        0,
        0,
        0,
        0,
        0,
        0,
        0,
        0,
        0,
        0,
        0,
        0,
        19,
        0,
        0,
        19,
        0,
        0,
        0,
        0,
        0,
        0,
        0,
        0,
        0,
        0,
        0,
        0,
        0,
        0,
        0,
        0,
        0,
        0,
        0,
        0,
        0,
        0,
        0,
        0,
        0,
        0,
        0,
        0,
        0,
        0,
        0,
        0,
        0,
        0,
        0,
        0,
        0,
        0,
        0,
        0,
        0,
        0,
        0,
        0,
        0,
        0,
        0,
        0,
        0,
        0,
        0,
        0,
        0,
        0,
        0,
        0,
        0,
        0,
        0,
        0,
        0,
        0,
        0,
        0,
        0,
        0,
        0,
        0,
        0,
        0,
        0,
        0,
        0,
        0,
        0,
        0,
        0,
        0,
        0,
        0,
        0,
        0,
        0,
        0,
        0,
        0,
        0,
        0,
        0,
        0,
        0,
        0,
        19,
        0,
        0,
        19,
        0,
        0,
        0,
        0,
        0,
        0,
        0,
        0,
        0,
        0,
        0,
        0,
        0,
        0,
        0,
        0,
        0,
        0,
        0,
        0,
        0,
        0,
        0,
        0,
        0,
        0,
        0,
        0,
        0,
        0,
        0,
        0,
        0,
        0,
        0,
        0,
        0,
        0,
        0,
        0,
        0,
        0,
        0,
        0,
        0,
        0,
        0,
        0,
        0,
        0,
        0,
        0,
        0,
        0,
        0,
        0,
        0,
        0,
        0,
        0,
        0,
        0,
        0,
        0,
        0,
        0,
        0,
        0,
        0,
        0,
        0,
        0,
        0,
        0,
        0,
        0,
        0,
        0,
        0,
        0,
        0,
        0,
        0,
        0,
        0,
        0,
        0,
        0,
        0,
        0,
        0,
        0,
        0,
        19,
        0,
        0,
        19,
        0,
        0,
        0,
        0,
        0,
        0,
        0,
        0,
        0,
        0,
        0,
        0,
        0,
        0,
        0,
        0,
        0,
        0,
        0,
        0,
        0,
        0,
        0,
        0,
        0,
        0,
        0,
        0,
        0,
        0,
        0,
        0,
        0,
        0,
        0,
        0,
        0,
        0,
        0,
        0,
        0,
        0,
        0,
        0,
        0,
        0,
        0,
        0,
        0,
        0,
        0,
        0,
        0,
        0,
        0,
        0,
        0,
        0,
        0,
        0,
        0,
        0,
        0,
        0,
        0,
        0,
        0,
        0,
        0,
        0,
        0,
        0,
        0,
        0,
        0,
        0,
        0,
        0,
        0,
        0,
        0,
        0,
        0,
        0,
        0,
        0,
        0,
        0,
        0,
        0,
        0,
        0,
        19,
        0,
        0,
        19,
        0,
        0,
        0,
        0,
        0,
        0,
        0,
        0,
        0,
        0,
        0,
        0,
        0,
        0,
        0,
        0,
        0,
        0,
        0,
        0,
        0,
        0,
        0,
        0,
        0,
        0,
        0,
        0,
        0,
        0,
        0,
        0,
        0,
        0,
        0,
        0,
        0,
        0,
        0,
        0,
        0,
        0,
        0,
        0,
        0,
        0,
        0,
        0,
        0,
        0,
        0,
        0,
        0,
        0,
        0,
        0,
        0,
        0,
        0,
        0,
        0,
        0,
        0,
        0,
        0,
        0,
        0,
        0,
        0,
        0,
        0,
        0,
        0,
        0,
        0,
        0,
        0,
        0,
        0,
        0,
        0,
        0,
        0,
        0,
        0,
        0,
        0,
        0,
        0,
        0,
        0,
        0,
        19,
        0,
        0,
        19,
        0,
        0,
        0,
        0,
        0,
        0,
        0,
        0,
        0,
        0,
        0,
        0,
        0,
        0,
        0,
        0,
        0,
        0,
        0,
        0,
        0,
        0,
        0,
        0,
        0,
        0,
        0,
        0,
        0,
        0,
        0,
        0,
        0,
        0,
        0,
        0,
        0,
        0,
        0,
        0,
        0,
        0,
        0,
        0,
        0,
        0,
        0,
        0,
        0,
        0,
        0,
        0,
        0,
        0,
        0,
        0,
        0,
        0,
        0,
        0,
        0,
        0,
        0,
        0,
        0,
        0,
        0,
        0,
        0,
        0,
        0,
        0,
        0,
        0,
        0,
        0,
        0,
        0,
        0,
        0,
        0,
        0,
        0,
        0,
        0,
        0,
        0,
        0,
        0,
        0,
        0,
        0,
        0,
        19,
        0,
        0,
        19,
        0,
        0,
        0,
        0,
        0,
        0,
        0,
        0,
        0,
        0,
        0,
        0,
        0,
        0,
        0,
        0,
        0,
        0,
        0,
        0,
        0,
        0,
        0,
        0,
        0,
        0,
        0,
        0,
        0,
        0,
        0,
        0,
        0,
        0,
        0,
        0,
        0,
        0,
        0,
        0,
        0,
        0,
        0,
        0,
        0,
        0,
        0,
        0,
        0,
        0,
        0,
        0,
        0,
        0,
        0,
        0,
        0,
        0,
        0,
        0,
        0,
        0,
        0,
        0,
        0,
        0,
        0,
        0,
        0,
        0,
        0,
        0,
        0,
        0,
        0,
        0,
        0,
        0,
        0,
        0,
        0,
        0,
        0,
        0,
        0,
        0,
        0,
        0,
        0,
        0,
        0,
        0,
        19,
        0,
        0,
        19,
        0,
        0,
        0,
        0,
        0,
        0,
        0,
        0,
        0,
        0,
        0,
        0,
        0,
        0,
        0,
        0,
        0,
        0,
        0,
        0,
        0,
        0,
        0,
        0,
        0,
        0,
        0,
        0,
        0,
        0,
        0,
        0,
        0,
        0,
        0,
        0,
        0,
        0,
        0,
        0,
        0,
        0,
        0,
        0,
        0,
        0,
        0,
        0,
        0,
        0,
        0,
        0,
        0,
        0,
        0,
        0,
        0,
        0,
        0,
        0,
        0,
        0,
        0,
        0,
        0,
        0,
        0,
        0,
        0,
        0,
        0,
        0,
        0,
        0,
        0,
        0,
        0,
        0,
        0,
        0,
        0,
        0,
        0,
        0,
        0,
        0,
        0,
        0,
        0,
        0,
        0,
        0,
        19,
        0,
        0,
        19,
        0,
        0,
        0,
        0,
        0,
        0,
        0,
        0,
        0,
        0,
        0,
        0,
        0,
        0,
        0,
        0,
        0,
        0,
        0,
        0,
        0,
        0,
        0,
        0,
        0,
        0,
        0,
        0,
        0,
        0,
        0,
        0,
        0,
        0,
        0,
        0,
        0,
        0,
        0,
        0,
        0,
        0,
        0,
        0,
        0,
        0,
        0,
        0,
        0,
        0,
        0,
        0,
        0,
        0,
        0,
        0,
        0,
        0,
        0,
        0,
        0,
        0,
        0,
        0,
        0,
        0,
        0,
        0,
        0,
        0,
        0,
        0,
        0,
        0,
        0,
        0,
        0,
        0,
        0,
        0,
        0,
        0,
        0,
        0,
        0,
        0,
        0,
        0,
        0,
        0,
        0,
        0,
        19,
        0,
        0,
        19,
        0,
        0,
        0,
        0,
        0,
        0,
        0,
        0,
        0,
        0,
        0,
        0,
        0,
        0,
        0,
        0,
        0,
        0,
        0,
        0,
        0,
        0,
        0,
        0,
        0,
        0,
        0,
        0,
        0,
        0,
        0,
        0,
        0,
        0,
        0,
        0,
        0,
        0,
        0,
        0,
        0,
        0,
        0,
        0,
        0,
        0,
        0,
        0,
        0,
        0,
        0,
        0,
        0,
        0,
        0,
        0,
        0,
        0,
        0,
        0,
        0,
        0,
        0,
        0,
        0,
        0,
        0,
        0,
        0,
        0,
        0,
        0,
        0,
        0,
        0,
        0,
        0,
        0,
        0,
        0,
        0,
        0,
        0,
        0,
        0,
        0,
        0,
        0,
        0,
        0,
        0,
        0,
        19,
        0,
        0,
        19,
        0,
        0,
        0,
        0,
        0,
        0,
        0,
        0,
        0,
        0,
        0,
        0,
        0,
        0,
        0,
        0,
        0,
        0,
        0,
        0,
        0,
        0,
        0,
        0,
        0,
        0,
        0,
        0,
        0,
        0,
        0,
        0,
        0,
        0,
        0,
        0,
        0,
        0,
        0,
        0,
        0,
        0,
        0,
        0,
        0,
        0,
        0,
        0,
        0,
        0,
        0,
        0,
        0,
        0,
        0,
        0,
        0,
        0,
        0,
        0,
        0,
        0,
        0,
        0,
        0,
        0,
        0,
        0,
        0,
        0,
        0,
        0,
        0,
        0,
        0,
        0,
        0,
        0,
        0,
        0,
        0,
        0,
        0,
        0,
        0,
        0,
        0,
        0,
        0,
        0,
        0,
        0,
        19,
        0,
        0,
        19,
        0,
        0,
        0,
        0,
        0,
        0,
        0,
        0,
        0,
        0,
        0,
        0,
        0,
        0,
        0,
        0,
        0,
        0,
        0,
        0,
        0,
        0,
        0,
        0,
        0,
        0,
        0,
        0,
        0,
        0,
        0,
        0,
        0,
        0,
        0,
        0,
        5,
        5,
        0,
        0,
        0,
        0,
        0,
        0,
        0,
        0,
        0,
        0,
        0,
        0,
        0,
        0,
        0,
        0,
        0,
        0,
        0,
        0,
        0,
        0,
        0,
        0,
        0,
        0,
        0,
        0,
        0,
        0,
        0,
        0,
        0,
        0,
        0,
        0,
        0,
        0,
        0,
        0,
        0,
        0,
        0,
        0,
        0,
        0,
        0,
        0,
        0,
        0,
        0,
        0,
        0,
        0,
        19,
        0,
        0,
        19,
        0,
        0,
        0,
        0,
        0,
        0,
        0,
        0,
        0,
        0,
        0,
        0,
        0,
        0,
        0,
        0,
        0,
        0,
        0,
        0,
        0,
        0,
        0,
        0,
        0,
        0,
        0,
        0,
        0,
        0,
        0,
        0,
        0,
        0,
        0,
        0,
        5,
        5,
        0,
        0,
        0,
        0,
        0,
        0,
        0,
        0,
        0,
        0,
        0,
        0,
        0,
        0,
        0,
        0,
        0,
        0,
        0,
        0,
        0,
        0,
        0,
        0,
        0,
        0,
        0,
        0,
        0,
        0,
        0,
        0,
        0,
        0,
        0,
        0,
        0,
        0,
        0,
        0,
        0,
        0,
        0,
        0,
        0,
        0,
        0,
        0,
        0,
        0,
        0,
        0,
        0,
        0,
        19,
        0,
        0,
        19,
        0,
        0,
        0,
        0,
        0,
        0,
        0,
        0,
        0,
        0,
        0,
        0,
        0,
        0,
        0,
        0,
        0,
        0,
        0,
        0,
        0,
        0,
        0,
        0,
        0,
        0,
        0,
        0,
        0,
        0,
        0,
        0,
        0,
        0,
        0,
        0,
        5,
        5,
        0,
        0,
        0,
        0,
        0,
        0,
        0,
        0,
        0,
        0,
        0,
        0,
        0,
        0,
        0,
        0,
        0,
        0,
        0,
        0,
        0,
        0,
        0,
        0,
        0,
        0,
        0,
        0,
        0,
        0,
        0,
        0,
        0,
        0,
        0,
        0,
        0,
        0,
        0,
        0,
        0,
        0,
        0,
        0,
        0,
        0,
        0,
        0,
        0,
        0,
        0,
        0,
        0,
        0,
        19,
        0,
        0,
        19,
        0,
        0,
        0,
        0,
        0,
        0,
        0,
        0,
        0,
        0,
        0,
        0,
        0,
        0,
        0,
        0,
        0,
        0,
        0,
        0,
        0,
        0,
        0,
        0,
        0,
        0,
        0,
        0,
        0,
        0,
        0,
        0,
        0,
        0,
        0,
        0,
        5,
        5,
        0,
        0,
        0,
        0,
        0,
        0,
        0,
        0,
        0,
        0,
        0,
        0,
        0,
        0,
        0,
        0,
        0,
        0,
        0,
        0,
        0,
        0,
        0,
        0,
        0,
        0,
        0,
        0,
        0,
        0,
        0,
        0,
        0,
        0,
        0,
        0,
        0,
        0,
        0,
        0,
        0,
        0,
        0,
        0,
        0,
        0,
        0,
        0,
        0,
        0,
        0,
        0,
        0,
        19,
        0,
        0,
        19,
        0,
        0,
        0,
        0,
        0,
        0,
        0,
        0,
        0,
        0,
        0,
        0,
        0,
        0,
        0,
        0,
        0,
        0,
        0,
        0,
        0,
        0,
        0,
        0,
        0,
        0,
        0,
        0,
        0,
        0,
        0,
        0,
        0,
        0,
        0,
        0,
        0,
        5,
        5,
        0,
        0,
        0,
        0,
        0,
        0,
        0,
        0,
        0,
        0,
        0,
        0,
        0,
        0,
        0,
        0,
        0,
        0,
        0,
        0,
        0,
        0,
        0,
        0,
        0,
        0,
        0,
        0,
        0,
        0,
        0,
        0,
        0,
        0,
        0,
        0,
        0,
        0,
        0,
        0,
        0,
        0,
        0,
        0,
        0,
        0,
        0,
        0,
        0,
        0,
        0,
        0,
        0,
        19,
        0,
        0,
        19,
        0,
        0,
        0,
        0,
        0,
        0,
        0,
        0,
        0,
        0,
        0,
        0,
        0,
        0,
        0,
        0,
        0,
        0,
        0,
        0,
        0,
        0,
        0,
        0,
        0,
        0,
        0,
        0,
        0,
        0,
        0,
        0,
        0,
        0,
        0,
        0,
        0,
        5,
        5,
        0,
        0,
        0,
        0,
        0,
        0,
        0,
        0,
        0,
        0,
        0,
        0,
        0,
        0,
        0,
        0,
        0,
        0,
        0,
        0,
        0,
        0,
        0,
        0,
        0,
        0,
        0,
        0,
        0,
        0,
        0,
        0,
        0,
        0,
        0,
        0,
        0,
        0,
        0,
        0,
        0,
        0,
        0,
        0,
        0,
        0,
        0,
        0,
        0,
        0,
        0,
        0,
        0,
        19,
        0,
        0,
        19,
        0,
        0,
        0,
        0,
        0,
        0,
        0,
        0,
        0,
        0,
        0,
        0,
        0,
        0,
        0,
        0,
        0,
        0,
        0,
        0,
        0,
        0,
        0,
        0,
        0,
        0,
        0,
        0,
        0,
        0,
        0,
        0,
        0,
        0,
        0,
        0,
        0,
        5,
        5,
        0,
        0,
        0,
        0,
        0,
        0,
        0,
        0,
        0,
        0,
        0,
        0,
        0,
        0,
        0,
        0,
        0,
        0,
        0,
        0,
        0,
        0,
        0,
        0,
        0,
        0,
        0,
        0,
        0,
        0,
        0,
        0,
        0,
        0,
        0,
        0,
        0,
        0,
        0,
        0,
        0,
        0,
        0,
        0,
        0,
        0,
        0,
        0,
        0,
        0,
        0,
        0,
        19,
        0,
        0,
        19,
        0,
        0,
        0,
        0,
        0,
        0,
        0,
        0,
        0,
        0,
        0,
        0,
        0,
        0,
        0,
        0,
        0,
        0,
        0,
        0,
        0,
        0,
        0,
        0,
        0,
        0,
        0,
        0,
        0,
        0,
        0,
        0,
        0,
        0,
        0,
        0,
        0,
        0,
        6,
        5,
        0,
        0,
        0,
        0,
        0,
        0,
        0,
        0,
        0,
        0,
        0,
        0,
        0,
        0,
        0,
        0,
        0,
        0,
        0,
        0,
        0,
        0,
        0,
        0,
        0,
        0,
        0,
        0,
        0,
        0,
        0,
        0,
        0,
        0,
        0,
        0,
        0,
        0,
        0,
        0,
        0,
        0,
        0,
        0,
        0,
        0,
        0,
        0,
        0,
        0,
        0,
        0,
        19,
        0,
        0,
        19,
        0,
        0,
        0,
        0,
        0,
        0,
        0,
        0,
        6,
        5,
        5,
        5,
        6,
        5,
        0,
        0,
        0,
        0,
        0,
        0,
        0,
        0,
        0,
        0,
        0,
        0,
        0,
        0,
        0,
        0,
        0,
        0,
        0,
        0,
        0,
        0,
        0,
        0,
        5,
        5,
        0,
        0,
        0,
        0,
        0,
        0,
        0,
        0,
        0,
        0,
        0,
        0,
        0,
        0,
        0,
        0,
        0,
        0,
        0,
        0,
        0,
        0,
        0,
        0,
        0,
        0,
        0,
        0,
        0,
        0,
        0,
        0,
        0,
        0,
        0,
        0,
        0,
        0,
        0,
        0,
        0,
        0,
        0,
        0,
        0,
        0,
        0,
        0,
        0,
        0,
        0,
        19,
        0,
        0,
        19,
        0,
        0,
        0,
        0,
        5,
        6,
        5,
        5,
        5,
        5,
        5,
        5,
        5,
        5,
        5,
        5,
        5,
        6,
        5,
        5,
        0,
        0,
        0,
        0,
        0,
        0,
        0,
        0,
        0,
        0,
        0,
        0,
        0,
        0,
        0,
        0,
        0,
        5,
        6,
        6,
        5,
        0,
        0,
        0,
        0,
        0,
        0,
        0,
        0,
        0,
        0,
        0,
        0,
        0,
        0,
        0,
        0,
        0,
        0,
        0,
        0,
        0,
        0,
        0,
        0,
        0,
        0,
        0,
        0,
        0,
        0,
        0,
        0,
        0,
        0,
        0,
        0,
        0,
        0,
        0,
        0,
        0,
        0,
        0,
        0,
        0,
        0,
        0,
        0,
        0,
        5,
        5,
        5,
        5,
        5,
        6,
        5,
        5,
        5,
        5,
        5,
        5,
        5,
        6,
        5,
        5,
        0,
        0,
        0,
        0,
        5,
        5,
        6,
        5,
        5,
        5,
        5,
        5,
        5,
        0,
        0,
        0,
        0,
        0,
        0,
        0,
        0,
        0,
        0,
        0,
        0,
        0,
        5,
        5,
        5,
        5,
        0,
        0,
        0,
        0,
        0,
        0,
        0,
        0,
        0,
        0,
        0,
        0,
        0,
        0,
        0,
        0,
        0,
        0,
        0,
        0,
        0,
        0,
        0,
        0,
        0,
        0,
        0,
        0,
        0,
        0,
        0,
        0,
        0,
        0,
        0,
        0,
        0,
        0,
        0,
        0,
        0,
        0,
        0,
        0,
        0,
        0,
        0,
        0,
        5,
        5,
        5,
        5,
        5,
        6,
        5,
        5,
        6,
        5,
        5,
        5,
        6,
        0,
        0,
        0,
        0,
        0,
        0,
        0,
        0,
        0,
        0,
        0,
        0,
        0,
        0,
        5,
        5,
        5,
        5,
        5,
        0,
        0,
        0,
        0,
        0,
        0,
        0,
        0,
        0,
        0,
        6,
        5,
        5,
        5,
        0,
        0,
        0,
        0,
        0,
        0,
        0,
        0,
        0,
        0,
        0,
        0,
        0,
        0,
        0,
        0,
        0,
        0,
        0,
        0,
        0,
        0,
        0,
        0,
        0,
        0,
        0,
        0,
        0,
        0,
        0,
        0,
        0,
        0,
        0,
        0,
        0,
        0,
        0,
        0,
        0,
        0,
        0,
        0,
        0,
        0,
        0,
        6,
        5,
        5,
        5,
        5,
        5,
        19,
        0,
        0,
        19,
        0,
        0,
        0,
        0,
        0,
        0,
        0,
        0,
        0,
        0,
        0,
        0,
        0,
        0,
        0,
        0,
        0,
        0,
        0,
        0,
        0,
        0,
        0,
        5,
        5,
        6,
        0,
        0,
        0,
        0,
        0,
        0,
        0,
        0,
        5,
        5,
        5,
        5,
        0,
        0,
        0,
        0,
        0,
        0,
        0,
        0,
        0,
        0,
        0,
        0,
        0,
        0,
        0,
        0,
        0,
        0,
        0,
        0,
        0,
        0,
        0,
        0,
        0,
        0,
        0,
        0,
        0,
        0,
        0,
        0,
        0,
        0,
        0,
        0,
        0,
        0,
        0,
        0,
        0,
        0,
        0,
        0,
        0,
        0,
        6,
        5,
        6,
        5,
        5,
        5,
        0,
        0,
        19,
        0,
        0,
        19,
        0,
        0,
        0,
        0,
        0,
        0,
        0,
        0,
        0,
        0,
        0,
        0,
        0,
        0,
        0,
        0,
        0,
        0,
        0,
        0,
        0,
        0,
        0,
        0,
        6,
        5,
        5,
        0,
        0,
        0,
        0,
        0,
        6,
        5,
        6,
        5,
        0,
        0,
        0,
        0,
        0,
        0,
        0,
        0,
        0,
        0,
        0,
        0,
        0,
        0,
        0,
        0,
        0,
        0,
        0,
        0,
        0,
        0,
        0,
        0,
        0,
        0,
        0,
        0,
        0,
        0,
        0,
        0,
        0,
        0,
        0,
        0,
        0,
        0,
        0,
        0,
        0,
        0,
        0,
        0,
        0,
        0,
        5,
        6,
        5,
        5,
        6,
        0,
        0,
        0,
        0,
        19,
        0,
        0,
        19,
        0,
        0,
        0,
        0,
        0,
        0,
        0,
        0,
        0,
        0,
        0,
        0,
        0,
        0,
        0,
        0,
        0,
        0,
        0,
        0,
        0,
        0,
        0,
        0,
        0,
        0,
        5,
        5,
        5,
        0,
        0,
        0,
        5,
        5,
        5,
        5,
        0,
        0,
        0,
        0,
        0,
        0,
        0,
        0,
        0,
        0,
        0,
        0,
        0,
        0,
        0,
        0,
        0,
        0,
        0,
        0,
        0,
        0,
        0,
        0,
        0,
        0,
        0,
        0,
        0,
        0,
        0,
        0,
        0,
        0,
        0,
        0,
        0,
        0,
        0,
        0,
        0,
        0,
        0,
        0,
        0,
        0,
        5,
        6,
        5,
        5,
        0,
        0,
        0,
        0,
        0,
        0,
        19,
        0,
        0,
        19,
        0,
        0,
        0,
        0,
        0,
        0,
        0,
        0,
        0,
        0,
        0,
        0,
        0,
        0,
        0,
        0,
        0,
        0,
        0,
        0,
        0,
        0,
        0,
        0,
        0,
        0,
        0,
        5,
        5,
        5,
        5,
        5,
        5,
        6,
        0,
        0,
        0,
        0,
        0,
        0,
        0,
        0,
        0,
        0,
        0,
        0,
        0,
        0,
        0,
        0,
        0,
        0,
        0,
        0,
        0,
        0,
        0,
        0,
        0,
        0,
        0,
        0,
        0,
        0,
        0,
        0,
        0,
        0,
        0,
        0,
        0,
        0,
        0,
        0,
        0,
        0,
        0,
        0,
        0,
        0,
        0,
        6,
        5,
        6,
        0,
        0,
        0,
        0,
        0,
        0,
        0,
        0,
        19,
        0,
        0,
        19,
        0,
        0,
        0,
        0,
        0,
        0,
        0,
        0,
        0,
        0,
        0,
        0,
        0,
        0,
        0,
        0,
        0,
        0,
        0,
        0,
        0,
        0,
        0,
        0,
        0,
        0,
        0,
        0,
        5,
        5,
        6,
        5,
        5,
        0,
        0,
        0,
        0,
        0,
        0,
        0,
        0,
        0,
        0,
        0,
        0,
        0,
        0,
        0,
        0,
        0,
        0,
        0,
        0,
        0,
        0,
        0,
        0,
        0,
        0,
        0,
        0,
        0,
        0,
        0,
        0,
        0,
        0,
        0,
        0,
        0,
        0,
        0,
        0,
        0,
        0,
        0,
        0,
        0,
        0,
        0,
        0,
        5,
        5,
        0,
        0,
        0,
        0,
        0,
        0,
        0,
        0,
        19,
        0,
        0,
        19,
        0,
        0,
        0,
        0,
        0,
        0,
        0,
        0,
        0,
        0,
        0,
        0,
        0,
        0,
        0,
        0,
        0,
        0,
        0,
        0,
        0,
        0,
        0,
        0,
        0,
        0,
        0,
        0,
        0,
        0,
        5,
        5,
        0,
        0,
        0,
        0,
        0,
        0,
        0,
        0,
        0,
        0,
        0,
        0,
        0,
        0,
        0,
        0,
        0,
        0,
        0,
        0,
        0,
        0,
        0,
        0,
        0,
        0,
        0,
        0,
        0,
        0,
        0,
        0,
        0,
        0,
        0,
        0,
        0,
        0,
        0,
        0,
        0,
        0,
        0,
        0,
        0,
        0,
        0,
        0,
        0,
        5,
        5,
        5,
        0,
        0,
        0,
        0,
        0,
        0,
        0,
        0,
        19,
        0,
        0,
        19,
        0,
        0,
        0,
        0,
        0,
        0,
        0,
        0,
        0,
        0,
        0,
        0,
        0,
        0,
        0,
        0,
        0,
        0,
        0,
        0,
        0,
        0,
        0,
        0,
        0,
        0,
        0,
        0,
        0,
        5,
        5,
        5,
        0,
        0,
        0,
        0,
        0,
        0,
        0,
        0,
        0,
        0,
        0,
        0,
        0,
        0,
        0,
        0,
        0,
        0,
        0,
        0,
        0,
        0,
        0,
        0,
        0,
        0,
        0,
        0,
        0,
        0,
        0,
        0,
        0,
        0,
        0,
        0,
        0,
        0,
        0,
        0,
        0,
        0,
        0,
        0,
        0,
        0,
        0,
        0,
        5,
        5,
        6,
        0,
        0,
        0,
        0,
        0,
        0,
        0,
        0,
        0,
        19,
        0,
        0,
        19,
        0,
        0,
        0,
        0,
        0,
        0,
        0,
        0,
        0,
        0,
        0,
        0,
        0,
        0,
        0,
        0,
        0,
        0,
        0,
        0,
        0,
        0,
        0,
        0,
        0,
        0,
        0,
        0,
        5,
        5,
        6,
        0,
        0,
        0,
        0,
        0,
        0,
        0,
        0,
        0,
        0,
        0,
        0,
        0,
        0,
        0,
        0,
        0,
        0,
        0,
        0,
        0,
        0,
        0,
        0,
        0,
        0,
        0,
        0,
        0,
        0,
        0,
        0,
        0,
        0,
        0,
        0,
        0,
        0,
        0,
        0,
        0,
        0,
        0,
        0,
        0,
        0,
        0,
        0,
        0,
        5,
        5,
        0,
        0,
        0,
        0,
        0,
        0,
        0,
        0,
        0,
        0,
        19,
        0,
        0,
        19,
        0,
        0,
        0,
        0,
        0,
        0,
        0,
        0,
        0,
        0,
        0,
        0,
        0,
        0,
        0,
        0,
        0,
        0,
        0,
        0,
        0,
        0,
        0,
        0,
        0,
        0,
        0,
        0,
        6,
        6,
        0,
        0,
        0,
        0,
        0,
        0,
        0,
        0,
        0,
        0,
        0,
        0,
        0,
        0,
        0,
        0,
        0,
        0,
        0,
        0,
        0,
        0,
        0,
        0,
        0,
        0,
        0,
        0,
        0,
        0,
        0,
        0,
        0,
        0,
        0,
        0,
        0,
        0,
        0,
        0,
        0,
        0,
        0,
        0,
        0,
        0,
        0,
        0,
        0,
        5,
        5,
        5,
        0,
        0,
        0,
        0,
        0,
        0,
        0,
        0,
        0,
        0,
        19,
        0,
        0,
        19,
        0,
        0,
        0,
        0,
        0,
        0,
        0,
        0,
        0,
        0,
        0,
        0,
        0,
        0,
        0,
        0,
        0,
        0,
        0,
        0,
        0,
        0,
        0,
        0,
        0,
        0,
        0,
        0,
        5,
        6,
        0,
        0,
        0,
        0,
        0,
        0,
        0,
        0,
        0,
        0,
        0,
        0,
        0,
        0,
        0,
        0,
        0,
        0,
        0,
        0,
        0,
        0,
        0,
        0,
        0,
        0,
        0,
        0,
        0,
        0,
        0,
        0,
        0,
        0,
        0,
        0,
        0,
        0,
        0,
        0,
        0,
        0,
        0,
        0,
        0,
        0,
        0,
        0,
        5,
        6,
        5,
        0,
        0,
        0,
        0,
        0,
        0,
        0,
        0,
        0,
        0,
        0,
        19,
        0,
        0,
        19,
        0,
        0,
        0,
        0,
        0,
        0,
        0,
        0,
        0,
        0,
        0,
        0,
        0,
        0,
        0,
        0,
        0,
        0,
        0,
        0,
        0,
        0,
        0,
        0,
        0,
        0,
        0,
        5,
        5,
        5,
        0,
        0,
        0,
        0,
        0,
        0,
        0,
        0,
        0,
        0,
        0,
        0,
        0,
        0,
        0,
        0,
        0,
        0,
        0,
        0,
        0,
        0,
        0,
        0,
        0,
        0,
        0,
        0,
        0,
        0,
        0,
        0,
        0,
        0,
        0,
        0,
        0,
        0,
        0,
        0,
        0,
        0,
        0,
        0,
        0,
        0,
        0,
        0,
        6,
        5,
        0,
        0,
        0,
        0,
        0,
        0,
        0,
        0,
        0,
        0,
        0,
        0,
        19,
        0,
        0,
        0,
        0,
        0,
        0,
        0,
        0,
        0,
        0,
        0,
        0,
        0,
        0,
        0,
        0,
        0,
        0,
        0,
        0,
        0,
        0,
        0,
        0,
        0,
        0,
        0,
        0,
        0,
        11,
        11,
        11,
        0,
        0,
        0,
        0,
        0,
        0,
        0,
        0,
        0,
        0,
        0,
        0,
        0,
        0,
        0,
        0,
        0,
        0,
        0,
        0,
        0,
        0,
        0,
        0,
        0,
        0,
        0,
        0,
        0,
        0,
        0,
        0,
        0,
        0,
        0,
        0,
        0,
        0,
        0,
        0,
        0,
        0,
        0,
        0,
        0,
        0,
        0,
        0,
        0,
        5,
        6,
        0,
        0,
        0,
        0,
        0,
        0,
        0,
        0,
        0,
        0,
        0,
        0,
        19,
        0,
        0,
        0,
        0,
        0,
        0,
        0,
        0,
        0,
        0,
        0,
        0,
        0,
        0,
        0,
        0,
        0,
        0,
        0,
        0,
        0,
        0,
        0,
        0,
        0,
        0,
        0,
        0,
        0,
        11,
        11,
        11,
        0,
        0,
        0,
        0,
        0,
        0,
        0,
        0,
        0,
        0,
        0,
        0,
        0,
        0,
        0,
        0,
        0,
        0,
        0,
        0,
        0,
        0,
        0,
        0,
        0,
        0,
        0,
        0,
        0,
        0,
        0,
        0,
        0,
        0,
        0,
        0,
        0,
        0,
        0,
        0,
        0,
        0,
        0,
        0,
        0,
        0,
        0,
        0,
        0,
        5,
        5,
        0,
        0,
        0,
        0,
        0,
        0,
        0,
        0,
        0,
        0,
        0,
        0,
        19,
        0,
        0,
        0,
        0,
        0,
        0,
        0,
        0,
        0,
        0,
        0,
        0,
        0,
        0,
        0,
        0,
        0,
        0,
        0,
        0,
        0,
        0,
        0,
        0,
        0,
        0,
        0,
        0,
        0,
        11,
        11,
        11,
        0,
        0,
        0,
        0,
        0,
        0,
        0,
        0,
        0,
        0,
        0,
        0,
        0,
        0,
        0,
        0,
        0,
        0,
        0,
        0,
        0,
        0,
        0,
        0,
        0,
        0,
        0,
        0,
        0,
        0,
        0,
        0,
        0,
        0,
        0,
        0,
        0,
        0,
        0,
        0,
        0,
        0,
        0,
        0,
        0,
        0,
        0,
        0,
        5,
        5,
        5,
        0,
        0,
        0,
        0,
        0,
        0,
        0,
        0,
        0,
        0,
        0,
        0,
        0,
        19,
        0,
        0,
        19,
        0,
        0,
        0,
        0,
        0,
        0,
        0,
        0,
        0,
        0,
        0,
        0,
        0,
        0,
        0,
        0,
        0,
        0,
        0,
        0,
        0,
        0,
        0,
        0,
        0,
        0,
        6,
        5,
        0,
        0,
        0,
        0,
        0,
        0,
        0,
        0,
        0,
        0,
        0,
        0,
        0,
        0,
        0,
        0,
        0,
        0,
        0,
        0,
        0,
        0,
        0,
        0,
        0,
        0,
        0,
        0,
        0,
        0,
        0,
        0,
        0,
        0,
        0,
        0,
        0,
        0,
        0,
        0,
        0,
        0,
        0,
        0,
        0,
        0,
        0,
        0,
        6,
        6,
        0,
        0,
        0,
        0,
        0,
        0,
        0,
        0,
        0,
        0,
        0,
        0,
        0,
        0,
        19,
        0,
        0,
        19,
        0,
        0,
        0,
        0,
        0,
        0,
        0,
        0,
        0,
        0,
        0,
        0,
        0,
        0,
        0,
        0,
        0,
        0,
        0,
        0,
        0,
        0,
        0,
        0,
        0,
        0,
        5,
        5,
        0,
        0,
        0,
        0,
        0,
        0,
        0,
        0,
        0,
        0,
        0,
        0,
        0,
        0,
        0,
        0,
        0,
        0,
        0,
        0,
        0,
        0,
        0,
        0,
        0,
        0,
        0,
        0,
        0,
        0,
        0,
        0,
        0,
        0,
        0,
        0,
        0,
        0,
        0,
        0,
        0,
        0,
        0,
        0,
        0,
        0,
        0,
        0,
        5,
        6,
        0,
        0,
        0,
        0,
        0,
        0,
        0,
        0,
        0,
        0,
        0,
        0,
        0,
        0,
        19,
        0,
        0,
        19,
        0,
        0,
        0,
        0,
        0,
        0,
        0,
        0,
        0,
        0,
        0,
        0,
        0,
        0,
        0,
        0,
        0,
        0,
        0,
        0,
        0,
        0,
        0,
        0,
        0,
        5,
        6,
        5,
        0,
        0,
        0,
        0,
        0,
        0,
        0,
        0,
        0,
        0,
        0,
        0,
        0,
        0,
        0,
        0,
        0,
        0,
        0,
        0,
        0,
        0,
        0,
        0,
        0,
        0,
        0,
        0,
        0,
        0,
        0,
        0,
        0,
        0,
        0,
        0,
        0,
        0,
        0,
        0,
        0,
        0,
        0,
        0,
        0,
        0,
        0,
        0,
        6,
        5,
        0,
        0,
        0,
        0,
        0,
        0,
        0,
        0,
        0,
        0,
        0,
        0,
        0,
        0,
        0,
        19,
        0,
        0,
        19,
        0,
        0,
        0,
        0,
        0,
        0,
        0,
        0,
        0,
        0,
        0,
        0,
        0,
        0,
        0,
        0,
        0,
        0,
        0,
        0,
        0,
        0,
        5,
        6,
        5,
        5,
        5,
        0,
        0,
        0,
        0,
        0,
        0,
        0,
        0,
        0,
        0,
        0,
        0,
        0,
        0,
        0,
        0,
        0,
        0,
        0,
        0,
        0,
        0,
        0,
        0,
        0,
        0,
        0,
        0,
        0,
        0,
        0,
        0,
        0,
        0,
        0,
        0,
        0,
        0,
        0,
        0,
        0,
        0,
        0,
        0,
        0,
        0,
        0,
        0,
        5,
        5,
        0,
        0,
        0,
        0,
        0,
        0,
        0,
        0,
        0,
        0,
        0,
        0,
        0,
        0,
        0,
        19,
        0,
        0,
        19,
        0,
        0,
        0,
        0,
        0,
        0,
        0,
        0,
        0,
        0,
        0,
        0,
        0,
        0,
        0,
        0,
        0,
        0,
        0,
        0,
        5,
        5,
        5,
        5,
        6,
        0,
        0,
        0,
        0,
        0,
        0,
        0,
        0,
        0,
        0,
        0,
        0,
        0,
        0,
        0,
        0,
        0,
        0,
        0,
        0,
        0,
        0,
        0,
        0,
        0,
        0,
        0,
        0,
        0,
        0,
        0,
        0,
        0,
        0,
        0,
        0,
        0,
        0,
        0,
        0,
        0,
        0,
        0,
        0,
        0,
        0,
        0,
        0,
        0,
        5,
        5,
        5,
        0,
        0,
        0,
        0,
        0,
        0,
        0,
        0,
        0,
        0,
        0,
        0,
        0,
        0,
        0,
        0,
        19,
        0,
        0,
        19,
        0,
        0,
        0,
        0,
        0,
        0,
        0,
        0,
        0,
        0,
        0,
        0,
        0,
        0,
        0,
        0,
        0,
        5,
        5,
        5,
        5,
        5,
        0,
        0,
        0,
        0,
        0,
        0,
        0,
        0,
        0,
        0,
        0,
        0,
        0,
        0,
        0,
        0,
        0,
        0,
        0,
        0,
        0,
        0,
        0,
        0,
        0,
        0,
        0,
        0,
        0,
        0,
        0,
        0,
        0,
        0,
        0,
        0,
        0,
        0,
        0,
        0,
        0,
        0,
        0,
        0,
        0,
        0,
        0,
        0,
        0,
        0,
        0,
        6,
        5,
        0,
        0,
        0,
        0,
        0,
        0,
        0,
        0,
        0,
        0,
        0,
        0,
        0,
        0,
        0,
        0,
        0,
        19,
        0,
        0,
        19,
        0,
        0,
        0,
        0,
        0,
        0,
        0,
        0,
        0,
        0,
        0,
        0,
        0,
        0,
        5,
        5,
        5,
        5,
        5,
        6,
        0,
        0,
        0,
        0,
        0,
        0,
        0,
        0,
        0,
        0,
        0,
        0,
        0,
        0,
        0,
        0,
        0,
        0,
        0,
        0,
        0,
        0,
        0,
        0,
        0,
        0,
        0,
        0,
        0,
        0,
        0,
        0,
        0,
        0,
        0,
        0,
        0,
        0,
        0,
        0,
        0,
        0,
        0,
        0,
        0,
        0,
        0,
        0,
        0,
        0,
        0,
        0,
        0,
        5,
        5,
        0,
        0,
        0,
        0,
        0,
        0,
        0,
        0,
        0,
        0,
        0,
        0,
        0,
        0,
        0,
        0,
        0,
        19,
        0,
        0,
        19,
        0,
        0,
        0,
        0,
        0,
        0,
        0,
        0,
        0,
        0,
        0,
        0,
        0,
        5,
        6,
        5,
        5,
        5,
        0,
        0,
        0,
        0,
        0,
        0,
        0,
        0,
        0,
        0,
        0,
        0,
        0,
        0,
        0,
        0,
        0,
        0,
        0,
        0,
        0,
        0,
        0,
        0,
        0,
        0,
        0,
        0,
        0,
        0,
        0,
        0,
        0,
        0,
        0,
        0,
        0,
        0,
        0,
        0,
        0,
        0,
        0,
        0,
        0,
        0,
        0,
        0,
        0,
        0,
        0,
        0,
        0,
        0,
        0,
        5,
        6,
        0,
        0,
        0,
        0,
        0,
        0,
        0,
        0,
        0,
        0,
        0,
        0,
        0,
        0,
        0,
        0,
        0,
        0,
        19,
        0,
        0,
        19,
        0,
        0,
        0,
        0,
        0,
        0,
        0,
        0,
        0,
        6,
        5,
        5,
        5,
        5,
        0,
        0,
        0,
        0,
        0,
        0,
        0,
        0,
        0,
        0,
        0,
        0,
        0,
        0,
        0,
        0,
        0,
        0,
        0,
        0,
        0,
        0,
        0,
        0,
        0,
        0,
        0,
        0,
        0,
        0,
        0,
        0,
        0,
        0,
        0,
        0,
        0,
        0,
        0,
        0,
        0,
        0,
        0,
        0,
        0,
        0,
        0,
        0,
        0,
        0,
        0,
        0,
        0,
        0,
        0,
        0,
        0,
        0,
        5,
        5,
        0,
        0,
        0,
        0,
        0,
        0,
        0,
        0,
        0,
        0,
        0,
        0,
        0,
        0,
        0,
        0,
        0,
        0,
        19,
        0,
        0,
        19,
        0,
        0,
        0,
        0,
        0,
        0,
        0,
        0,
        5,
        6,
        6,
        5,
        5,
        0,
        0,
        0,
        0,
        0,
        0,
        0,
        0,
        0,
        0,
        0,
        0,
        0,
        0,
        0,
        0,
        0,
        0,
        0,
        0,
        0,
        0,
        0,
        0,
        0,
        0,
        0,
        0,
        0,
        0,
        0,
        0,
        0,
        0,
        0,
        0,
        0,
        0,
        0,
        0,
        0,
        0,
        0,
        0,
        0,
        0,
        0,
        0,
        0,
        0,
        0,
        0,
        0,
        0,
        0,
        0,
        0,
        0,
        0,
        5,
        5,
        6,
        0,
        0,
        0,
        0,
        0,
        0,
        0,
        0,
        0,
        0,
        0,
        0,
        0,
        0,
        0,
        0,
        0,
        0,
        19,
        0,
        0,
        19,
        0,
        0,
        0,
        0,
        5,
        5,
        6,
        5,
        5,
        0,
        0,
        0,
        0,
        0,
        0,
        0,
        0,
        0,
        0,
        0,
        0,
        0,
        0,
        0,
        0,
        0,
        0,
        0,
        0,
        0,
        0,
        0,
        0,
        0,
        0,
        0,
        0,
        0,
        0,
        0,
        0,
        0,
        0,
        0,
        0,
        0,
        0,
        0,
        0,
        0,
        0,
        0,
        0,
        0,
        0,
        0,
        0,
        0,
        0,
        0,
        0,
        0,
        0,
        0,
        0,
        0,
        0,
        0,
        0,
        0,
        0,
        0,
        5,
        6,
        0,
        0,
        0,
        0,
        0,
        0,
        0,
        0,
        0,
        0,
        0,
        0,
        0,
        0,
        0,
        0,
        0,
        0,
        19,
        0,
        0,
        19,
        0,
        0,
        0,
        5,
        5,
        5,
        5,
        6,
        0,
        0,
        0,
        0,
        0,
        0,
        0,
        0,
        0,
        0,
        0,
        0,
        0,
        0,
        0,
        0,
        0,
        0,
        0,
        0,
        0,
        0,
        0,
        0,
        0,
        0,
        0,
        0,
        0,
        0,
        0,
        0,
        0,
        0,
        0,
        0,
        0,
        0,
        0,
        0,
        0,
        0,
        0,
        0,
        0,
        0,
        0,
        0,
        0,
        0,
        0,
        0,
        0,
        0,
        0,
        0,
        0,
        0,
        0,
        0,
        0,
        0,
        0,
        0,
        5,
        5,
        0,
        0,
        0,
        0,
        0,
        0,
        0,
        0,
        0,
        0,
        0,
        0,
        0,
        0,
        0,
        0,
        5,
        5,
        5,
        6,
        5,
        6,
        5,
        5,
        6,
        6,
        5,
        0,
        0,
        0,
        0,
        0,
        0,
        0,
        0,
        0,
        0,
        0,
        0,
        0,
        0,
        0,
        0,
        0,
        0,
        0,
        0,
        0,
        0,
        0,
        0,
        0,
        0,
        0,
        0,
        0,
        0,
        0,
        0,
        0,
        0,
        0,
        0,
        0,
        0,
        0,
        0,
        0,
        0,
        0,
        0,
        0,
        0,
        0,
        0,
        0,
        0,
        0,
        0,
        0,
        0,
        0,
        0,
        0,
        0,
        0,
        0,
        0,
        0,
        0,
        0,
        0,
        0,
        0,
        5,
        5,
        5,
        0,
        0,
        0,
        0,
        0,
        0,
        0,
        0,
        0,
        0,
        0,
        0,
        0,
        5,
        6,
        5,
        5,
        5,
        5,
        6,
        0,
        6,
        5,
        5,
        5,
        0,
        0,
        0,
        0,
        0,
        0,
        0,
        0,
        0,
        0,
        0,
        0,
        0,
        0,
        0,
        0,
        0,
        0,
        0,
        0,
        0,
        0,
        0,
        0,
        0,
        0,
        0,
        0,
        0,
        0,
        0,
        0,
        0,
        0,
        0,
        0,
        0,
        0,
        0,
        0,
        0,
        0,
        0,
        0,
        0,
        0,
        0,
        0,
        0,
        0,
        0,
        0,
        0,
        0,
        0,
        0,
        0,
        0,
        0,
        0,
        0,
        0,
        0,
        0,
        0,
        0,
        0,
        0,
        0,
        5,
        5,
        0,
        0,
        0,
        0,
        0,
        0,
        0,
        0,
        0,
        0,
        5,
        5,
        6,
        5,
        5,
        5,
        0,
        0,
        19,
        0,
        0,
        19,
        0,
        0,
        0,
        0,
        0,
        0,
        0,
        0,
        0,
        0,
        0,
        0,
        0,
        0,
        0,
        0,
        0,
        0,
        0,
        0,
        0,
        0,
        0,
        0,
        0,
        0,
        0,
        0,
        0,
        0,
        0,
        0,
        0,
        0,
        0,
        0,
        0,
        0,
        0,
        0,
        0,
        0,
        0,
        0,
        0,
        0,
        0,
        0,
        0,
        0,
        0,
        0,
        0,
        0,
        0,
        0,
        0,
        0,
        0,
        0,
        13,
        0,
        13,
        0,
        13,
        0,
        0,
        0,
        0,
        13,
        0,
        0,
        5,
        5,
        0,
        0,
        0,
        0,
        0,
        0,
        0,
        0,
        5,
        6,
        6,
        5,
        5,
        5,
        0,
        0,
        0,
        0,
        19,
        0,
        0,
        19,
        0,
        0,
        0,
        0,
        0,
        0,
        0,
        0,
        0,
        0,
        0,
        0,
        0,
        0,
        0,
        0,
        0,
        0,
        0,
        0,
        0,
        0,
        0,
        0,
        0,
        0,
        0,
        0,
        0,
        0,
        0,
        0,
        0,
        0,
        0,
        0,
        0,
        0,
        0,
        0,
        0,
        0,
        0,
        0,
        0,
        0,
        0,
        0,
        0,
        0,
        0,
        0,
        0,
        0,
        0,
        0,
        0,
        0,
        0,
        0,
        0,
        13,
        0,
        0,
        13,
        0,
        0,
        13,
        0,
        0,
        13,
        13,
        13,
        5,
        5,
        0,
        0,
        0,
        0,
        0,
        5,
        5,
        5,
        5,
        5,
        0,
        0,
        0,
        0,
        0,
        0,
        0,
        19,
        0,
        0,
        19,
        0,
        0,
        0,
        0,
        0,
        0,
        0,
        0,
        0,
        0,
        0,
        0,
        0,
        0,
        0,
        0,
        0,
        0,
        0,
        0,
        0,
        0,
        0,
        0,
        0,
        0,
        0,
        0,
        0,
        0,
        0,
        0,
        0,
        0,
        0,
        0,
        0,
        0,
        0,
        0,
        0,
        0,
        0,
        0,
        0,
        0,
        0,
        0,
        0,
        0,
        0,
        0,
        0,
        0,
        0,
        0,
        0,
        0,
        0,
        13,
        0,
        13,
        13,
        13,
        13,
        13,
        13,
        13,
        13,
        13,
        13,
        13,
        13,
        13,
        5,
        0,
        0,
        0,
        5,
        5,
        5,
        5,
        6,
        0,
        0,
        0,
        0,
        0,
        0,
        0,
        0,
        0,
        19,
        0,
        0,
        19,
        0,
        0,
        0,
        0,
        0,
        0,
        0,
        0,
        0,
        0,
        0,
        0,
        0,
        0,
        0,
        0,
        0,
        0,
        0,
        0,
        0,
        0,
        0,
        0,
        0,
        0,
        0,
        0,
        0,
        0,
        0,
        0,
        0,
        0,
        0,
        0,
        0,
        0,
        0,
        0,
        0,
        0,
        0,
        0,
        0,
        0,
        0,
        0,
        0,
        0,
        0,
        0,
        0,
        0,
        0,
        0,
        0,
        0,
        0,
        13,
        13,
        13,
        13,
        13,
        13,
        13,
        13,
        13,
        13,
        13,
        13,
        13,
        0,
        6,
        13,
        0,
        0,
        5,
        5,
        6,
        5,
        0,
        0,
        0,
        0,
        0,
        0,
        0,
        0,
        0,
        0,
        0,
        19,
        0,
        0,
        19,
        0,
        0,
        0,
        0,
        0,
        0,
        0,
        0,
        0,
        0,
        0,
        0,
        0,
        0,
        0,
        0,
        0,
        0,
        0,
        0,
        0,
        0,
        0,
        0,
        0,
        0,
        0,
        0,
        0,
        0,
        0,
        0,
        0,
        0,
        0,
        0,
        0,
        0,
        0,
        0,
        0,
        0,
        0,
        0,
        0,
        0,
        0,
        0,
        0,
        0,
        0,
        0,
        0,
        0,
        0,
        0,
        0,
        13,
        13,
        13,
        13,
        13,
        13,
        13,
        13,
        13,
        13,
        13,
        13,
        13,
        13,
        13,
        13,
        5,
        5,
        5,
        5,
        5,
        5,
        0,
        0,
        0,
        0,
        0,
        0,
        0,
        0,
        0,
        0,
        0,
        0,
        0,
        19,
        0,
        0,
        19,
        0,
        0,
        0,
        0,
        0,
        0,
        0,
        0,
        0,
        0,
        0,
        0,
        0,
        0,
        0,
        0,
        0,
        0,
        0,
        0,
        0,
        0,
        0,
        0,
        0,
        0,
        0,
        0,
        0,
        0,
        0,
        0,
        0,
        0,
        0,
        0,
        0,
        0,
        0,
        0,
        0,
        0,
        0,
        0,
        0,
        0,
        0,
        0,
        0,
        0,
        0,
        0,
        0,
        0,
        0,
        0,
        0,
        13,
        13,
        13,
        13,
        13,
        13,
        13,
        13,
        13,
        13,
        13,
        13,
        13,
        13,
        13,
        13,
        13,
        5,
        13,
        5,
        5,
        0,
        0,
        0,
        0,
        0,
        0,
        0,
        0,
        0,
        0,
        0,
        0,
        0,
        0,
        19,
        0,
        0,
        19,
        0,
        0,
        0,
        0,
        0,
        0,
        0,
        0,
        0,
        0,
        0,
        0,
        0,
        0,
        0,
        0,
        0,
        0,
        0,
        0,
        0,
        0,
        0,
        0,
        0,
        0,
        0,
        0,
        0,
        0,
        0,
        0,
        0,
        0,
        0,
        0,
        0,
        0,
        0,
        0,
        0,
        0,
        0,
        0,
        0,
        0,
        0,
        0,
        0,
        0,
        0,
        0,
        0,
        0,
        0,
        0,
        13,
        13,
        13,
        13,
        13,
        13,
        13,
        13,
        13,
        13,
        13,
        13,
        13,
        13,
        13,
        13,
        13,
        13,
        5,
        13,
        13,
        0,
        0,
        0,
        0,
        0,
        0,
        0,
        0,
        0,
        0,
        0,
        0,
        0,
        0,
        0,
        19,
        0,
        0,
        19,
        0,
        0,
        0,
        0,
        0,
        0,
        0,
        0,
        0,
        0,
        0,
        0,
        0,
        0,
        0,
        0,
        0,
        0,
        0,
        0,
        0,
        0,
        0,
        0,
        0,
        0,
        0,
        0,
        0,
        0,
        0,
        0,
        0,
        0,
        0,
        0,
        0,
        0,
        0,
        0,
        0,
        0,
        0,
        0,
        0,
        0,
        0,
        0,
        0,
        0,
        0,
        0,
        0,
        0,
        0,
        0,
        0,
        13,
        13,
        13,
        13,
        13,
        13,
        13,
        13,
        13,
        13,
        13,
        13,
        13,
        13,
        13,
        13,
        13,
        13,
        0,
        0,
        0,
        0,
        0,
        0,
        0,
        0,
        0,
        0,
        0,
        0,
        0,
        0,
        0,
        0,
        19,
        0,
        0,
        19,
        0,
        0,
        0,
        0,
        0,
        0,
        0,
        0,
        0,
        0,
        0,
        0,
        0,
        0,
        0,
        0,
        0,
        0,
        0,
        0,
        0,
        0,
        0,
        0,
        0,
        0,
        0,
        0,
        0,
        0,
        0,
        0,
        0,
        0,
        0,
        0,
        0,
        0,
        0,
        0,
        0,
        0,
        0,
        0,
        0,
        0,
        0,
        0,
        0,
        0,
        0,
        0,
        0,
        0,
        0,
        0,
        0,
        0,
        13,
        13,
        13,
        13,
        13,
        13,
        13,
        13,
        13,
        13,
        13,
        13,
        13,
        13,
        13,
        13,
        13,
        0,
        13,
        0,
        0,
        0,
        0,
        0,
        0,
        0,
        0,
        0,
        0,
        0,
        0,
        0,
        0,
        0,
        19,
        0,
        0,
        19,
        0,
        0,
        0,
        0,
        0,
        0,
        0,
        0,
        0,
        0,
        0,
        0,
        0,
        0,
        0,
        0,
        0,
        0,
        0,
        0,
        0,
        0,
        0,
        0,
        0,
        0,
        0,
        0,
        0,
        0,
        0,
        0,
        0,
        0,
        0,
        0,
        0,
        0,
        0,
        0,
        0,
        0,
        0,
        0,
        0,
        0,
        0,
        0,
        0,
        0,
        0,
        0,
        0,
        0,
        0,
        0,
        0,
        13,
        13,
        13,
        13,
        13,
        13,
        13,
        13,
        13,
        13,
        13,
        13,
        13,
        13,
        13,
        13,
        13,
        13,
        0,
        13,
        13,
        0,
        0,
        0,
        0,
        0,
        0,
        0,
        0,
        0,
        0,
        0,
        0,
        0,
        0,
        19,
        0,
        0,
        19,
        0,
        0,
        0,
        0,
        0,
        0,
        0,
        0,
        0,
        0,
        0,
        0,
        0,
        0,
        0,
        0,
        0,
        0,
        0,
        0,
        0,
        0,
        0,
        0,
        0,
        0,
        0,
        0,
        0,
        0,
        0,
        0,
        0,
        0,
        0,
        0,
        0,
        0,
        0,
        0,
        0,
        0,
        0,
        0,
        0,
        0,
        0,
        0,
        0,
        0,
        0,
        0,
        0,
        0,
        0,
        0,
        0,
        13,
        0,
        13,
        13,
        13,
        13,
        13,
        13,
        13,
        13,
        13,
        13,
        13,
        13,
        13,
        13,
        13,
        0,
        13,
        0,
        0,
        0,
        0,
        0,
        0,
        0,
        0,
        0,
        0,
        0,
        0,
        0,
        0,
        0,
        19,
        0,
        0,
        19,
        0,
        0,
        0,
        0,
        0,
        0,
        0,
        0,
        0,
        0,
        0,
        0,
        0,
        0,
        0,
        0,
        0,
        0,
        0,
        0,
        0,
        0,
        0,
        0,
        0,
        0,
        0,
        0,
        0,
        0,
        0,
        0,
        0,
        0,
        0,
        0,
        0,
        0,
        0,
        0,
        0,
        0,
        0,
        0,
        0,
        0,
        0,
        0,
        0,
        0,
        0,
        0,
        0,
        0,
        0,
        0,
        0,
        0,
        13,
        0,
        13,
        13,
        13,
        13,
        13,
        13,
        13,
        13,
        13,
        13,
        13,
        13,
        13,
        13,
        13,
        0,
        13,
        13,
        0,
        0,
        0,
        0,
        0,
        0,
        0,
        0,
        0,
        0,
        0,
        0,
        0,
        0,
        19,
        0,
        0,
        19,
        0,
        0,
        0,
        0,
        0,
        0,
        0,
        0,
        0,
        0,
        0,
        0,
        0,
        0,
        0,
        0,
        0,
        0,
        0,
        0,
        0,
        0,
        0,
        0,
        0,
        0,
        0,
        0,
        0,
        0,
        0,
        0,
        0,
        0,
        0,
        0,
        0,
        0,
        0,
        0,
        0,
        0,
        0,
        0,
        0,
        0,
        0,
        0,
        0,
        0,
        0,
        0,
        0,
        0,
        0,
        0,
        0,
        0,
        0,
        13,
        13,
        0,
        13,
        13,
        13,
        13,
        13,
        13,
        13,
        13,
        13,
        13,
        0,
        13,
        13,
        0,
        0,
        0,
        0,
        0,
        0,
        0,
        0,
        0,
        0,
        0,
        0,
        0,
        0,
        0,
        0,
        19,
        0,
        0,
        19,
        0,
        0,
        0,
        0,
        0,
        0,
        0,
        0,
        0,
        0,
        0,
        0,
        0,
        0,
        0,
        0,
        0,
        0,
        0,
        0,
        0,
        0,
        0,
        0,
        0,
        0,
        0,
        0,
        0,
        0,
        0,
        0,
        0,
        0,
        0,
        0,
        0,
        0,
        0,
        0,
        0,
        0,
        0,
        0,
        0,
        0,
        0,
        0,
        0,
        0,
        0,
        0,
        0,
        0,
        0,
        0,
        0,
        0,
        0,
        0,
        0,
        0,
        0,
        0,
        0,
        13,
        13,
        13,
        0,
        0,
        13,
        0,
        0,
        13,
        0,
        13,
        0,
        0,
        0,
        0,
        0,
        0,
        0,
        0,
        0,
        0,
        0,
        0,
        0,
        0,
        0,
        0,
        19,
        0,
        0,
        19,
        0,
        0,
        0,
        0,
        0,
        0,
        0,
        0,
        0,
        0,
        0,
        0,
        0,
        0,
        0,
        0,
        0,
        0,
        0,
        0,
        0,
        0,
        0,
        0,
        0,
        0,
        0,
        0,
        0,
        0,
        0,
        0,
        0,
        0,
        0,
        0,
        0,
        0,
        0,
        0,
        0,
        0,
        0,
        0,
        0,
        0,
        0,
        0,
        0,
        0,
        0,
        0,
        0,
        0,
        0,
        0,
        0,
        0,
        0,
        0,
        0,
        0,
        0,
        13,
        0,
        13,
        0,
        13,
        13,
        13,
        13,
        13,
        0,
        0,
        0,
        0,
        0,
        0,
        0,
        0,
        0,
        0,
        0,
        0,
        0,
        0,
        0,
        0,
        0,
        0,
        0,
        0,
        19,
        0,
        0,
        19,
        0,
        0,
        0,
        0,
        0,
        0,
        0,
        0,
        0,
        0,
        0,
        0,
        0,
        0,
        0,
        0,
        0,
        0,
        0,
        0,
        0,
        0,
        0,
        0,
        0,
        0,
        0,
        0,
        0,
        0,
        0,
        0,
        0,
        0,
        0,
        0,
        0,
        0,
        0,
        0,
        0,
        0,
        0,
        0,
        0,
        0,
        0,
        0,
        0,
        0,
        0,
        0,
        0,
        0,
        0,
        0,
        0,
        0,
        0,
        0,
        0,
        0,
        0,
        0,
        0,
        0,
        0,
        0,
        0,
        0,
        0,
        0,
        0,
        0,
        0,
        0,
        0,
        0,
        0,
        0,
        0,
        0,
        0,
        0,
        0,
        0,
        0,
        0,
        0,
        0,
        0,
        19,
        0,
        0,
        19,
        0,
        0,
        0,
        0,
        0,
        0,
        0,
        0,
        0,
        0,
        0,
        0,
        0,
        0,
        0,
        0,
        0,
        0,
        0,
        0,
        0,
        0,
        0,
        0,
        0,
        0,
        0,
        0,
        0,
        0,
        0,
        0,
        0,
        0,
        0,
        0,
        0,
        0,
        0,
        0,
        0,
        0,
        0,
        0,
        0,
        0,
        0,
        0,
        0,
        0,
        0,
        0,
        0,
        0,
        0,
        0,
        0,
        0,
        0,
        0,
        0,
        0,
        0,
        0,
        0,
        0,
        0,
        0,
        0,
        0,
        0,
        0,
        0,
        0,
        0,
        0,
        0,
        0,
        0,
        0,
        0,
        0,
        0,
        0,
        0,
        0,
        0,
        0,
        0,
        0,
        0,
        0,
        19,
        0,
        0,
        19,
        0,
        0,
        0,
        0,
        0,
        0,
        0,
        0,
        0,
        0,
        0,
        0,
        0,
        0,
        0,
        0,
        0,
        0,
        0,
        0,
        0,
        0,
        0,
        0,
        0,
        0,
        0,
        0,
        0,
        0,
        0,
        0,
        0,
        0,
        0,
        0,
        0,
        0,
        0,
        0,
        0,
        0,
        0,
        0,
        0,
        0,
        0,
        0,
        0,
        0,
        0,
        0,
        0,
        0,
        0,
        0,
        0,
        0,
        0,
        0,
        0,
        0,
        0,
        0,
        0,
        0,
        0,
        0,
        0,
        0,
        0,
        0,
        0,
        0,
        0,
        0,
        0,
        0,
        0,
        0,
        0,
        0,
        0,
        0,
        0,
        0,
        0,
        0,
        0,
        0,
        0,
        19,
        0,
        0,
        19,
        0,
        0,
        0,
        0,
        0,
        0,
        0,
        0,
        0,
        0,
        0,
        0,
        0,
        0,
        0,
        0,
        0,
        0,
        0,
        0,
        0,
        0,
        0,
        0,
        0,
        0,
        0,
        0,
        0,
        0,
        0,
        0,
        0,
        0,
        0,
        0,
        0,
        0,
        0,
        0,
        0,
        0,
        0,
        0,
        0,
        0,
        0,
        0,
        0,
        0,
        0,
        0,
        0,
        0,
        0,
        0,
        0,
        0,
        0,
        0,
        0,
        0,
        0,
        0,
        0,
        0,
        0,
        0,
        0,
        0,
        0,
        0,
        0,
        0,
        0,
        0,
        0,
        0,
        0,
        0,
        0,
        0,
        0,
        0,
        0,
        0,
        0,
        0,
        0,
        0,
        0,
        0,
        19,
        0,
        0,
        19,
        0,
        0,
        0,
        0,
        0,
        0,
        0,
        0,
        0,
        0,
        0,
        0,
        0,
        0,
        0,
        0,
        0,
        0,
        0,
        0,
        0,
        0,
        0,
        0,
        0,
        0,
        0,
        0,
        0,
        0,
        0,
        0,
        0,
        0,
        0,
        0,
        0,
        0,
        0,
        0,
        0,
        0,
        0,
        0,
        0,
        0,
        0,
        0,
        0,
        0,
        0,
        0,
        0,
        0,
        0
      ]
    },
    {
      "id": 3,
      "name": "Water",
      "type": "tilelayer",
      "x": 0,
      "y": 0,
      "width": 96,
      "height": 72,
      "opacity": 1,
      "visible": true,
      "data": [
        0,
        0,
        0,
        0,
        0,
        0,
        0,
        0,
        0,
        0,
        0,
        0,
        0,
        0,
        0,
        0,
        0,
        0,
        0,
        0,
        0,
        0,
        0,
        0,
        0,
        0,
        0,
        0,
        0,
        0,
        0,
        0,
        0,
        0,
        0,
        0,
        0,
        0,
        0,
        0,
        7,
        7,
        0,
        0,
        0,
        0,
        0,
        0,
        0,
        0,
        0,
        0,
        0,
        0,
        0,
        0,
        0,
        0,
        0,
        0,
        0,
        0,
        0,
        0,
        0,
        0,
        0,
        0,
        0,
        0,
        0,
        0,
        0,
        0,
        0,
        0,
        0,
        0,
        0,
        0,
        0,
        0,
        0,
        0,
        0,
        0,
        0,
        0,
        0,
        0,
        0,
        0,
        0,
        0,
        0,
        0,
        0,
        0,
        0,
        0,
        0,
        0,
        0,
        0,
        0,
        0,
        0,
        0,
        0,
        0,
        0,
        0,
        0,
        0,
        0,
        0,
        0,
        0,
        0,
        0,
        0,
        0,
        0,
        0,
        0,
        0,
        0,
        0,
        0,
        0,
        0,
        0,
        0,
        0,
        0,
        0,
        7,
        8,
        0,
        0,
        0,
        0,
        0,
        0,
        0,
        0,
        0,
        0,
        0,
        0,
        0,
        0,
        0,
        0,
        0,
        0,
        0,
        0,
        0,
        0,
        0,
        0,
        0,
        0,
        0,
        0,
        0,
        0,
        0,
        0,
        0,
        0,
        0,
        0,
        0,
        0,
        0,
        0,
        0,
        0,
        0,
        0,
        0,
        0,
        0,
        0,
        0,
        0,
        0,
        0,
        0,
        0,
        0,
        0,
        0,
        0,
        0,
        0,
        0,
        0,
        0,
        0,
        0,
        0,
        0,
        0,
        0,
        0,
        0,
        0,
        0,
        0,
        0,
        0,
        0,
        0,
        0,
        0,
        0,
        0,
        0,
        0,
        0,
        0,
        0,
        0,
        0,
        0,
        0,
        0,
        0,
        0,
        0,
        7,
        7,
        0,
        0,
        0,
        0,
        0,
        0,
        0,
        0,
        0,
        0,
        0,
        0,
        0,
        0,
        0,
        0,
        0,
        0,
        0,
        0,
        0,
        0,
        0,
        0,
        0,
        0,
        0,
        0,
        0,
        0,
        0,
        0,
        0,
        0,
        0,
        0,
        0,
        0,
        0,
        0,
        0,
        0,
        0,
        0,
        0,
        0,
        0,
        0,
        0,
        0,
        0,
        0,
        0,
        0,
        0,
        0,
        0,
        0,
        0,
        0,
        0,
        0,
        0,
        0,
        0,
        0,
        0,
        0,
        0,
        0,
        0,
        0,
        0,
        0,
        0,
        0,
        0,
        0,
        0,
        0,
        0,
        0,
        0,
        0,
        0,
        0,
        0,
        0,
        0,
        0,
        0,
        0,
        0,
        0,
        7,
        8,
        0,
        0,
        0,
        0,
        0,
        0,
        0,
        0,
        0,
        0,
        0,
        0,
        0,
        0,
        0,
        0,
        0,
        0,
        0,
        0,
        0,
        0,
        0,
        0,
        0,
        0,
        0,
        0,
        0,
        0,
        0,
        0,
        0,
        0,
        0,
        0,
        0,
        0,
        0,
        0,
        0,
        0,
        0,
        0,
        0,
        0,
        0,
        0,
        0,
        0,
        0,
        0,
        0,
        0,
        0,
        0,
        0,
        0,
        0,
        0,
        0,
        0,
        0,
        0,
        0,
        0,
        0,
        0,
        0,
        0,
        0,
        0,
        0,
        0,
        0,
        0,
        0,
        0,
        0,
        0,
        0,
        0,
        0,
        0,
        0,
        0,
        0,
        0,
        0,
        0,
        0,
        0,
        0,
        0,
        0,
        7,
        7,
        0,
        0,
        0,
        0,
        0,
        0,
        0,
        0,
        0,
        0,
        0,
        0,
        0,
        0,
        0,
        0,
        0,
        0,
        0,
        0,
        0,
        0,
        0,
        0,
        0,
        0,
        0,
        0,
        0,
        0,
        0,
        0,
        0,
        0,
        0,
        0,
        0,
        0,
        0,
        0,
        0,
        0,
        0,
        0,
        0,
        0,
        0,
        0,
        0,
        0,
        0,
        0,
        0,
        0,
        0,
        0,
        0,
        0,
        0,
        0,
        0,
        0,
        0,
        0,
        0,
        0,
        0,
        0,
        0,
        0,
        0,
        0,
        0,
        0,
        0,
        0,
        0,
        0,
        0,
        0,
        0,
        0,
        0,
        0,
        0,
        0,
        0,
        0,
        0,
        0,
        0,
        0,
        0,
        0,
        7,
        8,
        0,
        0,
        0,
        0,
        0,
        0,
        0,
        0,
        0,
        0,
        0,
        0,
        0,
        0,
        0,
        0,
        0,
        0,
        0,
        0,
        0,
        0,
        0,
        0,
        0,
        0,
        0,
        0,
        0,
        0,
        0,
        0,
        0,
        0,
        0,
        0,
        0,
        0,
        0,
        0,
        0,
        0,
        0,
        0,
        0,
        0,
        0,
        0,
        0,
        0,
        0,
        0,
        0,
        0,
        0,
        0,
        0,
        0,
        0,
        0,
        0,
        0,
        0,
        0,
        0,
        0,
        0,
        0,
        0,
        0,
        0,
        0,
        0,
        0,
        0,
        0,
        0,
        0,
        0,
        0,
        0,
        0,
        0,
        0,
        0,
        0,
        0,
        0,
        0,
        0,
        0,
        0,
        0,
        0,
        8,
        7,
        0,
        0,
        0,
        0,
        0,
        0,
        0,
        0,
        0,
        0,
        0,
        0,
        0,
        0,
        0,
        0,
        0,
        0,
        0,
        0,
        0,
        0,
        0,
        0,
        0,
        0,
        0,
        0,
        0,
        0,
        0,
        0,
        0,
        0,
        0,
        0,
        0,
        0,
        0,
        0,
        0,
        0,
        0,
        0,
        0,
        0,
        0,
        0,
        0,
        0,
        0,
        0,
        0,
        0,
        0,
        0,
        0,
        0,
        0,
        0,
        0,
        0,
        0,
        0,
        0,
        0,
        0,
        0,
        0,
        0,
        0,
        0,
        0,
        0,
        0,
        0,
        0,
        0,
        0,
        0,
        0,
        0,
        0,
        0,
        0,
        0,
        0,
        0,
        0,
        0,
        0,
        0,
        0,
        0,
        0,
        7,
        8,
        0,
        0,
        0,
        0,
        0,
        0,
        0,
        0,
        0,
        0,
        0,
        0,
        0,
        0,
        0,
        0,
        0,
        0,
        0,
        0,
        0,
        0,
        0,
        0,
        0,
        0,
        0,
        0,
        0,
        0,
        0,
        0,
        0,
        0,
        0,
        0,
        0,
        0,
        0,
        0,
        0,
        0,
        0,
        0,
        0,
        0,
        0,
        0,
        0,
        0,
        0,
        0,
        0,
        0,
        0,
        0,
        0,
        0,
        0,
        0,
        0,
        0,
        0,
        0,
        0,
        0,
        0,
        0,
        0,
        0,
        0,
        0,
        0,
        0,
        0,
        0,
        0,
        0,
        0,
        0,
        0,
        0,
        0,
        0,
        0,
        0,
        0,
        0,
        0,
        0,
        0,
        0,
        0,
        0,
        8,
        7,
        0,
        0,
        0,
        0,
        0,
        0,
        0,
        0,
        0,
        0,
        0,
        0,
        0,
        0,
        0,
        0,
        0,
        0,
        0,
        0,
        0,
        0,
        0,
        0,
        0,
        0,
        0,
        0,
        0,
        0,
        0,
        0,
        0,
        0,
        0,
        0,
        0,
        0,
        0,
        0,
        0,
        0,
        0,
        0,
        0,
        0,
        0,
        0,
        0,
        0,
        0,
        0,
        0,
        0,
        0,
        0,
        0,
        0,
        0,
        0,
        0,
        0,
        0,
        0,
        0,
        0,
        0,
        0,
        0,
        0,
        0,
        0,
        0,
        0,
        0,
        0,
        0,
        0,
        0,
        0,
        0,
        0,
        0,
        0,
        0,
        0,
        0,
        0,
        0,
        0,
        0,
        0,
        0,
        0,
        7,
        7,
        0,
        0,
        0,
        0,
        0,
        0,
        0,
        0,
        0,
        0,
        0,
        0,
        0,
        0,
        0,
        0,
        0,
        0,
        0,
        0,
        0,
        0,
        0,
        0,
        0,
        0,
        0,
        0,
        0,
        0,
        0,
        0,
        0,
        0,
        0,
        0,
        0,
        0,
        0,
        0,
        0,
        0,
        0,
        0,
        0,
        0,
        0,
        0,
        0,
        0,
        0,
        0,
        0,
        0,
        0,
        0,
        0,
        0,
        0,
        0,
        0,
        0,
        0,
        0,
        0,
        0,
        0,
        0,
        0,
        0,
        0,
        0,
        0,
        0,
        0,
        0,
        0,
        0,
        0,
        0,
        0,
        0,
        0,
        0,
        0,
        0,
        0,
        0,
        0,
        0,
        0,
        0,
        0,
        0,
        7,
        8,
        0,
        0,
        0,
        0,
        0,
        0,
        0,
        0,
        0,
        0,
        0,
        0,
        0,
        0,
        0,
        0,
        0,
        0,
        0,
        0,
        0,
        0,
        0,
        0,
        0,
        0,
        0,
        0,
        0,
        0,
        0,
        0,
        0,
        0,
        0,
        0,
        0,
        0,
        0,
        0,
        0,
        0,
        0,
        0,
        0,
        0,
        0,
        0,
        0,
        0,
        0,
        0,
        0,
        0,
        0,
        0,
        0,
        0,
        0,
        0,
        0,
        0,
        0,
        0,
        0,
        0,
        0,
        0,
        0,
        0,
        0,
        0,
        0,
        0,
        0,
        0,
        0,
        0,
        0,
        0,
        0,
        0,
        0,
        0,
        0,
        0,
        0,
        0,
        0,
        0,
        0,
        0,
        0,
        0,
        8,
        7,
        0,
        0,
        0,
        0,
        0,
        0,
        0,
        0,
        0,
        0,
        0,
        0,
        0,
        0,
        0,
        0,
        0,
        0,
        0,
        0,
        0,
        0,
        0,
        0,
        0,
        0,
        0,
        0,
        0,
        0,
        0,
        0,
        0,
        0,
        0,
        0,
        0,
        0,
        0,
        0,
        0,
        0,
        0,
        0,
        0,
        0,
        0,
        0,
        0,
        0,
        0,
        0,
        0,
        0,
        0,
        0,
        0,
        0,
        0,
        0,
        0,
        0,
        0,
        0,
        0,
        0,
        0,
        0,
        0,
        0,
        0,
        0,
        0,
        0,
        0,
        0,
        0,
        0,
        0,
        0,
        0,
        0,
        0,
        0,
        0,
        0,
        0,
        0,
        0,
        0,
        0,
        0,
        0,
        0,
        7,
        7,
        0,
        0,
        0,
        0,
        0,
        0,
        0,
        0,
        0,
        0,
        0,
        0,
        0,
        0,
        0,
        0,
        0,
        0,
        0,
        0,
        0,
        0,
        0,
        0,
        0,
        0,
        0,
        0,
        0,
        0,
        0,
        0,
        0,
        0,
        0,
        0,
        0,
        0,
        0,
        0,
        0,
        0,
        0,
        0,
        0,
        0,
        0,
        0,
        0,
        0,
        0,
        0,
        0,
        0,
        0,
        0,
        0,
        0,
        0,
        0,
        0,
        0,
        0,
        0,
        0,
        0,
        0,
        0,
        0,
        0,
        0,
        0,
        0,
        0,
        0,
        0,
        0,
        0,
        0,
        0,
        0,
        0,
        0,
        0,
        0,
        0,
        0,
        0,
        0,
        0,
        0,
        0,
        0,
        0,
        7,
        8,
        0,
        0,
        0,
        0,
        0,
        0,
        0,
        0,
        0,
        0,
        0,
        0,
        0,
        0,
        0,
        0,
        0,
        0,
        0,
        0,
        0,
        0,
        0,
        0,
        0,
        0,
        0,
        0,
        0,
        0,
        0,
        0,
        0,
        0,
        0,
        0,
        0,
        0,
        0,
        0,
        0,
        0,
        0,
        0,
        0,
        0,
        0,
        0,
        0,
        0,
        0,
        0,
        0,
        0,
        0,
        0,
        0,
        0,
        0,
        0,
        0,
        0,
        0,
        0,
        0,
        0,
        0,
        0,
        0,
        0,
        0,
        0,
        0,
        0,
        0,
        0,
        0,
        0,
        0,
        0,
        0,
        0,
        0,
        0,
        0,
        0,
        0,
        0,
        0,
        0,
        0,
        0,
        0,
        0,
        8,
        7,
        0,
        0,
        0,
        0,
        0,
        0,
        0,
        0,
        0,
        0,
        0,
        0,
        0,
        0,
        0,
        0,
        0,
        0,
        0,
        0,
        0,
        0,
        0,
        0,
        0,
        0,
        0,
        0,
        0,
        0,
        0,
        0,
        0,
        0,
        0,
        0,
        0,
        0,
        0,
        0,
        0,
        0,
        0,
        0,
        0,
        0,
        0,
        0,
        0,
        0,
        0,
        0,
        0,
        0,
        0,
        0,
        0,
        0,
        0,
        0,
        0,
        0,
        0,
        0,
        0,
        0,
        0,
        0,
        0,
        0,
        0,
        0,
        0,
        0,
        0,
        0,
        0,
        0,
        0,
        0,
        0,
        0,
        0,
        0,
        0,
        0,
        0,
        0,
        0,
        0,
        0,
        0,
        0,
        0,
        7,
        7,
        0,
        0,
        0,
        0,
        0,
        0,
        0,
        0,
        0,
        0,
        0,
        0,
        0,
        0,
        0,
        0,
        0,
        0,
        0,
        0,
        0,
        0,
        0,
        0,
        0,
        0,
        0,
        0,
        0,
        0,
        0,
        0,
        0,
        0,
        0,
        0,
        0,
        0,
        0,
        0,
        0,
        0,
        0,
        0,
        0,
        0,
        0,
        0,
        0,
        0,
        0,
        0,
        0,
        0,
        0,
        0,
        0,
        0,
        0,
        0,
        0,
        0,
        0,
        0,
        0,
        0,
        0,
        0,
        0,
        0,
        0,
        0,
        0,
        0,
        0,
        0,
        0,
        0,
        0,
        0,
        0,
        0,
        0,
        0,
        0,
        0,
        0,
        0,
        0,
        0,
        0,
        0,
        0,
        7,
        7,
        0,
        0,
        0,
        0,
        0,
        0,
        0,
        0,
        0,
        0,
        0,
        0,
        0,
        0,
        0,
        0,
        0,
        0,
        0,
        0,
        0,
        0,
        0,
        0,
        0,
        0,
        0,
        0,
        0,
        0,
        0,
        0,
        0,
        0,
        0,
        0,
        0,
        0,
        0,
        0,
        0,
        0,
        0,
        0,
        0,
        0,
        0,
        0,
        0,
        0,
        0,
        0,
        0,
        0,
        0,
        0,
        0,
        0,
        0,
        0,
        0,
        0,
        0,
        0,
        0,
        0,
        0,
        0,
        0,
        0,
        0,
        0,
        0,
        0,
        0,
        0,
        0,
        0,
        0,
        0,
        0,
        0,
        0,
        0,
        0,
        0,
        0,
        0,
        0,
        0,
        0,
        0,
        0,
        0,
        7,
        8,
        0,
        0,
        0,
        0,
        0,
        0,
        0,
        0,
        0,
        0,
        0,
        0,
        0,
        0,
        0,
        0,
        0,
        0,
        0,
        0,
        0,
        0,
        0,
        0,
        0,
        0,
        0,
        0,
        0,
        0,
        0,
        0,
        0,
        0,
        0,
        0,
        0,
        0,
        0,
        0,
        0,
        0,
        0,
        0,
        0,
        0,
        0,
        0,
        0,
        0,
        0,
        0,
        0,
        0,
        0,
        0,
        0,
        0,
        0,
        0,
        0,
        0,
        0,
        0,
        0,
        0,
        0,
        0,
        0,
        0,
        0,
        0,
        0,
        0,
        0,
        0,
        0,
        0,
        0,
        0,
        0,
        0,
        0,
        0,
        0,
        0,
        0,
        0,
        0,
        0,
        0,
        0,
        0,
        0,
        8,
        7,
        0,
        0,
        0,
        0,
        0,
        0,
        0,
        0,
        0,
        0,
        0,
        0,
        0,
        0,
        0,
        0,
        0,
        0,
        0,
        0,
        0,
        0,
        0,
        0,
        0,
        0,
        0,
        0,
        0,
        0,
        0,
        0,
        0,
        0,
        0,
        0,
        0,
        0,
        0,
        0,
        0,
        0,
        0,
        0,
        0,
        0,
        0,
        0,
        0,
        0,
        0,
        0,
        0,
        0,
        0,
        0,
        0,
        0,
        0,
        0,
        0,
        0,
        0,
        0,
        0,
        0,
        0,
        0,
        0,
        0,
        0,
        0,
        0,
        0,
        0,
        0,
        0,
        0,
        0,
        0,
        0,
        0,
        0,
        0,
        0,
        0,
        0,
        0,
        0,
        0,
        0,
        0,
        0,
        8,
        7,
        0,
        0,
        0,
        0,
        0,
        0,
        0,
        0,
        0,
        0,
        0,
        0,
        0,
        0,
        0,
        0,
        0,
        0,
        0,
        0,
        0,
        0,
        0,
        0,
        0,
        0,
        0,
        0,
        0,
        0,
        0,
        0,
        0,
        0,
        0,
        0,
        0,
        0,
        0,
        0,
        0,
        0,
        0,
        0,
        0,
        0,
        0,
        0,
        0,
        0,
        0,
        0,
        0,
        0,
        0,
        0,
        0,
        0,
        0,
        0,
        0,
        0,
        0,
        0,
        0,
        0,
        0,
        0,
        0,
        0,
        0,
        0,
        0,
        0,
        0,
        0,
        0,
        0,
        0,
        0,
        0,
        0,
        0,
        0,
        0,
        0,
        0,
        0,
        0,
        0,
        0,
        0,
        0,
        0,
        7,
        7,
        0,
        0,
        0,
        0,
        0,
        0,
        0,
        0,
        0,
        0,
        0,
        0,
        0,
        0,
        0,
        0,
        0,
        0,
        0,
        0,
        0,
        0,
        0,
        0,
        0,
        0,
        0,
        0,
        0,
        0,
        0,
        0,
        0,
        0,
        0,
        0,
        0,
        0,
        0,
        0,
        0,
        0,
        0,
        0,
        0,
        0,
        0,
        0,
        0,
        0,
        0,
        0,
        0,
        0,
        0,
        0,
        0,
        0,
        0,
        0,
        0,
        0,
        0,
        0,
        0,
        0,
        0,
        0,
        0,
        0,
        0,
        0,
        0,
        0,
        0,
        0,
        0,
        0,
        0,
        0,
        0,
        0,
        0,
        0,
        0,
        0,
        0,
        0,
        0,
        0,
        0,
        0,
        0,
        7,
        7,
        0,
        0,
        0,
        0,
        0,
        0,
        0,
        0,
        0,
        0,
        0,
        0,
        0,
        0,
        0,
        0,
        0,
        0,
        0,
        0,
        0,
        0,
        0,
        0,
        0,
        0,
        0,
        0,
        0,
        0,
        0,
        0,
        0,
        0,
        0,
        0,
        0,
        0,
        0,
        0,
        0,
        0,
        0,
        0,
        0,
        0,
        0,
        0,
        0,
        0,
        0,
        0,
        0,
        0,
        0,
        0,
        0,
        0,
        0,
        0,
        0,
        0,
        0,
        0,
        0,
        0,
        0,
        0,
        0,
        0,
        0,
        0,
        0,
        0,
        0,
        0,
        0,
        0,
        0,
        0,
        0,
        0,
        0,
        0,
        0,
        0,
        0,
        0,
        0,
        0,
        0,
        0,
        0,
        0,
        0,
        0,
        0,
        0,
        0,
        0,
        0,
        0,
        0,
        0,
        0,
        0,
        0,
        0,
        0,
        0,
        0,
        0,
        0,
        0,
        0,
        0,
        0,
        0,
        0,
        0,
        0,
        0,
        0,
        0,
        0,
        0,
        0,
        0,
        0,
        0,
        0,
        0,
        0,
        0,
        0,
        0,
        0,
        0,
        0,
        0,
        0,
        0,
        0,
        0,
        0,
        0,
        0,
        0,
        0,
        0,
        0,
        0,
        0,
        0,
        0,
        0,
        0,
        0,
        0,
        0,
        0,
        0,
        0,
        0,
        0,
        0,
        0,
        0,
        0,
        0,
        0,
        0,
        0,
        0,
        0,
        0,
        0,
        0,
        0,
        0,
        0,
        0,
        0,
        0,
        0,
        0,
        0,
        0,
        0,
        0,
        0,
        0,
        0,
        0,
        0,
        0,
        0,
        0,
        0,
        0,
        0,
        0,
        0,
        0,
        0,
        0,
        0,
        0,
        0,
        0,
        0,
        0,
        0,
        0,
        0,
        0,
        0,
        0,
        0,
        0,
        0,
        0,
        0,
        0,
        0,
        0,
        0,
        0,
        0,
        0,
        0,
        0,
        0,
        0,
        0,
        0,
        0,
        0,
        0,
        0,
        0,
        0,
        0,
        0,
        0,
        0,
        0,
        0,
        0,
        0,
        0,
        0,
        0,
        0,
        0,
        0,
        0,
        0,
        0,
        0,
        0,
        0,
        0,
        0,
        0,
        0,
        0,
        0,
        0,
        0,
        0,
        0,
        0,
        0,
        0,
        0,
        0,
        0,
        0,
        0,
        0,
        0,
        0,
        0,
        0,
        8,
        7,
        0,
        0,
        0,
        0,
        0,
        0,
        0,
        0,
        0,
        0,
        0,
        0,
        0,
        0,
        0,
        0,
        0,
        0,
        0,
        0,
        0,
        0,
        0,
        0,
        0,
        0,
        0,
        0,
        0,
        0,
        0,
        0,
        0,
        0,
        0,
        0,
        0,
        0,
        0,
        0,
        0,
        0,
        0,
        0,
        0,
        0,
        0,
        0,
        0,
        0,
        0,
        0,
        0,
        0,
        0,
        0,
        0,
        0,
        0,
        0,
        0,
        0,
        0,
        0,
        0,
        0,
        0,
        0,
        0,
        0,
        0,
        0,
        0,
        0,
        0,
        0,
        0,
        0,
        0,
        0,
        0,
        0,
        0,
        0,
        0,
        0,
        0,
        0,
        0,
        0,
        0,
        0,
        0,
        0,
        7,
        7,
        0,
        0,
        0,
        0,
        0,
        0,
        0,
        0,
        0,
        0,
        0,
        0,
        0,
        0,
        0,
        0,
        0,
        0,
        0,
        0,
        0,
        0,
        0,
        0,
        0,
        0,
        0,
        0,
        0,
        0,
        0,
        0,
        0,
        0,
        0,
        0,
        0,
        0,
        0,
        0,
        0,
        0,
        0,
        0,
        0,
        0,
        0,
        0,
        0,
        0,
        0,
        0,
        0,
        0,
        0,
        0,
        0,
        0,
        0,
        0,
        0,
        0,
        0,
        0,
        0,
        0,
        0,
        0,
        0,
        0,
        0,
        0,
        0,
        0,
        0,
        0,
        0,
        0,
        0,
        0,
        0,
        0,
        0,
        0,
        0,
        0,
        0,
        0,
        0,
        0,
        0,
        0,
        0,
        7,
        7,
        0,
        0,
        0,
        0,
        0,
        0,
        0,
        0,
        0,
        0,
        0,
        0,
        0,
        0,
        0,
        0,
        0,
        0,
        0,
        0,
        0,
        0,
        0,
        0,
        0,
        0,
        0,
        0,
        0,
        0,
        0,
        0,
        0,
        0,
        0,
        0,
        0,
        0,
        0,
        0,
        0,
        0,
        0,
        0,
        0,
        0,
        0,
        0,
        0,
        0,
        0,
        0,
        0,
        0,
        0,
        0,
        0,
        0,
        0,
        0,
        0,
        0,
        0,
        0,
        0,
        0,
        0,
        0,
        0,
        0,
        0,
        0,
        0,
        0,
        0,
        0,
        0,
        0,
        0,
        0,
        0,
        0,
        0,
        0,
        0,
        0,
        0,
        0,
        0,
        0,
        0,
        0,
        0,
        0,
        7,
        8,
        0,
        0,
        0,
        0,
        0,
        0,
        0,
        0,
        0,
        0,
        0,
        0,
        0,
        0,
        0,
        0,
        0,
        0,
        0,
        0,
        0,
        0,
        0,
        0,
        0,
        0,
        0,
        0,
        0,
        0,
        0,
        0,
        0,
        0,
        0,
        0,
        0,
        0,
        0,
        0,
        0,
        0,
        0,
        0,
        0,
        0,
        0,
        0,
        0,
        0,
        0,
        0,
        0,
        0,
        0,
        0,
        0,
        0,
        0,
        0,
        0,
        0,
        0,
        0,
        0,
        0,
        0,
        0,
        0,
        0,
        0,
        0,
        0,
        0,
        0,
        0,
        0,
        0,
        0,
        0,
        0,
        0,
        0,
        0,
        0,
        0,
        0,
        0,
        0,
        0,
        0,
        0,
        0,
        0,
        8,
        7,
        0,
        0,
        0,
        0,
        0,
        0,
        0,
        0,
        0,
        0,
        0,
        0,
        0,
        0,
        0,
        0,
        0,
        0,
        0,
        0,
        0,
        0,
        0,
        0,
        0,
        0,
        0,
        0,
        0,
        0,
        0,
        0,
        0,
        0,
        0,
        0,
        0,
        0,
        0,
        0,
        0,
        0,
        0,
        0,
        0,
        0,
        0,
        0,
        0,
        0,
        0,
        0,
        0,
        0,
        0,
        0,
        0,
        0,
        0,
        0,
        0,
        0,
        0,
        0,
        0,
        0,
        0,
        0,
        0,
        0,
        0,
        0,
        0,
        0,
        0,
        0,
        0,
        0,
        0,
        0,
        0,
        0,
        0,
        0,
        0,
        0,
        0,
        0,
        0,
        0,
        0,
        0,
        0,
        8,
        7,
        0,
        0,
        0,
        0,
        0,
        0,
        0,
        0,
        0,
        0,
        0,
        0,
        0,
        0,
        0,
        0,
        0,
        0,
        0,
        0,
        0,
        0,
        0,
        0,
        0,
        0,
        0,
        0,
        0,
        0,
        0,
        0,
        0,
        0,
        0,
        0,
        0,
        0,
        0,
        0,
        0,
        0,
        0,
        0,
        0,
        0,
        0,
        0,
        0,
        0,
        0,
        0,
        0,
        0,
        0,
        0,
        0,
        0,
        0,
        0,
        0,
        0,
        0,
        0,
        0,
        0,
        0,
        0,
        0,
        0,
        0,
        0,
        0,
        0,
        0,
        0,
        0,
        0,
        0,
        0,
        0,
        0,
        0,
        0,
        0,
        0,
        0,
        0,
        0,
        0,
        0,
        0,
        0,
        0,
        7,
        7,
        0,
        0,
        0,
        0,
        0,
        0,
        0,
        0,
        0,
        0,
        0,
        0,
        0,
        0,
        0,
        0,
        0,
        0,
        0,
        0,
        0,
        0,
        0,
        0,
        0,
        0,
        0,
        0,
        0,
        0,
        0,
        0,
        0,
        0,
        0,
        0,
        0,
        0,
        0,
        0,
        0,
        0,
        0,
        0,
        0,
        0,
        0,
        0,
        0,
        0,
        0,
        0,
        0,
        0,
        0,
        0,
        0,
        0,
        0,
        0,
        0,
        0,
        0,
        0,
        0,
        0,
        0,
        0,
        0,
        0,
        0,
        0,
        0,
        0,
        0,
        0,
        0,
        0,
        0,
        0,
        0,
        0,
        0,
        0,
        0,
        0,
        0,
        0,
        0,
        0,
        0,
        0,
        0,
        0,
        7,
        8,
        0,
        0,
        0,
        0,
        0,
        0,
        0,
        0,
        0,
        0,
        0,
        0,
        0,
        0,
        0,
        0,
        0,
        0,
        0,
        0,
        0,
        0,
        0,
        0,
        0,
        0,
        0,
        0,
        0,
        0,
        0,
        0,
        0,
        0,
        0,
        0,
        0,
        0,
        0,
        0,
        0,
        0,
        0,
        0,
        0,
        0,
        0,
        0,
        0,
        0,
        0,
        0,
        0,
        0,
        0,
        0,
        0,
        0,
        0,
        0,
        0,
        0,
        0,
        0,
        0,
        0,
        0,
        0,
        0,
        0,
        0,
        0,
        0,
        0,
        0,
        0,
        0,
        0,
        0,
        0,
        0,
        0,
        0,
        0,
        0,
        0,
        0,
        0,
        0,
        0,
        0,
        0,
        0,
        0,
        8,
        7,
        0,
        0,
        0,
        0,
        0,
        0,
        0,
        0,
        0,
        0,
        0,
        0,
        0,
        0,
        0,
        0,
        0,
        0,
        0,
        0,
        0,
        0,
        0,
        0,
        0,
        0,
        0,
        0,
        0,
        0,
        0,
        0,
        0,
        0,
        0,
        0,
        0,
        0,
        0,
        0,
        0,
        0,
        0,
        0,
        0,
        0,
        0,
        0,
        0,
        0,
        0,
        0,
        0,
        0,
        0,
        0,
        0,
        0,
        0,
        0,
        0,
        0,
        0,
        0,
        0,
        0,
        0,
        0,
        0,
        0,
        0,
        0,
        0,
        0,
        0,
        0,
        0,
        0,
        0,
        0,
        0,
        0,
        0,
        0,
        0,
        0,
        0,
        0,
        0,
        0,
        0,
        0,
        0,
        0,
        7,
        7,
        0,
        0,
        0,
        0,
        0,
        0,
        0,
        0,
        0,
        0,
        0,
        0,
        0,
        0,
        0,
        0,
        0,
        0,
        0,
        0,
        0,
        0,
        0,
        0,
        0,
        0,
        0,
        0,
        0,
        0,
        0,
        0,
        0,
        0,
        0,
        0,
        0,
        0,
        0,
        0,
        0,
        0,
        0,
        0,
        0,
        0,
        0,
        0,
        0,
        0,
        0,
        0,
        0,
        0,
        0,
        0,
        0,
        0,
        0,
        0,
        0,
        0,
        0,
        0,
        0,
        0,
        0,
        0,
        0,
        0,
        0,
        0,
        0,
        0,
        0,
        0,
        0,
        0,
        0,
        0,
        0,
        0,
        0,
        0,
        0,
        0,
        0,
        0,
        0,
        0,
        0,
        0,
        0,
        0,
        7,
        8,
        0,
        0,
        0,
        0,
        0,
        0,
        0,
        0,
        0,
        0,
        0,
        0,
        0,
        0,
        0,
        0,
        0,
        0,
        0,
        0,
        0,
        0,
        0,
        0,
        0,
        0,
        0,
        0,
        0,
        0,
        0,
        0,
        0,
        0,
        0,
        0,
        0,
        0,
        0,
        0,
        0,
        0,
        0,
        0,
        0,
        0,
        0,
        0,
        0,
        0,
        0,
        0,
        0,
        0,
        0,
        0,
        0,
        0,
        0,
        0,
        0,
        0,
        0,
        0,
        0,
        0,
        0,
        0,
        0,
        0,
        0,
        0,
        0,
        0,
        0,
        0,
        0,
        0,
        0,
        0,
        0,
        0,
        0,
        0,
        0,
        0,
        0,
        0,
        0,
        0,
        0,
        0,
        0,
        0,
        8,
        7,
        0,
        0,
        0,
        0,
        0,
        0,
        0,
        0,
        0,
        0,
        0,
        0,
        0,
        0,
        0,
        0,
        0,
        0,
        0,
        0,
        0,
        0,
        0,
        0,
        0,
        0,
        0,
        0,
        0,
        0,
        0,
        0,
        0,
        0,
        0,
        0,
        0,
        0,
        0,
        0,
        0,
        0,
        0,
        0,
        0,
        0,
        0,
        0,
        0,
        0,
        0,
        0,
        0,
        0,
        0,
        0,
        0,
        0,
        0,
        0,
        0,
        0,
        0,
        0,
        0,
        0,
        0,
        0,
        0,
        0,
        0,
        0,
        0,
        0,
        0,
        0,
        0,
        0,
        0,
        0,
        0,
        0,
        0,
        0,
        0,
        0,
        0,
        0,
        0,
        0,
        0,
        0,
        0,
        0,
        7,
        7,
        0,
        0,
        0,
        0,
        0,
        0,
        0,
        0,
        0,
        0,
        0,
        0,
        0,
        0,
        0,
        0,
        0,
        0,
        0,
        0,
        0,
        0,
        0,
        0,
        0,
        0,
        0,
        0,
        0,
        0,
        0,
        0,
        0,
        0,
        0,
        0,
        0,
        0,
        0,
        0,
        0,
        0,
        0,
        0,
        0,
        0,
        0,
        0,
        0,
        0,
        0,
        0,
        0,
        0,
        0,
        0,
        0,
        0,
        0,
        0,
        0,
        0,
        0,
        0,
        0,
        0,
        0,
        0,
        0,
        0,
        0,
        0,
        0,
        0,
        0,
        0,
        0,
        0,
        0,
        0,
        0,
        0,
        0,
        0,
        0,
        0,
        0,
        0,
        0,
        0,
        0,
        0,
        0,
        0,
        7,
        8,
        0,
        0,
        0,
        0,
        0,
        0,
        0,
        0,
        0,
        0,
        0,
        0,
        0,
        0,
        0,
        0,
        0,
        0,
        0,
        0,
        0,
        0,
        0,
        0,
        0,
        0,
        0,
        0,
        0,
        0,
        0,
        0,
        0,
        0,
        0,
        0,
        0,
        0,
        0,
        0,
        0,
        0,
        0,
        0,
        0,
        0,
        0,
        0,
        0,
        0,
        0,
        0,
        0,
        0,
        0,
        0,
        0,
        0,
        0,
        0,
        0,
        0,
        0,
        0,
        0,
        0,
        0,
        0,
        0,
        0,
        0,
        0,
        0,
        0,
        0,
        0,
        0,
        0,
        0,
        0,
        0,
        0,
        0,
        0,
        0,
        0,
        0,
        0,
        0,
        0,
        0,
        0,
        0,
        0,
        0,
        7,
        7,
        0,
        0,
        0,
        0,
        0,
        0,
        0,
        0,
        0,
        0,
        0,
        0,
        0,
        0,
        0,
        0,
        0,
        0,
        0,
        0,
        0,
        0,
        0,
        0,
        0,
        0,
        0,
        0,
        0,
        0,
        0,
        0,
        0,
        0,
        0,
        0,
        0,
        0,
        0,
        0,
        0,
        0,
        0,
        0,
        0,
        0,
        0,
        0,
        0,
        0,
        0,
        0,
        0,
        0,
        0,
        0,
        0,
        0,
        0,
        0,
        0,
        0,
        0,
        0,
        0,
        0,
        0,
        0,
        0,
        0,
        0,
        0,
        0,
        0,
        0,
        0,
        0,
        0,
        0,
        0,
        0,
        0,
        0,
        0,
        0,
        0,
        0,
        0,
        0,
        0,
        0,
        0,
        0,
        0,
        7,
        8,
        0,
        0,
        0,
        0,
        0,
        0,
        0,
        0,
        0,
        0,
        0,
        0,
        0,
        0,
        0,
        0,
        0,
        0,
        0,
        0,
        0,
        0,
        0,
        0,
        0,
        0,
        0,
        0,
        0,
        0,
        0,
        0,
        0,
        0,
        0,
        0,
        0,
        0,
        0,
        0,
        0,
        0,
        0,
        0,
        0,
        0,
        0,
        0,
        0,
        0,
        0,
        0,
        0,
        0,
        0,
        0,
        0,
        0,
        0,
        0,
        0,
        0,
        0,
        0,
        0,
        0,
        0,
        0,
        0,
        0,
        0,
        0,
        0,
        0,
        0,
        0,
        0,
        0,
        0,
        0,
        0,
        0,
        0,
        0,
        0,
        0,
        0,
        0,
        0,
        0,
        0,
        0,
        0,
        0,
        8,
        7,
        0,
        0,
        0,
        0,
        0,
        0,
        0,
        0,
        0,
        0,
        0,
        0,
        0,
        0,
        0,
        0,
        0,
        0,
        0,
        0,
        0,
        0,
        0,
        0,
        0,
        0,
        0,
        0,
        0,
        0,
        0,
        0,
        0,
        0,
        0,
        0,
        0,
        0,
        0,
        0,
        0,
        0,
        0,
        0,
        0,
        0,
        0,
        0,
        0,
        0,
        0,
        0,
        0,
        0,
        0,
        0,
        0,
        0,
        0,
        0,
        0,
        0,
        0,
        0,
        0,
        0,
        0,
        0,
        0,
        0,
        0,
        0,
        0,
        0,
        0,
        0,
        0,
        0,
        0,
        0,
        0,
        0,
        0,
        0,
        0,
        0,
        0,
        0,
        0,
        0,
        0,
        0,
        0,
        0,
        0,
        7,
        8,
        0,
        0,
        0,
        0,
        0,
        0,
        0,
        0,
        0,
        0,
        0,
        0,
        0,
        0,
        0,
        0,
        0,
        0,
        0,
        0,
        0,
        0,
        0,
        0,
        0,
        0,
        0,
        0,
        0,
        0,
        0,
        0,
        0,
        0,
        0,
        0,
        0,
        0,
        0,
        0,
        0,
        0,
        0,
        0,
        0,
        0,
        0,
        0,
        0,
        0,
        0,
        0,
        0,
        0,
        0,
        0,
        0,
        0,
        0,
        0,
        0,
        0,
        0,
        0,
        0,
        0,
        0,
        0,
        0,
        0,
        0,
        0,
        0,
        0,
        0,
        0,
        0,
        0,
        0,
        0,
        0,
        0,
        0,
        0,
        0,
        0,
        0,
        0,
        0,
        0,
        0,
        0,
        0,
        0,
        8,
        7,
        0,
        0,
        0,
        0,
        0,
        0,
        0,
        0,
        0,
        0,
        0,
        0,
        0,
        0,
        0,
        0,
        0,
        0,
        0,
        0,
        0,
        0,
        0,
        0,
        0,
        0,
        0,
        0,
        0,
        0,
        0,
        0,
        0,
        0,
        0,
        0,
        0,
        0,
        0,
        0,
        0,
        0,
        0,
        0,
        0,
        0,
        0,
        0,
        0,
        0,
        0,
        0,
        0,
        0,
        0,
        0,
        0,
        0,
        0,
        0,
        0,
        0,
        0,
        0,
        0,
        0,
        0,
        0,
        0,
        0,
        0,
        0,
        0,
        0,
        0,
        0,
        0,
        0,
        0,
        0,
        0,
        0,
        0,
        0,
        0,
        0,
        0,
        0,
        0,
        0,
        0,
        0,
        0,
        0,
        0,
        7,
        8,
        0,
        0,
        0,
        0,
        0,
        0,
        0,
        0,
        0,
        0,
        0,
        0,
        0,
        0,
        0,
        0,
        0,
        0,
        0,
        0,
        0,
        0,
        0,
        0,
        0,
        0,
        0,
        0,
        0,
        0,
        0,
        0,
        0,
        0,
        0,
        0,
        0,
        0,
        0,
        0,
        0,
        0,
        0,
        0,
        0,
        0,
        0,
        0,
        0,
        0,
        0,
        0,
        0,
        0,
        0,
        0,
        0,
        0,
        0,
        0,
        0,
        0,
        0,
        0,
        0,
        0,
        0,
        0,
        0,
        0,
        0,
        0,
        0,
        0,
        0,
        0,
        0,
        0,
        0,
        0,
        0,
        0,
        0,
        0,
        0,
        0,
        0,
        0,
        0,
        0,
        0,
        0,
        0,
        0,
        8,
        7,
        0,
        0,
        0,
        0,
        0,
        0,
        0,
        0,
        0,
        0,
        0,
        0,
        0,
        0,
        0,
        0,
        0,
        0,
        0,
        0,
        0,
        0,
        0,
        0,
        0,
        0,
        0,
        0,
        0,
        0,
        0,
        0,
        0,
        0,
        0,
        0,
        0,
        0,
        0,
        0,
        0,
        0,
        0,
        0,
        0,
        0,
        0,
        0,
        0,
        0,
        0,
        0,
        0,
        0,
        0,
        0,
        0,
        0,
        0,
        0,
        0,
        0,
        0,
        0,
        0,
        0,
        0,
        0,
        0,
        0,
        0,
        0,
        0,
        0,
        0,
        0,
        0,
        0,
        0,
        0,
        0,
        0,
        0,
        0,
        0,
        0,
        0,
        0,
        0,
        0,
        0,
        0,
        0,
        0,
        7,
        7,
        0,
        0,
        0,
        0,
        0,
        0,
        0,
        0,
        0,
        0,
        0,
        0,
        0,
        0,
        0,
        0,
        0,
        0,
        0,
        0,
        0,
        0,
        0,
        0,
        0,
        0,
        0,
        0,
        0,
        0,
        0,
        0,
        0,
        0,
        0,
        0,
        0,
        0,
        0,
        0,
        0,
        0,
        0,
        0,
        0,
        0,
        0,
        0,
        0,
        0,
        0,
        0,
        0,
        0,
        0,
        0,
        0,
        0,
        0,
        0,
        0,
        0,
        0,
        0,
        0,
        0,
        0,
        0,
        0,
        0,
        0,
        0,
        0,
        0,
        0,
        0,
        0,
        0,
        0,
        0,
        0,
        0,
        0,
        0,
        0,
        0,
        0,
        0,
        0,
        0,
        0,
        0,
        0,
        0,
        0,
        8,
        7,
        0,
        0,
        0,
        0,
        0,
        0,
        0,
        0,
        0,
        0,
        0,
        0,
        0,
        0,
        0,
        0,
        0,
        0,
        0,
        0,
        0,
        0,
        0,
        0,
        0,
        0,
        0,
        0,
        0,
        0,
        0,
        0,
        0,
        0,
        0,
        0,
        0,
        0,
        0,
        0,
        0,
        0,
        0,
        0,
        0,
        0,
        0,
        0,
        0,
        0,
        0,
        0,
        0,
        0,
        0,
        0,
        0,
        0,
        0,
        0,
        0,
        0,
        0,
        0,
        0,
        0,
        0,
        0,
        0,
        0,
        0,
        0,
        0,
        0,
        0,
        0,
        0,
        0,
        0,
        0,
        0,
        0,
        0,
        0,
        0,
        0,
        0,
        0,
        0,
        0,
        0,
        0,
        0,
        0,
        7,
        7,
        0,
        0,
        0,
        0,
        0,
        0,
        0,
        0,
        0,
        0,
        0,
        0,
        0,
        0,
        0,
        0,
        0,
        0,
        0,
        0,
        0,
        0,
        0,
        0,
        0,
        0,
        0,
        0,
        0,
        0,
        0,
        0,
        0,
        0,
        0,
        0,
        0,
        0,
        0,
        0,
        0,
        0,
        0,
        0,
        0,
        0,
        0,
        0,
        0,
        0,
        0,
        0,
        0,
        0,
        0,
        0,
        0,
        0,
        0,
        0,
        0,
        0,
        0,
        0,
        0,
        0,
        0,
        0,
        0,
        0,
        0,
        0,
        0,
        0,
        0,
        0,
        0,
        0,
        0,
        0,
        0,
        0,
        0,
        0,
        0,
        0,
        0,
        0,
        0,
        0,
        0,
        0,
        0,
        0,
        0,
        8,
        7,
        0,
        0,
        0,
        0,
        0,
        0,
        0,
        0,
        0,
        0,
        0,
        0,
        0,
        0,
        0,
        0,
        0,
        0,
        0,
        0,
        0,
        0,
        0,
        0,
        0,
        0,
        0,
        0,
        0,
        0,
        0,
        0,
        0,
        0,
        0,
        0,
        0,
        0,
        0,
        0,
        0,
        0,
        0,
        0,
        0,
        0,
        0,
        0,
        0,
        0,
        0,
        0,
        0,
        0,
        0,
        0,
        0,
        0,
        0,
        0,
        0,
        0,
        0,
        0,
        0,
        0,
        0,
        0,
        0,
        0,
        0,
        0,
        0,
        0,
        0,
        0,
        0,
        0,
        0,
        0,
        0,
        0,
        0,
        0,
        0,
        0,
        0,
        0,
        0,
        0,
        0,
        0,
        0,
        0,
        7,
        7,
        0,
        0,
        0,
        0,
        0,
        0,
        0,
        0,
        0,
        0,
        0,
        0,
        0,
        0,
        0,
        0,
        0,
        0,
        0,
        0,
        0,
        0,
        0,
        0,
        0,
        0,
        0,
        0,
        0,
        0,
        0,
        0,
        0,
        0,
        0,
        0,
        0,
        0,
        0,
        0,
        0,
        0,
        0,
        0,
        0,
        0,
        0,
        0,
        0,
        0,
        0,
        0,
        0,
        0,
        0,
        0,
        0,
        0,
        0,
        0,
        0,
        0,
        0,
        0,
        0,
        0,
        0,
        0,
        0,
        0,
        0,
        0,
        0,
        0,
        0,
        0,
        0,
        0,
        0,
        0,
        0,
        0,
        0,
        0,
        0,
        0,
        0,
        0,
        0,
        0,
        0,
        0,
        0,
        0,
        0,
        0,
        0,
        0,
        0,
        0,
        0,
        0,
        0,
        0,
        0,
        0,
        0,
        0,
        0,
        0,
        0,
        0,
        0,
        0,
        0,
        0,
        0,
        0,
        0,
        0,
        0,
        0,
        0,
        0,
        0,
        0,
        0,
        0,
        0,
        0,
        0,
        0,
        0,
        0,
        0,
        0,
        0,
        0,
        0,
        0,
        0,
        0,
        0,
        0,
        0,
        0,
        0,
        0,
        0,
        0,
        0,
        0,
        0,
        0,
        0,
        0,
        0,
        0,
        0,
        0,
        0,
        0,
        0,
        0,
        0,
        0,
        0,
        0,
        0,
        0,
        0,
        0,
        0,
        0,
        0,
        0,
        0,
        0,
        0,
        0,
        0,
        0,
        0,
        0,
        0,
        0,
        0,
        0,
        0,
        0,
        0,
        0,
        7,
        0,
        0,
        0,
        0,
        0,
        0,
        0,
        0,
        0,
        0,
        0,
        0,
        0,
        0,
        0,
        0,
        0,
        0,
        0,
        0,
        0,
        0,
        0,
        0,
        0,
        0,
        0,
        0,
        0,
        0,
        0,
        0,
        0,
        0,
        0,
        0,
        0,
        0,
        0,
        0,
        0,
        0,
        0,
        0,
        0,
        0,
        0,
        0,
        0,
        0,
        0,
        0,
        0,
        0,
        0,
        0,
        0,
        0,
        0,
        0,
        0,
        0,
        0,
        0,
        0,
        0,
        0,
        0,
        0,
        0,
        0,
        0,
        0,
        0,
        0,
        0,
        0,
        0,
        0,
        0,
        0,
        0,
        0,
        0,
        0,
        0,
        0,
        0,
        0,
        0,
        0,
        0,
        0,
        0,
        7,
        8,
        0,
        0,
        0,
        0,
        0,
        0,
        0,
        0,
        0,
        0,
        0,
        0,
        0,
        0,
        0,
        0,
        0,
        0,
        0,
        0,
        0,
        0,
        0,
        0,
        0,
        0,
        0,
        0,
        0,
        0,
        0,
        0,
        0,
        0,
        0,
        0,
        0,
        0,
        0,
        0,
        0,
        0,
        0,
        0,
        0,
        0,
        0,
        0,
        0,
        0,
        0,
        0,
        0,
        0,
        0,
        0,
        0,
        0,
        0,
        0,
        0,
        0,
        0,
        0,
        0,
        0,
        0,
        0,
        0,
        0,
        0,
        0,
        0,
        0,
        0,
        0,
        0,
        0,
        0,
        0,
        0,
        0,
        0,
        0,
        0,
        0,
        0,
        0,
        0,
        0,
        0,
        0,
        0,
        0,
        8,
        7,
        0,
        0,
        0,
        0,
        0,
        0,
        0,
        0,
        0,
        0,
        0,
        0,
        0,
        0,
        0,
        0,
        0,
        0,
        0,
        0,
        0,
        0,
        0,
        0,
        0,
        0,
        0,
        0,
        0,
        0,
        0,
        0,
        0,
        0,
        0,
        0,
        0,
        0,
        0,
        0,
        0,
        0,
        0,
        0,
        0,
        0,
        0,
        0,
        0,
        0,
        0,
        0,
        0,
        0,
        0,
        0,
        0,
        0,
        0,
        0,
        0,
        0,
        0,
        0,
        0,
        0,
        0,
        0,
        0,
        0,
        0,
        0,
        0,
        0,
        0,
        0,
        0,
        0,
        0,
        0,
        0,
        0,
        0,
        0,
        0,
        0,
        0,
        0,
        0,
        0,
        0,
        0,
        0,
        0,
        7,
        7,
        0,
        0,
        0,
        0,
        0,
        0,
        0,
        0,
        0,
        0,
        0,
        0,
        0,
        0,
        0,
        0,
        0,
        0,
        0,
        0,
        0,
        0,
        0,
        0,
        0,
        0,
        0,
        0,
        0,
        0,
        0,
        0,
        0,
        0,
        0,
        0,
        0,
        0,
        0,
        0,
        0,
        0,
        0,
        0,
        0,
        0,
        0,
        0,
        0,
        0,
        0,
        0,
        0,
        0,
        0,
        0,
        0,
        0,
        0,
        0,
        0,
        0,
        0,
        0,
        0,
        0,
        0,
        0,
        0,
        0,
        0,
        0,
        0,
        0,
        0,
        0,
        0,
        0,
        0,
        0,
        0,
        0,
        0,
        0,
        0,
        0,
        0,
        0,
        0,
        0,
        0,
        0,
        0,
        0,
        7,
        8,
        0,
        0,
        0,
        0,
        0,
        0,
        0,
        0,
        0,
        0,
        0,
        0,
        0,
        0,
        0,
        0,
        0,
        0,
        0,
        0,
        0,
        0,
        0,
        0,
        0,
        0,
        0,
        0,
        0,
        0,
        0,
        0,
        0,
        0,
        0,
        0,
        0,
        0,
        0,
        0,
        0,
        0,
        0,
        0,
        0,
        0,
        0,
        0,
        0,
        0,
        0,
        0,
        0,
        0,
        0,
        0,
        0,
        0,
        0,
        0,
        0,
        0,
        0,
        0,
        0,
        0,
        0,
        0,
        0,
        0,
        0,
        0,
        0,
        0,
        0,
        0,
        0,
        0,
        0,
        0,
        0,
        0,
        0,
        0,
        0,
        0,
        0,
        0,
        0,
        0,
        0,
        0,
        0,
        0,
        8,
        7,
        0,
        0,
        0,
        0,
        0,
        0,
        0,
        0,
        0,
        0,
        0,
        0,
        0,
        0,
        0,
        0,
        0,
        0,
        0,
        0,
        0,
        0,
        0,
        0,
        0,
        0,
        0,
        0,
        0,
        0,
        0,
        0,
        0,
        0,
        0,
        0,
        0,
        0,
        0,
        0,
        0,
        0,
        0,
        0,
        0,
        0,
        0,
        0,
        0,
        0,
        0,
        0,
        0,
        0,
        0,
        0,
        0,
        0,
        0,
        0,
        0,
        0,
        0,
        0,
        0,
        0,
        0,
        0,
        0,
        0,
        0,
        0,
        0,
        0,
        0,
        0,
        0,
        0,
        0,
        0,
        0,
        0,
        0,
        0,
        0,
        0,
        0,
        0,
        0,
        0,
        0,
        0,
        0,
        0,
        7,
        7,
        0,
        0,
        0,
        0,
        0,
        0,
        0,
        0,
        0,
        0,
        0,
        0,
        0,
        0,
        0,
        0,
        0,
        0,
        0,
        0,
        0,
        0,
        0,
        0,
        0,
        0,
        0,
        0,
        0,
        0,
        0,
        0,
        0,
        0,
        0,
        0,
        0,
        0,
        0,
        0,
        0,
        0,
        0,
        0,
        0,
        0,
        0,
        0,
        0,
        0,
        0,
        0,
        0,
        0,
        0,
        0,
        0,
        0,
        0,
        0,
        0,
        0,
        0,
        0,
        0,
        0,
        0,
        0,
        0,
        0,
        0,
        0,
        0,
        0,
        0,
        0,
        0,
        0,
        0,
        0,
        0,
        0,
        0,
        0,
        0,
        0,
        0,
        0,
        0,
        0,
        0,
        0,
        0,
        0,
        7,
        8,
        0,
        0,
        0,
        0,
        0,
        0,
        0,
        0,
        0,
        0,
        0,
        0,
        0,
        0,
        0,
        0,
        0,
        0,
        0,
        0,
        0,
        0,
        0,
        0,
        0,
        0,
        0,
        0,
        0,
        0,
        0,
        0,
        0,
        0,
        0,
        0,
        0,
        0,
        0,
        0,
        0,
        0,
        0,
        0,
        0,
        0,
        0,
        0,
        0,
        0,
        0,
        0,
        0,
        0,
        0,
        0,
        0,
        0,
        0,
        0,
        0,
        0,
        0,
        0,
        0,
        0,
        0,
        0,
        0,
        0,
        0,
        0,
        0,
        0,
        0,
        0,
        0,
        0,
        0,
        0,
        0,
        0,
        0,
        0,
        0,
        0,
        0,
        0,
        0,
        0,
        0,
        0,
        0,
        0,
        8,
        7,
        0,
        0,
        0,
        0,
        0,
        0,
        0,
        0,
        0,
        0,
        0,
        0,
        0,
        0,
        0,
        0,
        0,
        0,
        0,
        0,
        0,
        0,
        0,
        0,
        0,
        0,
        0,
        0,
        0,
        0,
        0,
        0,
        0,
        0,
        0,
        0,
        0,
        0,
        0,
        0,
        0,
        0,
        0,
        0,
        0,
        0,
        0,
        0,
        0,
        0,
        0,
        0,
        0,
        0,
        0,
        0,
        0,
        0,
        0,
        0,
        0,
        0,
        0,
        0,
        0,
        0,
        0,
        0,
        0,
        0,
        0,
        0,
        0,
        0,
        0,
        0,
        0,
        0,
        0,
        0,
        0,
        0,
        0,
        0,
        0,
        0,
        0,
        0,
        0,
        0,
        0,
        0,
        0,
        8,
        7,
        0,
        0,
        0,
        0,
        0,
        0,
        0,
        0,
        0,
        0,
        0,
        0,
        0,
        0,
        0,
        0,
        0,
        0,
        0,
        0,
        0,
        0,
        0,
        0,
        0,
        0,
        0,
        0,
        0,
        0,
        0,
        0,
        0,
        0,
        0,
        0,
        0,
        0,
        0,
        0,
        0,
        0,
        0,
        0,
        0,
        0,
        0,
        0,
        0,
        0,
        0,
        0,
        0,
        0,
        0,
        0,
        0,
        0,
        0,
        0,
        0,
        0,
        0,
        0,
        0,
        0,
        0,
        0,
        0,
        0,
        0,
        0,
        0,
        0,
        0,
        0,
        0,
        0,
        0,
        0,
        0,
        0,
        0,
        0,
        0,
        0,
        0,
        0,
        0,
        0,
        0,
        0,
        0,
        0,
        7,
        7,
        0,
        0,
        0,
        0,
        0,
        0,
        0,
        0,
        0,
        0,
        0,
        0,
        0,
        0,
        0,
        0,
        0,
        0,
        0,
        0,
        0,
        0,
        0,
        0,
        0,
        0,
        0,
        0,
        0,
        0,
        0,
        0,
        0,
        0,
        0,
        0,
        0,
        0,
        0,
        0,
        0,
        0,
        0,
        0,
        0,
        0,
        0,
        0,
        0,
        0,
        0,
        0,
        0,
        0,
        0,
        0,
        0,
        0,
        0,
        0,
        0,
        0,
        0,
        0,
        0,
        0,
        0,
        0,
        0,
        0,
        0,
        0,
        0,
        0,
        0,
        0,
        0,
        0,
        0,
        0,
        0,
        0,
        0,
        0,
        0,
        0,
        0,
        0,
        0,
        0,
        0,
        0,
        0,
        0,
        7,
        8,
        0,
        0,
        0,
        0,
        0,
        0,
        0,
        0,
        0,
        0,
        0,
        0,
        0,
        0,
        0,
        0,
        0,
        0,
        0,
        0,
        0,
        0,
        0,
        0,
        0,
        0,
        0,
        0,
        0,
        0,
        0,
        0,
        0,
        0,
        0,
        0,
        0,
        0,
        0,
        0,
        0,
        0,
        0,
        0,
        0,
        0,
        0,
        0,
        0,
        0,
        0,
        0,
        0,
        0,
        0,
        0,
        0,
        0,
        0,
        0,
        0,
        0,
        0,
        0,
        0,
        0,
        0,
        0,
        0,
        0,
        0,
        0,
        0,
        0,
        0,
        0,
        0,
        0,
        0,
        0,
        0,
        0,
        0,
        0,
        0,
        0,
        0,
        0,
        0,
        0,
        0,
        0,
        0,
        7,
        8,
        0,
        0,
        0,
        0,
        0,
        0,
        0,
        0,
        0,
        0,
        0,
        0,
        0,
        0,
        0,
        0,
        0,
        0,
        0,
        0,
        0,
        0,
        0,
        0,
        0,
        0,
        0,
        0,
        0,
        0,
        0,
        0,
        0,
        0,
        0,
        0,
        0,
        0,
        0,
        0,
        0,
        0,
        0,
        0,
        0,
        0,
        0,
        0,
        0,
        0,
        0,
        0,
        0,
        0,
        0,
        0,
        0,
        0,
        0,
        0,
        0,
        0,
        0,
        0,
        0,
        0,
        0,
        0,
        0,
        0,
        0,
        0,
        0,
        0,
        0,
        0,
        0,
        0,
        0,
        0,
        0,
        0,
        0,
        0,
        0,
        0,
        0,
        0,
        0,
        0,
        0,
        0,
        0,
        0,
        8,
        7,
        0,
        0,
        0,
        0,
        0,
        0,
        0,
        0,
        0,
        0,
        0,
        0,
        0,
        0,
        0,
        0,
        0,
        0,
        0,
        0,
        0,
        0,
        0,
        0,
        0,
        0,
        0,
        0,
        0,
        0,
        0,
        0,
        0,
        0,
        0,
        0,
        0,
        0,
        0,
        0,
        0,
        0,
        0,
        0,
        0,
        0,
        0,
        0,
        0,
        0,
        0,
        0,
        0,
        0,
        0,
        0,
        0,
        0,
        0,
        0,
        0,
        0,
        0,
        0,
        0,
        0,
        0,
        0,
        0,
        0,
        0,
        0,
        0,
        0,
        0,
        0,
        0,
        0,
        0,
        0,
        0,
        0,
        0,
        0,
        0,
        0,
        0,
        0,
        0,
        0,
        0,
        0,
        0,
        8,
        7,
        0,
        0,
        0,
        0,
        0,
        0,
        0,
        0,
        0,
        0,
        0,
        0,
        0,
        0,
        0,
        0,
        0,
        0,
        0,
        0,
        0,
        0,
        0,
        0,
        0,
        0,
        0,
        0,
        0,
        0,
        0,
        0,
        0,
        0,
        0,
        0,
        0,
        0,
        0,
        0,
        0,
        0,
        0,
        0,
        0,
        0,
        0,
        0,
        0,
        0,
        0,
        0,
        0,
        0,
        0,
        0,
        0,
        0,
        0,
        0,
        0,
        0,
        0,
        0,
        0,
        0,
        0,
        0,
        0,
        0,
        0,
        0,
        0,
        0,
        0,
        0,
        0,
        0,
        0,
        0,
        0,
        0,
        0,
        0,
        0,
        0,
        0,
        0,
        0,
        0,
        0,
        0,
        0,
        0,
        7,
        7,
        0,
        0,
        0,
        0,
        0,
        0,
        0,
        0,
        0,
        0,
        0,
        0,
        0,
        0,
        0,
        0,
        0,
        0,
        0,
        0,
        0,
        0,
        0,
        0,
        0,
        0,
        0,
        0,
        0,
        0,
        0,
        0,
        0,
        0,
        0,
        0,
        0,
        0,
        0,
        0,
        0,
        0,
        0,
        0,
        0,
        0,
        0,
        0,
        0,
        0,
        0,
        0,
        0,
        0,
        0,
        0,
        0,
        0,
        0,
        0,
        0,
        0,
        0,
        0,
        0,
        0,
        0,
        0,
        0,
        0,
        0,
        0,
        0,
        0,
        0,
        0,
        0,
        0,
        0,
        0,
        0,
        0,
        0,
        0,
        0,
        0,
        0,
        0,
        0,
        0,
        0,
        0,
        0,
        0,
        7,
        8,
        0,
        0,
        0,
        0,
        0,
        0,
        0,
        0,
        0,
        0,
        0,
        0,
        0,
        0,
        0,
        0,
        0,
        0,
        0,
        0,
        0,
        0,
        0,
        0,
        0,
        0,
        0,
        0,
        0,
        0,
        0,
        0,
        0,
        0,
        0,
        0,
        0,
        0,
        0,
        0,
        0,
        0,
        0,
        0,
        0,
        0,
        0,
        0,
        0,
        0,
        0,
        0,
        0,
        0,
        0,
        0,
        0,
        0,
        0,
        0,
        0,
        0,
        0,
        0,
        0,
        0,
        0,
        0,
        0,
        0,
        0,
        0,
        0,
        0,
        0,
        0,
        0,
        0,
        0,
        0,
        0,
        0,
        0,
        0,
        0,
        0,
        0,
        0,
        0,
        0,
        0,
        0,
        0,
        7,
        8,
        0,
        0,
        0,
        0,
        0,
        0,
        0,
        0,
        0,
        0,
        0,
        0,
        0,
        0,
        0,
        0,
        0,
        0,
        0,
        0,
        0,
        0,
        0,
        0,
        0,
        0,
        0,
        0,
        0,
        0,
        0,
        0,
        0,
        0,
        0,
        0,
        0,
        0,
        0,
        0,
        0,
        0,
        0,
        0,
        0,
        0,
        0,
        0,
        0,
        0,
        0,
        0,
        0,
        0,
        0,
        0,
        0,
        0,
        0,
        0,
        0,
        0,
        0,
        0,
        0,
        0,
        0,
        0,
        0,
        0,
        0,
        0,
        0,
        0,
        0,
        0,
        0,
        0,
        0,
        0,
        0,
        0,
        0,
        0,
        0,
        0,
        0,
        0,
        0,
        0,
        0,
        0,
        0,
        0,
        8,
        7,
        0,
        0,
        0,
        0,
        0,
        0,
        0,
        0,
        0,
        0,
        0,
        0,
        0,
        0,
        0,
        0,
        0,
        0,
        0,
        0,
        0,
        0,
        0,
        0,
        0,
        0,
        0,
        0,
        0,
        0,
        0,
        0,
        0,
        0,
        0,
        0,
        0,
        0,
        0,
        0,
        0,
        0,
        0,
        0,
        0,
        0,
        0,
        0,
        0,
        0,
        0,
        0,
        0,
        0,
        0,
        0,
        0,
        0,
        0,
        0,
        0,
        0,
        0,
        0,
        0,
        0,
        0,
        0,
        0,
        0,
        0,
        0,
        0,
        0,
        0,
        0,
        0,
        0,
        0,
        0,
        0,
        0,
        0,
        0,
        0,
        0,
        0,
        0,
        0,
        0,
        0,
        0,
        0,
        8,
        7,
        0,
        0,
        0,
        0,
        0,
        0,
        0,
        0,
        0,
        0,
        0,
        0,
        0,
        0,
        0,
        0,
        0,
        0,
        0,
        0,
        0,
        0,
        0,
        0,
        0,
        0,
        0,
        0,
        0,
        0,
        0,
        0,
        0,
        0,
        0,
        0,
        0,
        0,
        0,
        0,
        0,
        0,
        0,
        0,
        0,
        0,
        0,
        0,
        0,
        0,
        0,
        0,
        0,
        0,
        0,
        0,
        0,
        0,
        0,
        0,
        0,
        0,
        0,
        0,
        0,
        0,
        0,
        0,
        0,
        0,
        0,
        0,
        0,
        0,
        0,
        0,
        0,
        0,
        0,
        0,
        0,
        0,
        0,
        0,
        0,
        0,
        0,
        0,
        0,
        0,
        0,
        0,
        0,
        0,
        7,
        7,
        0,
        0,
        0,
        0,
        0,
        0,
        0,
        0,
        0,
        0,
        0,
        0,
        0,
        0,
        0,
        0,
        0,
        0,
        0,
        0,
        0,
        0,
        0,
        0,
        0,
        0,
        0,
        0,
        0,
        0,
        0,
        0,
        0,
        0,
        0,
        0,
        0,
        0,
        0,
        0,
        0,
        0,
        0,
        0,
        0,
        0,
        0,
        0,
        0,
        0,
        0,
        0,
        0,
        0,
        0,
        0
      ]
    },
    {
      "id": 4,
      "name": "Ledges",
      "type": "tilelayer",
      "x": 0,
      "y": 0,
      "width": 96,
      "height": 72,
      "opacity": 1,
      "visible": true,
      "data": [
        0,
        0,
        0,
        0,
        0,
        0,
        0,
        0,
        0,
        0,
        0,
        0,
        0,
        0,
        0,
        0,
        0,
        0,
        0,
        0,
        0,
        0,
        0,
        0,
        0,
        0,
        0,
        0,
        0,
        0,
        0,
        0,
        0,
        0,
        0,
        0,
        0,
        0,
        0,
        0,
        0,
        0,
        0,
        0,
        0,
        0,
        0,
        0,
        0,
        0,
        0,
        0,
        0,
        0,
        0,
        0,
        0,
        0,
        0,
        0,
        0,
        0,
        0,
        0,
        0,
        0,
        0,
        0,
        0,
        0,
        0,
        0,
        0,
        0,
        0,
        0,
        0,
        0,
        0,
        0,
        0,
        0,
        0,
        0,
        0,
        0,
        0,
        0,
        0,
        0,
        0,
        0,
        0,
        0,
        0,
        0,
        0,
        0,
        0,
        0,
        0,
        0,
        0,
        0,
        0,
        0,
        0,
        0,
        0,
        0,
        0,
        0,
        0,
        0,
        0,
        0,
        0,
        0,
        0,
        0,
        0,
        0,
        0,
        0,
        0,
        0,
        0,
        0,
        0,
        0,
        0,
        0,
        0,
        0,
        0,
        0,
        0,
        0,
        0,
        0,
        0,
        0,
        0,
        0,
        0,
        0,
        0,
        0,
        0,
        0,
        0,
        0,
        0,
        0,
        0,
        0,
        0,
        0,
        0,
        0,
        0,
        0,
        0,
        0,
        0,
        0,
        0,
        0,
        0,
        0,
        0,
        0,
        0,
        0,
        0,
        0,
        0,
        0,
        0,
        0,
        0,
        0,
        0,
        0,
        0,
        0,
        0,
        0,
        0,
        0,
        0,
        0,
        0,
        0,
        0,
        0,
        0,
        0,
        0,
        0,
        0,
        0,
        0,
        0,
        0,
        0,
        0,
        0,
        0,
        0,
        0,
        0,
        0,
        0,
        0,
        0,
        0,
        0,
        0,
        0,
        0,
        0,
        0,
        0,
        0,
        0,
        0,
        0,
        0,
        0,
        0,
        0,
        0,
        0,
        0,
        0,
        0,
        0,
        0,
        0,
        0,
        0,
        0,
        0,
        0,
        0,
        0,
        0,
        0,
        0,
        0,
        0,
        0,
        0,
        0,
        0,
        0,
        0,
        0,
        0,
        0,
        0,
        0,
        0,
        0,
        0,
        0,
        0,
        0,
        0,
        0,
        0,
        0,
        0,
        0,
        0,
        0,
        0,
        0,
        0,
        0,
        0,
        0,
        0,
        0,
        0,
        0,
        0,
        0,
        0,
        0,
        0,
        0,
        0,
        0,
        0,
        0,
        0,
        0,
        0,
        0,
        0,
        0,
        0,
        0,
        0,
        0,
        0,
        0,
        0,
        0,
        0,
        0,
        0,
        0,
        0,
        0,
        0,
        0,
        0,
        0,
        0,
        0,
        0,
        0,
        0,
        0,
        0,
        0,
        0,
        0,
        0,
        0,
        0,
        0,
        0,
        0,
        0,
        0,
        0,
        0,
        0,
        0,
        0,
        0,
        0,
        0,
        0,
        0,
        0,
        0,
        0,
        0,
        0,
        0,
        0,
        0,
        0,
        0,
        0,
        0,
        0,
        0,
        0,
        0,
        0,
        0,
        0,
        0,
        0,
        0,
        0,
        0,
        0,
        0,
        0,
        0,
        0,
        0,
        0,
        0,
        0,
        0,
        0,
        0,
        0,
        0,
        0,
        0,
        0,
        0,
        0,
        0,
        0,
        0,
        0,
        0,
        0,
        0,
        0,
        0,
        0,
        0,
        0,
        0,
        0,
        0,
        0,
        0,
        0,
        0,
        0,
        0,
        0,
        0,
        0,
        0,
        0,
        0,
        0,
        0,
        0,
        0,
        0,
        0,
        0,
        0,
        0,
        0,
        0,
        0,
        0,
        0,
        0,
        0,
        0,
        0,
        0,
        0,
        0,
        0,
        0,
        0,
        0,
        0,
        0,
        0,
        0,
        0,
        0,
        0,
        0,
        0,
        0,
        0,
        0,
        0,
        0,
        0,
        0,
        0,
        0,
        0,
        0,
        0,
        0,
        0,
        0,
        0,
        0,
        0,
        0,
        0,
        0,
        0,
        0,
        0,
        0,
        0,
        0,
        0,
        0,
        0,
        0,
        0,
        0,
        0,
        0,
        0,
        0,
        0,
        0,
        0,
        0,
        0,
        0,
        0,
        0,
        0,
        0,
        0,
        0,
        0,
        0,
        0,
        0,
        0,
        0,
        0,
        0,
        0,
        0,
        0,
        0,
        0,
        0,
        0,
        0,
        0,
        0,
        0,
        0,
        0,
        0,
        0,
        0,
        0,
        0,
        0,
        0,
        0,
        0,
        0,
        0,
        0,
        0,
        0,
        0,
        0,
        0,
        0,
        0,
        0,
        0,
        0,
        0,
        0,
        0,
        0,
        0,
        0,
        0,
        0,
        0,
        0,
        0,
        0,
        0,
        0,
        0,
        0,
        0,
        0,
        0,
        0,
        0,
        0,
        0,
        0,
        0,
        0,
        0,
        0,
        0,
        0,
        0,
        0,
        0,
        0,
        0,
        0,
        0,
        0,
        0,
        0,
        0,
        0,
        0,
        0,
        0,
        0,
        0,
        0,
        0,
        0,
        0,
        0,
        0,
        0,
        0,
        0,
        0,
        0,
        0,
        0,
        0,
        0,
        0,
        0,
        0,
        0,
        0,
        0,
        0,
        0,
        0,
        0,
        0,
        0,
        0,
        0,
        0,
        0,
        0,
        0,
        0,
        0,
        0,
        0,
        0,
        0,
        0,
        0,
        0,
        0,
        0,
        0,
        0,
        0,
        0,
        0,
        0,
        0,
        0,
        0,
        0,
        0,
        0,
        0,
        0,
        0,
        0,
        0,
        0,
        0,
        0,
        0,
        0,
        0,
        0,
        0,
        0,
        0,
        0,
        0,
        0,
        0,
        0,
        0,
        0,
        0,
        0,
        0,
        0,
        0,
        0,
        0,
        0,
        0,
        0,
        0,
        0,
        0,
        0,
        0,
        0,
        0,
        0,
        0,
        0,
        0,
        0,
        0,
        0,
        0,
        0,
        0,
        0,
        0,
        0,
        0,
        0,
        0,
        0,
        0,
        0,
        0,
        0,
        0,
        0,
        0,
        0,
        0,
        0,
        0,
        0,
        0,
        0,
        0,
        0,
        0,
        0,
        0,
        0,
        0,
        0,
        0,
        0,
        0,
        0,
        0,
        0,
        0,
        0,
        0,
        0,
        0,
        0,
        0,
        0,
        0,
        0,
        0,
        0,
        0,
        0,
        0,
        0,
        0,
        0,
        0,
        0,
        0,
        0,
        0,
        0,
        0,
        0,
        0,
        0,
        0,
        0,
        0,
        0,
        0,
        0,
        0,
        0,
        0,
        0,
        0,
        0,
        0,
        0,
        0,
        0,
        0,
        0,
        0,
        0,
        0,
        0,
        0,
        0,
        0,
        0,
        0,
        0,
        0,
        0,
        0,
        0,
        0,
        0,
        0,
        0,
        0,
        0,
        0,
        0,
        0,
        0,
        0,
        0,
        0,
        0,
        0,
        0,
        0,
        0,
        0,
        0,
        0,
        0,
        0,
        0,
        0,
        0,
        0,
        0,
        0,
        0,
        0,
        0,
        0,
        0,
        0,
        0,
        0,
        0,
        0,
        0,
        0,
        0,
        0,
        0,
        0,
        0,
        0,
        0,
        0,
        0,
        0,
        0,
        0,
        0,
        0,
        0,
        0,
        0,
        0,
        0,
        0,
        0,
        0,
        0,
        0,
        0,
        0,
        0,
        0,
        0,
        0,
        0,
        0,
        0,
        0,
        0,
        0,
        0,
        0,
        0,
        0,
        0,
        0,
        0,
        0,
        0,
        0,
        0,
        0,
        0,
        0,
        0,
        0,
        0,
        0,
        0,
        0,
        0,
        0,
        0,
        0,
        0,
        0,
        0,
        0,
        0,
        0,
        0,
        0,
        0,
        0,
        0,
        0,
        0,
        0,
        0,
        0,
        0,
        0,
        0,
        0,
        0,
        0,
        0,
        0,
        0,
        0,
        0,
        0,
        0,
        0,
        0,
        0,
        0,
        0,
        0,
        0,
        0,
        0,
        0,
        0,
        0,
        0,
        0,
        0,
        0,
        0,
        0,
        0,
        0,
        0,
        0,
        0,
        0,
        0,
        0,
        0,
        0,
        0,
        0,
        0,
        0,
        0,
        0,
        0,
        0,
        0,
        0,
        0,
        0,
        0,
        0,
        0,
        0,
        0,
        0,
        0,
        0,
        0,
        0,
        0,
        0,
        0,
        0,
        0,
        0,
        0,
        0,
        0,
        0,
        0,
        0,
        0,
        0,
        0,
        0,
        0,
        0,
        0,
        0,
        0,
        0,
        0,
        0,
        0,
        0,
        0,
        0,
        0,
        0,
        0,
        0,
        0,
        0,
        0,
        0,
        0,
        0,
        0,
        0,
        0,
        0,
        0,
        0,
        0,
        0,
        0,
        0,
        0,
        0,
        0,
        0,
        0,
        0,
        0,
        0,
        0,
        0,
        0,
        0,
        0,
        0,
        0,
        0,
        0,
        0,
        0,
        0,
        0,
        0,
        0,
        0,
        0,
        0,
        0,
        0,
        0,
        0,
        0,
        0,
        0,
        0,
        0,
        0,
        0,
        0,
        0,
        0,
        0,
        0,
        0,
        0,
        0,
        0,
        0,
        0,
        0,
        0,
        0,
        0,
        0,
        0,
        0,
        0,
        0,
        0,
        0,
        0,
        0,
        0,
        0,
        0,
        0,
        0,
        0,
        0,
        0,
        0,
        0,
        0,
        0,
        0,
        0,
        0,
        0,
        0,
        0,
        0,
        0,
        0,
        0,
        0,
        0,
        0,
        0,
        0,
        0,
        0,
        0,
        0,
        0,
        0,
        0,
        0,
        0,
        0,
        0,
        0,
        0,
        0,
        0,
        0,
        0,
        0,
        0,
        0,
        0,
        0,
        0,
        0,
        0,
        0,
        0,
        0,
        0,
        0,
        0,
        0,
        0,
        0,
        0,
        0,
        0,
        0,
        0,
        0,
        0,
        0,
        0,
        0,
        0,
        0,
        0,
        0,
        0,
        0,
        0,
        0,
        0,
        0,
        0,
        0,
        0,
        0,
        0,
        0,
        0,
        0,
        0,
        0,
        0,
        0,
        0,
        0,
        0,
        0,
        0,
        0,
        0,
        0,
        0,
        0,
        0,
        0,
        0,
        0,
        0,
        0,
        0,
        0,
        0,
        0,
        0,
        0,
        0,
        0,
        0,
        0,
        0,
        0,
        0,
        0,
        0,
        0,
        0,
        0,
        0,
        0,
        0,
        0,
        0,
        0,
        0,
        0,
        0,
        0,
        0,
        0,
        0,
        0,
        0,
        0,
        0,
        0,
        0,
        0,
        0,
        0,
        0,
        0,
        0,
        0,
        0,
        0,
        0,
        0,
        0,
        0,
        0,
        0,
        0,
        0,
        0,
        0,
        0,
        0,
        0,
        0,
        0,
        0,
        0,
        0,
        0,
        0,
        0,
        0,
        0,
        0,
        0,
        0,
        0,
        0,
        0,
        0,
        0,
        0,
        0,
        0,
        0,
        0,
        0,
        0,
        0,
        0,
        0,
        0,
        0,
        0,
        0,
        0,
        0,
        0,
        0,
        0,
        0,
        0,
        0,
        0,
        0,
        0,
        0,
        0,
        0,
        0,
        0,
        0,
        0,
        0,
        0,
        0,
        0,
        0,
        0,
        0,
        0,
        0,
        0,
        0,
        0,
        0,
        0,
        0,
        0,
        0,
        0,
        0,
        0,
        0,
        0,
        0,
        0,
        0,
        0,
        0,
        0,
        0,
        0,
        0,
        0,
        0,
        0,
        0,
        0,
        0,
        0,
        0,
        0,
        0,
        0,
        0,
        0,
        0,
        0,
        0,
        0,
        0,
        0,
        0,
        0,
        0,
        0,
        0,
        0,
        0,
        0,
        0,
        0,
        0,
        0,
        0,
        0,
        0,
        0,
        0,
        0,
        0,
        0,
        0,
        0,
        0,
        0,
        0,
        0,
        0,
        0,
        0,
        0,
        0,
        0,
        0,
        0,
        0,
        0,
        0,
        0,
        0,
        0,
        0,
        0,
        0,
        0,
        0,
        0,
        0,
        0,
        0,
        0,
        0,
        0,
        0,
        0,
        0,
        0,
        0,
        0,
        0,
        0,
        0,
        0,
        0,
        0,
        0,
        0,
        0,
        0,
        0,
        0,
        0,
        0,
        0,
        0,
        0,
        0,
        0,
        0,
        0,
        0,
        0,
        0,
        0,
        0,
        0,
        0,
        0,
        0,
        0,
        0,
        0,
        0,
        0,
        0,
        0,
        0,
        0,
        0,
        0,
        0,
        0,
        0,
        0,
        0,
        0,
        0,
        0,
        0,
        0,
        0,
        0,
        0,
        0,
        0,
        0,
        0,
        0,
        0,
        0,
        0,
        0,
        0,
        0,
        0,
        0,
        0,
        0,
        0,
        0,
        0,
        0,
        0,
        0,
        0,
        0,
        0,
        0,
        0,
        0,
        0,
        0,
        0,
        0,
        0,
        0,
        0,
        0,
        0,
        0,
        0,
        0,
        0,
        0,
        0,
        0,
        0,
        0,
        0,
        0,
        0,
        0,
        0,
        0,
        0,
        0,
        0,
        0,
        0,
        0,
        0,
        0,
        0,
        0,
        0,
        0,
        0,
        0,
        0,
        0,
        0,
        0,
        0,
        0,
        0,
        0,
        0,
        0,
        0,
        0,
        0,
        0,
        0,
        0,
        0,
        0,
        0,
        0,
        0,
        0,
        0,
        0,
        0,
        0,
        0,
        0,
        0,
        0,
        0,
        0,
        0,
        0,
        0,
        0,
        0,
        0,
        0,
        0,
        0,
        0,
        0,
        0,
        0,
        0,
        0,
        0,
        0,
        0,
        0,
        0,
        0,
        0,
        0,
        0,
        0,
        0,
        0,
        0,
        0,
        0,
        0,
        0,
        0,
        0,
        0,
        0,
        0,
        0,
        0,
        0,
        0,
        0,
        0,
        0,
        0,
        0,
        0,
        0,
        0,
        0,
        0,
        0,
        0,
        0,
        0,
        0,
        0,
        0,
        0,
        0,
        0,
        0,
        0,
        0,
        0,
        0,
        0,
        0,
        0,
        0,
        0,
        0,
        0,
        0,
        0,
        0,
        0,
        0,
        0,
        0,
        0,
        0,
        0,
        0,
        0,
        0,
        0,
        0,
        0,
        0,
        0,
        0,
        0,
        0,
        0,
        0,
        0,
        0,
        0,
        0,
        0,
        0,
        0,
        0,
        0,
        0,
        0,
        0,
        0,
        0,
        0,
        0,
        0,
        0,
        0,
        0,
        0,
        0,
        0,
        0,
        0,
        0,
        0,
        0,
        0,
        0,
        0,
        0,
        0,
        0,
        0,
        0,
        0,
        0,
        0,
        0,
        0,
        0,
        0,
        0,
        0,
        0,
        0,
        0,
        0,
        0,
        0,
        0,
        0,
        0,
        0,
        0,
        0,
        0,
        0,
        0,
        0,
        0,
        0,
        0,
        0,
        0,
        0,
        0,
        0,
        0,
        0,
        0,
        0,
        0,
        0,
        0,
        0,
        0,
        0,
        0,
        0,
        0,
        0,
        0,
        0,
        0,
        0,
        0,
        0,
        0,
        0,
        0,
        0,
        0,
        0,
        0,
        0,
        0,
        0,
        0,
        0,
        0,
        0,
        0,
        0,
        0,
        0,
        0,
        0,
        0,
        0,
        0,
        0,
        0,
        0,
        0,
        0,
        0,
        0,
        0,
        0,
        0,
        0,
        0,
        0,
        0,
        0,
        0,
        0,
        0,
        0,
        0,
        0,
        0,
        0,
        0,
        0,
        0,
        0,
        0,
        0,
        0,
        0,
        0,
        0,
        0,
        0,
        0,
        0,
        0,
        0,
        0,
        0,
        0,
        0,
        0,
        0,
        0,
        0,
        0,
        0,
        0,
        0,
        0,
        0,
        0,
        0,
        0,
        0,
        0,
        0,
        0,
        0,
        0,
        0,
        0,
        0,
        0,
        0,
        0,
        0,
        0,
        0,
        0,
        0,
        0,
        0,
        0,
        0,
        0,
        0,
        0,
        0,
        0,
        0,
        0,
        0,
        0,
        0,
        0,
        0,
        0,
        0,
        0,
        0,
        0,
        0,
        0,
        0,
        0,
        0,
        0,
        0,
        0,
        0,
        0,
        0,
        0,
        0,
        0,
        0,
        0,
        0,
        0,
        0,
        0,
        0,
        0,
        0,
        0,
        0,
        0,
        0,
        0,
        0,
        0,
        0,
        0,
        0,
        0,
        0,
        0,
        0,
        0,
        0,
        0,
        0,
        0,
        0,
        0,
        0,
        0,
        0,
        0,
        0,
        0,
        0,
        0,
        0,
        0,
        0,
        0,
        0,
        0,
        0,
        0,
        0,
        0,
        0,
        0,
        0,
        0,
        0,
        0,
        0,
        0,
        0,
        0,
        0,
        0,
        0,
        0,
        0,
        0,
        0,
        0,
        0,
        0,
        0,
        0,
        0,
        0,
        0,
        0,
        0,
        0,
        0,
        0,
        0,
        0,
        0,
        0,
        0,
        0,
        0,
        0,
        0,
        0,
        0,
        0,
        0,
        0,
        0,
        0,
        0,
        0,
        0,
        0,
        0,
        0,
        0,
        0,
        0,
        0,
        0,
        0,
        0,
        0,
        0,
        0,
        0,
        0,
        0,
        0,
        0,
        0,
        0,
        0,
        0,
        0,
        0,
        0,
        0,
        0,
        0,
        0,
        0,
        0,
        0,
        0,
        0,
        0,
        0,
        0,
        0,
        0,
        0,
        0,
        0,
        0,
        0,
        0,
        0,
        0,
        0,
        0,
        0,
        0,
        0,
        0,
        0,
        0,
        0,
        0,
        0,
        0,
        0,
        0,
        0,
        0,
        0,
        0,
        0,
        0,
        0,
        0,
        0,
        0,
        0,
        0,
        0,
        0,
        0,
        0,
        0,
        0,
        0,
        0,
        0,
        0,
        0,
        0,
        0,
        0,
        0,
        0,
        0,
        0,
        0,
        0,
        0,
        0,
        0,
        0,
        0,
        0,
        0,
        0,
        0,
        0,
        0,
        0,
        0,
        0,
        0,
        0,
        0,
        0,
        0,
        0,
        0,
        0,
        0,
        0,
        0,
        0,
        0,
        0,
        0,
        0,
        0,
        0,
        0,
        0,
        0,
        0,
        0,
        0,
        0,
        0,
        0,
        0,
        0,
        0,
        0,
        0,
        0,
        0,
        0,
        0,
        0,
        0,
        0,
        0,
        0,
        0,
        0,
        0,
        0,
        0,
        0,
        0,
        0,
        0,
        0,
        0,
        0,
        0,
        0,
        0,
        0,
        0,
        0,
        0,
        0,
        0,
        0,
        0,
        0,
        0,
        0,
        0,
        0,
        0,
        0,
        0,
        0,
        0,
        0,
        0,
        0,
        0,
        0,
        0,
        0,
        0,
        0,
        0,
        0,
        0,
        0,
        0,
        0,
        0,
        0,
        0,
        0,
        0,
        0,
        0,
        0,
        0,
        0,
        0,
        0,
        0,
        0,
        0,
        0,
        0,
        0,
        0,
        0,
        0,
        0,
        0,
        0,
        0,
        0,
        0,
        0,
        0,
        0,
        0,
        0,
        0,
        0,
        0,
        0,
        0,
        0,
        0,
        0,
        0,
        0,
        0,
        0,
        0,
        0,
        0,
        0,
        0,
        0,
        0,
        0,
        0,
        0,
        0,
        0,
        0,
        0,
        0,
        0,
        0,
        0,
        0,
        0,
        0,
        0,
        0,
        0,
        0,
        0,
        0,
        0,
        0,
        0,
        0,
        0,
        0,
        0,
        0,
        0,
        0,
        0,
        0,
        0,
        0,
        0,
        0,
        0,
        0,
        0,
        0,
        0,
        0,
        0,
        0,
        0,
        0,
        0,
        0,
        0,
        0,
        0,
        0,
        0,
        0,
        0,
        0,
        0,
        0,
        0,
        0,
        0,
        0,
        0,
        0,
        0,
        0,
        0,
        0,
        0,
        0,
        0,
        0,
        0,
        0,
        0,
        0,
        0,
        0,
        0,
        0,
        0,
        0,
        0,
        0,
        0,
        0,
        0,
        0,
        0,
        0,
        0,
        0,
        0,
        0,
        0,
        0,
        0,
        0,
        0,
        0,
        0,
        0,
        0,
        0,
        0,
        0,
        0,
        0,
        0,
        0,
        0,
        0,
        0,
        0,
        0,
        0,
        0,
        0,
        0,
        0,
        0,
        0,
        0,
        0,
        0,
        0,
        0,
        0,
        0,
        0,
        0,
        0,
        0,
        0,
        0,
        0,
        0,
        0,
        0,
        0,
        0,
        0,
        0,
        0,
        0,
        0,
        0,
        0,
        0,
        0,
        0,
        0,
        0,
        0,
        0,
        0,
        0,
        0,
        0,
        0,
        0,
        0,
        0,
        0,
        0,
        0,
        0,
        0,
        0,
        0,
        0,
        0,
        0,
        0,
        0,
        0,
        0,
        0,
        0,
        0,
        0,
        0,
        0,
        0,
        0,
        0,
        0,
        0,
        0,
        0,
        0,
        0,
        0,
        0,
        0,
        0,
        0,
        0,
        0,
        0,
        0,
        0,
        0,
        0,
        0,
        0,
        0,
        0,
        0,
        0,
        0,
        0,
        0,
        0,
        0,
        0,
        0,
        0,
        0,
        0,
        0,
        0,
        0,
        0,
        0,
        0,
        0,
        0,
        0,
        0,
        0,
        0,
        0,
        0,
        0,
        0,
        0,
        0,
        0,
        0,
        0,
        0,
        0,
        0,
        0,
        0,
        0,
        0,
        0,
        0,
        0,
        0,
        0,
        0,
        0,
        0,
        0,
        0,
        0,
        0,
        0,
        0,
        0,
        0,
        0,
        0,
        0,
        0,
        0,
        0,
        0,
        0,
        0,
        0,
        0,
        0,
        0,
        0,
        0,
        0,
        0,
        0,
        0,
        0,
        0,
        0,
        0,
        0,
        0,
        0,
        0,
        0,
        0,
        0,
        0,
        0,
        0,
        0,
        0,
        0,
        0,
        0,
        0,
        0,
        0,
        0,
        0,
        0,
        0,
        0,
        0,
        0,
        0,
        0,
        0,
        0,
        0,
        0,
        0,
        0,
        0,
        0,
        0,
        0,
        0,
        0,
        0,
        0,
        0,
        0,
        0,
        0,
        0,
        0,
        0,
        0,
        0,
        0,
        0,
        0,
        0,
        0,
        0,
        0,
        0,
        0,
        0,
        0,
        0,
        0,
        0,
        0,
        0,
        0,
        0,
        0,
        0,
        0,
        0,
        0,
        0,
        0,
        0,
        0,
        0,
        0,
        0,
        0,
        0,
        0,
        0,
        0,
        0,
        0,
        0,
        0,
        0,
        0,
        0,
        0,
        0,
        0,
        0,
        0,
        0,
        0,
        0,
        0,
        0,
        0,
        0,
        0,
        0,
        0,
        0,
        0,
        0,
        0,
        0,
        0,
        0,
        0,
        0,
        0,
        0,
        0,
        0,
        0,
        0,
        0,
        0,
        0,
        0,
        0,
        0,
        0,
        0,
        0,
        0,
        0,
        0,
        0,
        0,
        0,
        0,
        0,
        0,
        0,
        0,
        0,
        0,
        0,
        0,
        0,
        0,
        0,
        0,
        0,
        0,
        0,
        0,
        0,
        0,
        0,
        0,
        0,
        0,
        0,
        0,
        0,
        0,
        0,
        0,
        0,
        0,
        0,
        0,
        0,
        0,
        0,
        0,
        0,
        0,
        0,
        0,
        0,
        0,
        0,
        0,
        0,
        0,
        0,
        0,
        0,
        0,
        0,
        0,
        0,
        0,
        0,
        0,
        0,
        0,
        0,
        0,
        0,
        0,
        0,
        0,
        0,
        0,
        0,
        0,
        0,
        0,
        0,
        0,
        0,
        0,
        0,
        0,
        0,
        0,
        0,
        0,
        0,
        0,
        0,
        0,
        0,
        0,
        0,
        0,
        0,
        0,
        0,
        0,
        0,
        0,
        0,
        0,
        0,
        0,
        0,
        0,
        0,
        0,
        0,
        0,
        0,
        0,
        0,
        0,
        0,
        0,
        0,
        0,
        0,
        0,
        0,
        0,
        0,
        0,
        0,
        0,
        0,
        0,
        0,
        0,
        0,
        0,
        0,
        0,
        0,
        0,
        0,
        0,
        0,
        0,
        0,
        0,
        0,
        0,
        0,
        0,
        0,
        0,
        0,
        0,
        0,
        0,
        0,
        0,
        0,
        0,
        0,
        0,
        0,
        0,
        0,
        0,
        0,
        0,
        0,
        0,
        0,
        0,
        0,
        0,
        0,
        0,
        0,
        0,
        0,
        0,
        0,
        0,
        0,
        0,
        0,
        0,
        0,
        0,
        0,
        0,
        0,
        0,
        0,
        0,
        0,
        0,
        0,
        0,
        0,
        0,
        0,
        0,
        0,
        0,
        0,
        0,
        0,
        0,
        0,
        0,
        0,
        0,
        0,
        0,
        0,
        0,
        0,
        0,
        0,
        0,
        0,
        0,
        0,
        0,
        0,
        0,
        0,
        0,
        0,
        0,
        0,
        0,
        0,
        0,
        0,
        0,
        0,
        0,
        0,
        0,
        0,
        0,
        0,
        0,
        0,
        0,
        0,
        0,
        0,
        0,
        0,
        0,
        0,
        0,
        0,
        0,
        0,
        0,
        0,
        0,
        0,
        0,
        0,
        0,
        0,
        0,
        0,
        0,
        0,
        0,
        0,
        0,
        0,
        0,
        0,
        0,
        0,
        0,
        0,
        0,
        0,
        0,
        0,
        0,
        0,
        0,
        0,
        0,
        0,
        0,
        0,
        0,
        0,
        0,
        0,
        0,
        0,
        0,
        0,
        0,
        0,
        0,
        0,
        0,
        0,
        0,
        0,
        0,
        0,
        0,
        0,
        0,
        0,
        0,
        0,
        0,
        0,
        0,
        0,
        0,
        0,
        0,
        0,
        0,
        0,
        0,
        0,
        0,
        0,
        0,
        0,
        0,
        0,
        0,
        0,
        0,
        0,
        0,
        0,
        0,
        0,
        0,
        0,
        0,
        0,
        0,
        0,
        0,
        0,
        0,
        0,
        0,
        0,
        0,
        0,
        0,
        0,
        0,
        0,
        0,
        0,
        0,
        0,
        0,
        0,
        0,
        0,
        0,
        0,
        0,
        0,
        0,
        0,
        0,
        0,
        0,
        0,
        0,
        0,
        0,
        0,
        0,
        0,
        0,
        0,
        0,
        0,
        0,
        0,
        0,
        0,
        0,
        0,
        0,
        0,
        0,
        0,
        0,
        0,
        0,
        0,
        0,
        0,
        0,
        0,
        0,
        0,
        0,
        0,
        0,
        0,
        0,
        0,
        0,
        0,
        0,
        0,
        0,
        0,
        0,
        0,
        0,
        0,
        0,
        0,
        0,
        0,
        0,
        0,
        0,
        0,
        0,
        0,
        0,
        0,
        0,
        0,
        0,
        0,
        0,
        0,
        0,
        0,
        0,
        0,
        0,
        0,
        0,
        0,
        0,
        0,
        0,
        0,
        0,
        0,
        0,
        0,
        0,
        0,
        0,
        0,
        0,
        0,
        0,
        0,
        0,
        0,
        0,
        0,
        0,
        0,
        0,
        0,
        0,
        0,
        0,
        0,
        0,
        0,
        0,
        0,
        0,
        0,
        0,
        0,
        0,
        0,
        0,
        0,
        0,
        0,
        0,
        0,
        0,
        0,
        0,
        0,
        0,
        0,
        0,
        0,
        0,
        0,
        0,
        0,
        0,
        0,
        0,
        0,
        0,
        0,
        0,
        0,
        0,
        0,
        0,
        0,
        0,
        0,
        0,
        0,
        0,
        0,
        0,
        0,
        0,
        0,
        0,
        0,
        0,
        0,
        0,
        0,
        0,
        0,
        0,
        0,
        0,
        0,
        0,
        0,
        0,
        0,
        0,
        0,
        0,
        0,
        0,
        0,
        0,
        0,
        0,
        0,
        0,
        0,
        0,
        0,
        0,
        0,
        0,
        0,
        0,
        0,
        0,
        0,
        0,
        0,
        0,
        0,
        0,
        0,
        0,
        0,
        0,
        0,
        0,
        0,
        0,
        0,
        0,
        0,
        0,
        0,
        0,
        0,
        0,
        0,
        0,
        0,
        0,
        0,
        0,
        0,
        0,
        0,
        0,
        0,
        0,
        0,
        0,
        0,
        0,
        0,
        0,
        0,
        0,
        0,
        0,
        0,
        0,
        0,
        0,
        0,
        0,
        0,
        0,
        0,
        0,
        0,
        0,
        0,
        0,
        0,
        0,
        0,
        0,
        0,
        0,
        0,
        0,
        0,
        0,
        0,
        0,
        0,
        0,
        0,
        0,
        0,
        0,
        0,
        0,
        0,
        0,
        0,
        0,
        0,
        0,
        0,
        0,
        0,
        0,
        0,
        0,
        0,
        0,
        0,
        0,
        0,
        0,
        0,
        0,
        0,
        0,
        0,
        0,
        0,
        0,
        0,
        0,
        0,
        0,
        0,
        0,
        0,
        0,
        0,
        0,
        0,
        0,
        0,
        0,
        0,
        0,
        0,
        0,
        0,
        0,
        0,
        0,
        0,
        0,
        0,
        0,
        0,
        0,
        0,
        0,
        0,
        0,
        0,
        0,
        0,
        0,
        0,
        0,
        0,
        0,
        0,
        0,
        0,
        0,
        0,
        0,
        0,
        0,
        0,
        0,
        0,
        0,
        0,
        0,
        0,
        0,
        0,
        0,
        0,
        0,
        0,
        0,
        0,
        0,
        0,
        0,
        0,
        0,
        0,
        0,
        0,
        0,
        0,
        0,
        0,
        0,
        0,
        0,
        0,
        0,
        0,
        0,
        0,
        0,
        0,
        0,
        0,
        0,
        0,
        0,
        0,
        0,
        0,
        0,
        0,
        0,
        0,
        0,
        10,
        10,
        10,
        10,
        10,
        10,
        10,
        10,
        10,
        10,
        10,
        10,
        10,
        10,
        10,
        10,
        10,
        10,
        10,
        10,
        10,
        10,
        10,
        10,
        10,
        10,
        10,
        0,
        0,
        0,
        10,
        10,
        10,
        10,
        10,
        10,
        10,
        10,
        10,
        10,
        10,
        10,
        10,
        10,
        10,
        10,
        10,
        10,
        10,
        10,
        10,
        10,
        10,
        10,
        10,
        0,
        0,
        0,
        0,
        0,
        0,
        0,
        0,
        0,
        0,
        0,
        0,
        0,
        0,
        0,
        0,
        0,
        0,
        0,
        0,
        0,
        0,
        0,
        0,
        0,
        0,
        0,
        0,
        0,
        0,
        0,
        0,
        0,
        0,
        0,
        0,
        0,
        0,
        0,
        0,
        0,
        20,
        20,
        20,
        20,
        20,
        20,
        20,
        20,
        20,
        20,
        20,
        20,
        20,
        20,
        20,
        20,
        20,
        20,
        20,
        20,
        20,
        20,
        20,
        20,
        20,
        20,
        20,
        0,
        0,
        0,
        20,
        20,
        20,
        20,
        20,
        20,
        20,
        20,
        20,
        20,
        20,
        20,
        20,
        20,
        20,
        20,
        20,
        20,
        20,
        20,
        20,
        20,
        20,
        20,
        20,
        0,
        0,
        0,
        0,
        0,
        0,
        0,
        0,
        0,
        0,
        0,
        0,
        0,
        0,
        0,
        0,
        0,
        0,
        0,
        0,
        0,
        0,
        0,
        0,
        0,
        0,
        0,
        0,
        0,
        0,
        0,
        0,
        0,
        0,
        0,
        0,
        0,
        0,
        0,
        0,
        0,
        20,
        20,
        20,
        20,
        20,
        20,
        20,
        20,
        20,
        20,
        20,
        20,
        20,
        20,
        20,
        20,
        20,
        20,
        20,
        20,
        20,
        20,
        20,
        20,
        20,
        20,
        20,
        0,
        0,
        0,
        20,
        20,
        20,
        20,
        20,
        20,
        20,
        20,
        20,
        20,
        20,
        20,
        20,
        20,
        20,
        20,
        20,
        20,
        20,
        20,
        20,
        20,
        20,
        20,
        20,
        0,
        0,
        0,
        0,
        0,
        0,
        0,
        0,
        0,
        0,
        0,
        0,
        0,
        0,
        0,
        0,
        0,
        0,
        0,
        0,
        0,
        0,
        0,
        0,
        0,
        0,
        0,
        0,
        0,
        0,
        0,
        0,
        0,
        0,
        0,
        0,
        0,
        0,
        0,
        0,
        0,
        0,
        0,
        0,
        0,
        0,
        0,
        0,
        0,
        0,
        0,
        0,
        0,
        0,
        0,
        0,
        0,
        0,
        0,
        0,
        0,
        0,
        0,
        0,
        0,
        0,
        0,
        0,
        0,
        0,
        0,
        0,
        0,
        0,
        0,
        0,
        0,
        0,
        0,
        0,
        0,
        0,
        0,
        0,
        0,
        0,
        0,
        0,
        0,
        0,
        0,
        0,
        0,
        0,
        0,
        0,
        0,
        0,
        0,
        0,
        0,
        0,
        0,
        0,
        0,
        0,
        0,
        0,
        0,
        0,
        0,
        0,
        0,
        0,
        0,
        0,
        0,
        0,
        0,
        0,
        0,
        0,
        0,
        0,
        0,
        0,
        0,
        0,
        0,
        0,
        0,
        0,
        0,
        0,
        0,
        0,
        0,
        0,
        0,
        0,
        0,
        0,
        0,
        0,
        0,
        0,
        0,
        0,
        0,
        0,
        0,
        0,
        0,
        0,
        0,
        0,
        0,
        0,
        0,
        0,
        0,
        0,
        0,
        0,
        0,
        0,
        0,
        0,
        0,
        0,
        0,
        0,
        0,
        0,
        0,
        0,
        0,
        0,
        0,
        0,
        0,
        0,
        0,
        0,
        0,
        0,
        0,
        0,
        0,
        0,
        0,
        0,
        0,
        0,
        0,
        0,
        0,
        0,
        0,
        0,
        0,
        0,
        0,
        0,
        0,
        0,
        0,
        0,
        0,
        0,
        0,
        0,
        0,
        0,
        0,
        0,
        0,
        0,
        0,
        0,
        0,
        0,
        0,
        0,
        0,
        0,
        0,
        0,
        0,
        0,
        0,
        0,
        0,
        0,
        0,
        0,
        0,
        0,
        0,
        0,
        0,
        0,
        0,
        0,
        0,
        0,
        0,
        0,
        0,
        0,
        0,
        0,
        0,
        0,
        0,
        0,
        0,
        0,
        0,
        0,
        0,
        0,
        0,
        0,
        0,
        0,
        0,
        0,
        0,
        0,
        0,
        0,
        0,
        0,
        0,
        0,
        0,
        0,
        0,
        0,
        0,
        0,
        0,
        0,
        0,
        0,
        0,
        0,
        0,
        0,
        0,
        0,
        0,
        0,
        0,
        0,
        0,
        0,
        0,
        0,
        0,
        0,
        0,
        0,
        0,
        0,
        0,
        0,
        0,
        0,
        0,
        0,
        0,
        0,
        0,
        0,
        0,
        0,
        0,
        0,
        0,
        0,
        0,
        0,
        0,
        0,
        0,
        0,
        0,
        0,
        0,
        0,
        0,
        0,
        0,
        0,
        0,
        0,
        0,
        0,
        0,
        0,
        0,
        0,
        0,
        0,
        0,
        0,
        0,
        0,
        0,
        0,
        0,
        0,
        0,
        0,
        0,
        0,
        0,
        0,
        0,
        0,
        0,
        0,
        0,
        0,
        0,
        0,
        0,
        0,
        0,
        0,
        0,
        0,
        0,
        0,
        0,
        0,
        0,
        0,
        0,
        0,
        0,
        0,
        0,
        0,
        0,
        0,
        0,
        0,
        0,
        0,
        0,
        0,
        0,
        0,
        0,
        0,
        0,
        0,
        0,
        0,
        0,
        0,
        0,
        0,
        0,
        0,
        0,
        0,
        0,
        0,
        0,
        0,
        0,
        0,
        0,
        0,
        0,
        0,
        0,
        0,
        0,
        0,
        0,
        0,
        0,
        0,
        0,
        0,
        0,
        0,
        0,
        0,
        0,
        0,
        0,
        0,
        0,
        0,
        0,
        0,
        0,
        0,
        0,
        0,
        0,
        0,
        0,
        0,
        0,
        0,
        0,
        0,
        0,
        0,
        0,
        0,
        0,
        0,
        0,
        0,
        0,
        0,
        0,
        0,
        0,
        0,
        0,
        0,
        0,
        0,
        0,
        0,
        0,
        0,
        0,
        0,
        0,
        0,
        0,
        0,
        0,
        0,
        0,
        0,
        0,
        0,
        0,
        0,
        0,
        0,
        0,
        0,
        0,
        0,
        0,
        0,
        0,
        0,
        0,
        0,
        0,
        0,
        0,
        0,
        0,
        0,
        0,
        0,
        0,
        0,
        0,
        0,
        0,
        0,
        0,
        0,
        0,
        0,
        0,
        0,
        0,
        0,
        0,
        0,
        0,
        0,
        0,
        0,
        0,
        0,
        0,
        0,
        0,
        0,
        0,
        0,
        0,
        0,
        0,
        0,
        0,
        0,
        0,
        0,
        0,
        0,
        0,
        0,
        0,
        0,
        0,
        0,
        0,
        0,
        0,
        0,
        0,
        0,
        0,
        0,
        0,
        0,
        0,
        0,
        0,
        0,
        0,
        0,
        0,
        0,
        0,
        0,
        0,
        0,
        0,
        0,
        0,
        0,
        0,
        0,
        0,
        0,
        0,
        0,
        0,
        0,
        0,
        0,
        0,
        0,
        0,
        0,
        0,
        0,
        0,
        0,
        0,
        0,
        0,
        0,
        0,
        0,
        0,
        0,
        0,
        0,
        0,
        0,
        0,
        0,
        0,
        0,
        0,
        0,
        0,
        0,
        0,
        0,
        0,
        0,
        0,
        0,
        0,
        0,
        0,
        0,
        0,
        0,
        0,
        0,
        0,
        0,
        0,
        0,
        0,
        0,
        0,
        0,
        0,
        0,
        0,
        0,
        0,
        0,
        0,
        0,
        0,
        0,
        0,
        0,
        0,
        0,
        0,
        0,
        0,
        0,
        0,
        0,
        0,
        0,
        0,
        0,
        0,
        0,
        0,
        0,
        0,
        0,
        0,
        0,
        0,
        0,
        0,
        0,
        0,
        0,
        0,
        0,
        0,
        0,
        0,
        0,
        0,
        0,
        0,
        0,
        0,
        0,
        0,
        0,
        0,
        0,
        0,
        0,
        0,
        0,
        0,
        0,
        0,
        0,
        0,
        0,
        0,
        0,
        0,
        0,
        0,
        0,
        0,
        0,
        0,
        0,
        0,
        0,
        0,
        0,
        0,
        0,
        0,
        0,
        0,
        0,
        0,
        0,
        0,
        0,
        0,
        0,
        0,
        0,
        0,
        0,
        0,
        0,
        0,
        0,
        0,
        0,
        0,
        0,
        0,
        0,
        0,
        0,
        0,
        0,
        0,
        0,
        0,
        0,
        0,
        0,
        0,
        0,
        0,
        0,
        0,
        0,
        0,
        0,
        0,
        0,
        0,
        0,
        0,
        0,
        0,
        0,
        0,
        0,
        0,
        0,
        0,
        0,
        0,
        0,
        0,
        0,
        0,
        0,
        0,
        0,
        0,
        0,
        0,
        0,
        0,
        0,
        0,
        0,
        0,
        0,
        0,
        0,
        0,
        0,
        0,
        0,
        0,
        0,
        0,
        0,
        0,
        0,
        0,
        0,
        0,
        0,
        0,
        0,
        0,
        0,
        0,
        0,
        0,
        0,
        0,
        0,
        0,
        0,
        0,
        0,
        0,
        0,
        0,
        0,
        0,
        0,
        0,
        0,
        0,
        0,
        0,
        0,
        0,
        0,
        0,
        0,
        0,
        0,
        0,
        0,
        0,
        0,
        0,
        0,
        0,
        0,
        0,
        0,
        0,
        0,
        0,
        0,
        0,
        0,
        0,
        0,
        0,
        0,
        0,
        0,
        0,
        0,
        0,
        0,
        0,
        0,
        0,
        0,
        0,
        0,
        0,
        0,
        0,
        0,
        0,
        0,
        0,
        0,
        0,
        0,
        0,
        0,
        0,
        0,
        0,
        0,
        0,
        0,
        0,
        0,
        0,
        0,
        0,
        0,
        0,
        0,
        0,
        0,
        0,
        0,
        0,
        0,
        0,
        0,
        0,
        0,
        0,
        0,
        0,
        0,
        0,
        0,
        0,
        0,
        0,
        0,
        0,
        0,
        0,
        0,
        0,
        0,
        0,
        0,
        0,
        0,
        0,
        0,
        0,
        0,
        0,
        0,
        0,
        0,
        0,
        0,
        0,
        0,
        0,
        0,
        0,
        0,
        0,
        0,
        0,
        0,
        0,
        0,
        0,
        0,
        0,
        0,
        0,
        0,
        0,
        0,
        0,
        0,
        0,
        0,
        0,
        0,
        0,
        0,
        0,
        0,
        0,
        0,
        0,
        0,
        0,
        0,
        0,
        0,
        0,
        0,
        0,
        0,
        0,
        0,
        0,
        0,
        0,
        0,
        0,
        0,
        0,
        0,
        0,
        0,
        0,
        0,
        0,
        0,
        0,
        0,
        0,
        0,
        0,
        0,
        0,
        0,
        0,
        0,
        0,
        0,
        0,
        0,
        0,
        0,
        0,
        0,
        0,
        0,
        0,
        0,
        0,
        0,
        0,
        0,
        0,
        0,
        0,
        0,
        0,
        0,
        0,
        0,
        0,
        0,
        0,
        0,
        0,
        0,
        0,
        0,
        0,
        0,
        0,
        0,
        0,
        0,
        0,
        0,
        0,
        0,
        0,
        0,
        0,
        0,
        0,
        0,
        0,
        0,
        0,
        0,
        0,
        0,
        0,
        0,
        0,
        0,
        0,
        0,
        0,
        0,
        0,
        0,
        0,
        0,
        0,
        0,
        0,
        0,
        0,
        0,
        0,
        0,
        0,
        0,
        0,
        0,
        0,
        0,
        0,
        0,
        0,
        0,
        0,
        0,
        0,
        0,
        0,
        0,
        0,
        0,
        0,
        0,
        0,
        0,
        0,
        0,
        0,
        0,
        0,
        0,
        0,
        0,
        0,
        0,
        0,
        0,
        0,
        0,
        0,
        0,
        0,
        0,
        0,
        0,
        0,
        0,
        0,
        0,
        0,
        0,
        0,
        0,
        0,
        0,
        0,
        0,
        0,
        0,
        0,
        0,
        0,
        0,
        0,
        0,
        0,
        0,
        0,
        0,
        0,
        0,
        0,
        0,
        0,
        0,
        0,
        0,
        0,
        0,
        0,
        0,
        0,
        0,
        0,
        0,
        0,
        0,
        0,
        0,
        0,
        0,
        0,
        0,
        0,
        0,
        0,
        0,
        0,
        0,
        0,
        0,
        0,
        0,
        0,
        0,
        0,
        0,
        0,
        0,
        0,
        0,
        0,
        0,
        0,
        0,
        0,
        0,
        0,
        0,
        0,
        0,
        0,
        0,
        0,
        0,
        0,
        0,
        0,
        0,
        0,
        0,
        0,
        0,
        0,
        0,
        0,
        0,
        0,
        0,
        0,
        0,
        0,
        0,
        0,
        0,
        0,
        0,
        0,
        0,
        0,
        0,
        0,
        0,
        0,
        0,
        0,
        0,
        0,
        0,
        0,
        0,
        0,
        0,
        0,
        0,
        0,
        0,
        0,
        0,
        0,
        0,
        0,
        0,
        0,
        0,
        0,
        0,
        0,
        0,
        0,
        0,
        0,
        0,
        0,
        0,
        0,
        0,
        0,
        0,
        0,
        0,
        0,
        0,
        0,
        0,
        0,
        0,
        0,
        0,
        0,
        0,
        0,
        0,
        0,
        0,
        0,
        0,
        0,
        0,
        0,
        0,
        0,
        0,
        0,
        0,
        0,
        0,
        0,
        0,
        0,
        0,
        0,
        0,
        0,
        0,
        0,
        0,
        0,
        0,
        0,
        0,
        0,
        0,
        0,
        0,
        0,
        0,
        0,
        0,
        0,
        0,
        0,
        0,
        0,
        0,
        0,
        0,
        0,
        0,
        0,
        0,
        0,
        0,
        0,
        0,
        0,
        0,
        0,
        0,
        0,
        0,
        0,
        0,
        0,
        0,
        0,
        0,
        0,
        0,
        0,
        0,
        0,
        0,
        0,
        0,
        0,
        0,
        0,
        0,
        0,
        0,
        0,
        0,
        0,
        0,
        0,
        0,
        0,
        0,
        0,
        0,
        0,
        0,
        0,
        0,
        0,
        0,
        0,
        0,
        0,
        0,
        0,
        0,
        0,
        0,
        0,
        0,
        0,
        0,
        0,
        0,
        0,
        0,
        0,
        0,
        0,
        0,
        0,
        0,
        0,
        0,
        0,
        0,
        0,
        0,
        0,
        0,
        0,
        0,
        0,
        0,
        0,
        0,
        0,
        0,
        0,
        0,
        0,
        0,
        0,
        0,
        0,
        0,
        0,
        0,
        0,
        0,
        0,
        0,
        0,
        0,
        0,
        0,
        0,
        0,
        0,
        0,
        0,
        0,
        0,
        0,
        0,
        0,
        0,
        0,
        0,
        0,
        0,
        0,
        0,
        0,
        0,
        0,
        0,
        0,
        0,
        0,
        0,
        0,
        0,
        0,
        0,
        0,
        0,
        0,
        0,
        0,
        0,
        0,
        0,
        0,
        0,
        0,
        0,
        0,
        0,
        0,
        0,
        0,
        0,
        0,
        0,
        0,
        0,
        0,
        0,
        0,
        0,
        0,
        0,
        0,
        0,
        0,
        0,
        0,
        0,
        0,
        0,
        0,
        0,
        0,
        0,
        0,
        0,
        0,
        0,
        0,
        0,
        0,
        0,
        0,
        0,
        0,
        0,
        0,
        0,
        0,
        0,
        0,
        0,
        0,
        0,
        0,
        0,
        0,
        0,
        0,
        0,
        0,
        0,
        0,
        0,
        0,
        0,
        0,
        0,
        0,
        0,
        0,
        0,
        0,
        0,
        0,
        0,
        0,
        0,
        0,
        0,
        0,
        0,
        0,
        0,
        0,
        0,
        0,
        0,
        0,
        0,
        0,
        0,
        0,
        0,
        0,
        0,
        0,
        0,
        0,
        0,
        0,
        0,
        0,
        0,
        0,
        0,
        0,
        0,
        0,
        0,
        0,
        0,
        0,
        0,
        0,
        0,
        0,
        0,
        0,
        0,
        0,
        0,
        0,
        0,
        0,
        0,
        0,
        0,
        0,
        0,
        0,
        0,
        0,
        0,
        0,
        0,
        0,
        0,
        0,
        0,
        0,
        0,
        0,
        0,
        0,
        0,
        0,
        0,
        0,
        0,
        0,
        0,
        0,
        0,
        0,
        0,
        0,
        0,
        0,
        0,
        0,
        0,
        0,
        0,
        0,
        0,
        0,
        0,
        0,
        0,
        0,
        0,
        0,
        0,
        0,
        0,
        0,
        0,
        0,
        0,
        0,
        0,
        0,
        0,
        0,
        0,
        0,
        0,
        0,
        0,
        0,
        0,
        0,
        0,
        0,
        0,
        0,
        0,
        0,
        0,
        0,
        0,
        0,
        0,
        0,
        0,
        0,
        0,
        0,
        0,
        0,
        0,
        0,
        0,
        0,
        0,
        0,
        0,
        0,
        0,
        0,
        0,
        0,
        0,
        0,
        0,
        0,
        0,
        0,
        0,
        0,
        0,
        0,
        0,
        0,
        0,
        0,
        0,
        0,
        0,
        0,
        0,
        0,
        0,
        0,
        0,
        0,
        0,
        0,
        0,
        0,
        0,
        0,
        0,
        0,
        0,
        0,
        0,
        0,
        0,
        0,
        0,
        0,
        0,
        0,
        0,
        0,
        0,
        0,
        0,
        0,
        0,
        0,
        0,
        0,
        0,
        0,
        0,
        0,
        0,
        0,
        0,
        0,
        0,
        0,
        0,
        0,
        0,
        0,
        0,
        0,
        0,
        0,
        0,
        0,
        0,
        0,
        0,
        0,
        0,
        0,
        0,
        0,
        0,
        0,
        0,
        0,
        0,
        0,
        0,
        0,
        0,
        0,
        0,
        0,
        0,
        0,
        0,
        0,
        0,
        0,
        0,
        0,
        0,
        0,
        0,
        0,
        0,
        0,
        0,
        0,
        0,
        0,
        0,
        0,
        0,
        0,
        0,
        0,
        0,
        0,
        0,
        0,
        0,
        0,
        0,
        0,
        0,
        0,
        0,
        0,
        0,
        0,
        0,
        0,
        0,
        0,
        0,
        0,
        0,
        0,
        0,
        0,
        0,
        0,
        0,
        0,
        0,
        0,
        0,
        0,
        0,
        0,
        0,
        0,
        0,
        0,
        0,
        0,
        0,
        0,
        0,
        0,
        0,
        0,
        0,
        0,
        0,
        0,
        0,
        0,
        0,
        0,
        0,
        0,
        0,
        0,
        0,
        0,
        0,
        0,
        0,
        0,
        0,
        0,
        0,
        0,
        0,
        0,
        0,
        0,
        0,
        0,
        0,
        0,
        0,
        0,
        0,
        0,
        0,
        0,
        0,
        0,
        0,
        0,
        0,
        0,
        0,
        0,
        0,
        0,
        0,
        0,
        0,
        0,
        0,
        0,
        0,
        0,
        0,
        0,
        0,
        0,
        0,
        0,
        0,
        0,
        0,
        0,
        0,
        0,
        0,
        0,
        0,
        0,
        0,
        0,
        0,
        0,
        0,
        0,
        0,
        0,
        0,
        0,
        0,
        0,
        0,
        0,
        0,
        0,
        0,
        0,
        0,
        0,
        0,
        0,
        0,
        0,
        0,
        0,
        0,
        0,
        0,
        0,
        0,
        0,
        0,
        0,
        0,
        0,
        0,
        0,
        0,
        0,
        0,
        0,
        0,
        0,
        0,
        0,
        0,
        0,
        0,
        0,
        0,
        0,
        0,
        0,
        0,
        0,
        0,
        0,
        0,
        0,
        0,
        0,
        0,
        0,
        0,
        0,
        0,
        0,
        0,
        0,
        0,
        0,
        0,
        0,
        0,
        0,
        0,
        0,
        0,
        0,
        0,
        0,
        0,
        0,
        0,
        0,
        0,
        0,
        0,
        0,
        0,
        0,
        0,
        0,
        0,
        0,
        0,
        0,
        0,
        0,
        0,
        0,
        0,
        0,
        0,
        0,
        0,
        0,
        0,
        0,
        0,
        0,
        0,
        0,
        0,
        0,
        0,
        0,
        0,
        0,
        0,
        0,
        0,
        0,
        0,
        0,
        0,
        0,
        0,
        0,
        0,
        0,
        0,
        0,
        0,
        0,
        0,
        0,
        0,
        0,
        0,
        0,
        0,
        0,
        0,
        0,
        0,
        0,
        0,
        0,
        0,
        0,
        0,
        0,
        0,
        0,
        0,
        0,
        0,
        0,
        0,
        0,
        0,
        0,
        0,
        0,
        0,
        0,
        0,
        0,
        0,
        0,
        0,
        0,
        0,
        0,
        0,
        0,
        0,
        0,
        0,
        0,
        0,
        0,
        0,
        0,
        0,
        0,
        0,
        0,
        0,
        0,
        0,
        0,
        0,
        0,
        0,
        0,
        0,
        0,
        0,
        0,
        0,
        0,
        0,
        0,
        0,
        0,
        0,
        0,
        0,
        0,
        0,
        0,
        0,
        0,
        0,
        0,
        0,
        0,
        0,
        0,
        0,
        0,
        0,
        0,
        0,
        0,
        0,
        0,
        0,
        0,
        0,
        0,
        0,
        0,
        0,
        0,
        0,
        0,
        0,
        0,
        0,
        0,
        0,
        0,
        0,
        0,
        0,
        0,
        0,
        0,
        0,
        0,
        0,
        0,
        0,
        0,
        0,
        0,
        0,
        0,
        0,
        0,
        0,
        0,
        0,
        0,
        0,
        0,
        0,
        0,
        0,
        0,
        0,
        0,
        0,
        0,
        0,
        0,
        0,
        0,
        0,
        0,
        0,
        0,
        0,
        0,
        0,
        0,
        0,
        0,
        0,
        0,
        0,
        0,
        0,
        0,
        0,
        0,
        0,
        0,
        0,
        0,
        0,
        0,
        0,
        0,
        0,
        0,
        0,
        0,
        0,
        0,
        0,
        0,
        0,
        0,
        0,
        0,
        0,
        0,
        0,
        0,
        0,
        0,
        0,
        0,
        0,
        0,
        0,
        0,
        0,
        0,
        0,
        0,
        0,
        0,
        0,
        0,
        0,
        0,
        0,
        0,
        0,
        0,
        0,
        0,
        0,
        0,
        0,
        0,
        0,
        0,
        0,
        0,
        0,
        0,
        0,
        0,
        0,
        0,
        0,
        0,
        0,
        0,
        0,
        0,
        0,
        0,
        0,
        0,
        0,
        0,
        0,
        0,
        0,
        0,
        0,
        0,
        0,
        0,
        0,
        0,
        0,
        0,
        0,
        0,
        0,
        0,
        0,
        0,
        0,
        0,
        0,
        0,
        0,
        0,
        0,
        0,
        0,
        0,
        0,
        0,
        0,
        0,
        0,
        0,
        0,
        0,
        0,
        0,
        0,
        0,
        0,
        0,
        0,
        0,
        0,
        0,
        0,
        0,
        0,
        0,
        0,
        0,
        0,
        0,
        0,
        0,
        0,
        0,
        0,
        0,
        0,
        0,
        0,
        0,
        0,
        0,
        0,
        0,
        0,
        0,
        0,
        0,
        0,
        0,
        0,
        0,
        0,
        0,
        0,
        0,
        0,
        0,
        0,
        0,
        0,
        0,
        0,
        0,
        0,
        0,
        0,
        0,
        0,
        0,
        0,
        0,
        0,
        0,
        0,
        0,
        0,
        0,
        0,
        0,
        0,
        0,
        0,
        0,
        0,
        0,
        0,
        0,
        0,
        0,
        0,
        0,
        0,
        0,
        0,
        0,
        0,
        0,
        0,
        0,
        0,
        0,
        0,
        0,
        0,
        0,
        0,
        0,
        0,
        0,
        0,
        0,
        0,
        0,
        0,
        0,
        0,
        0,
        0,
        0,
        0,
        0,
        0,
        0,
        0,
        0,
        0,
        0,
        0,
        0,
        0,
        0,
        0,
        0,
        0,
        0,
        0,
        0,
        0,
        0,
        0,
        0,
        0,
        0,
        0,
        0,
        0,
        0,
        0,
        0,
        0,
        0,
        0,
        0,
        0,
        0,
        0,
        0,
        0,
        0,
        0,
        0,
        0,
        0,
        0,
        0,
        0,
        0,
        0,
        0,
        0,
        0,
        0,
        0,
        0,
        0,
        0,
        0,
        0,
        0,
        0,
        0,
        0,
        0,
        0,
        0,
        0,
        0,
        0,
        0,
        0,
        0,
        0,
        0,
        0,
        0,
        0,
        0,
        0,
        0,
        0,
        0,
        0,
        0,
        0,
        0,
        0,
        0,
        0,
        0,
        0,
        0,
        0,
        0,
        0,
        0,
        0,
        0,
        0,
        0,
        0,
        0,
        0,
        0,
        0,
        0,
        0,
        0,
        0,
        0,
        0,
        0,
        0,
        0,
        0,
        0,
        0,
        0,
        0,
        0,
        0,
        0,
        0,
        0,
        0,
        0,
        0,
        0,
        0,
        0,
        0,
        0,
        0,
        0,
        0,
        0,
        0,
        0,
        0,
        0,
        0,
        0,
        0,
        0,
        0,
        0,
        0,
        0,
        0,
        0,
        0,
        0,
        0,
        0,
        0,
        0,
        0,
        0,
        0,
        0,
        0,
        0,
        0,
        0,
        0,
        0,
        0,
        0,
        0,
        0,
        0,
        0,
        0,
        0,
        0,
        0,
        0,
        0,
        0,
        0,
        0,
        0,
        0,
        0,
        0,
        0,
        0,
        0,
        0,
        0,
        0,
        0,
        0,
        0,
        0,
        0,
        0,
        0,
        0,
        0,
        0,
        0,
        0,
        0,
        0,
        0,
        0,
        0,
        0,
        0,
        0,
        0,
        0,
        0,
        0,
        0,
        0,
        0,
        0,
        0,
        0,
        0,
        0,
        0,
        0,
        0,
        0,
        0,
        0,
        0,
        0,
        0,
        0,
        0,
        0,
        0,
        0,
        0,
        0,
        0,
        0,
        0,
        0,
        0,
        0,
        0,
        0,
        0,
        0,
        0,
        0,
        0,
        0,
        0,
        0,
        0,
        0,
        0,
        0,
        0,
        0,
        0,
        0,
        0,
        0,
        0,
        0,
        0,
        0,
        0,
        0,
        0,
        0,
        0,
        0,
        0,
        0,
        0,
        0,
        0,
        0,
        0,
        0,
        0,
        0,
        0,
        0,
        0,
        0,
        0,
        0,
        0,
        0,
        0,
        0,
        0,
        0,
        0,
        0,
        0,
        0,
        0,
        0,
        0,
        0,
        0,
        0,
        0,
        0,
        0,
        0,
        0,
        0,
        0,
        0,
        0,
        0,
        0,
        0,
        0,
        0,
        0,
        0,
        0,
        0,
        0,
        0,
        0,
        0,
        0,
        0,
        0,
        0,
        0,
        0,
        0,
        0,
        0,
        0,
        0,
        0,
        0,
        0,
        0,
        0,
        0,
        0,
        0,
        0,
        0,
        0,
        0,
        0,
        0,
        0,
        0,
        0,
        0,
        0,
        0,
        0,
        0,
        0,
        0,
        0,
        0,
        0,
        0,
        0,
        0,
        0,
        0,
        0,
        0,
        0,
        0,
        0,
        0,
        0,
        0,
        0,
        0,
        0,
        0,
        0,
        0,
        0,
        0,
        0,
        0,
        0,
        0,
        0,
        0,
        0,
        0,
        0,
        0,
        0,
        0,
        0,
        0,
        0,
        0,
        0,
        0,
        0,
        0,
        0,
        0,
        0,
        0,
        0,
        0,
        0,
        0,
        0,
        0,
        0,
        0,
        0,
        0,
        0,
        0,
        0,
        0,
        0,
        0,
        0,
        0,
        0,
        0,
        0,
        0,
        0,
        0,
        0,
        0,
        0,
        0,
        0,
        0,
        0,
        0,
        0,
        0,
        0,
        0,
        0,
        0,
        0,
        0,
        0,
        0,
        0,
        0,
        0,
        0,
        0,
        0,
        0,
        0,
        0,
        0,
        0,
        0,
        0,
        0,
        0,
        0,
        0,
        0,
        0,
        0,
        0,
        0,
        0,
        0,
        0,
        0,
        0,
        0,
        0,
        0,
        0,
        0,
        0,
        0,
        0,
        0,
        0,
        0,
        0,
        0,
        0,
        0,
        0,
        0,
        0,
        0,
        0,
        0,
        0,
        0,
        0,
        0,
        0,
        0,
        0,
        0,
        0,
        0,
        0,
        0,
        0,
        0,
        0,
        0,
        0,
        0,
        0,
        0,
        0,
        0,
        0,
        0,
        0,
        0,
        0,
        0,
        0,
        0,
        0,
        0,
        0,
        0,
        0,
        0,
        0,
        0,
        0,
        0,
        0,
        0,
        0,
        0,
        0,
        0,
        0,
        0,
        0,
        0,
        0,
        0,
        0,
        0,
        0,
        0,
        0,
        0,
        0,
        0,
        0,
        0,
        0,
        0,
        0,
        0,
        0,
        0,
        0,
        0,
        0,
        0,
        0,
        0,
        0,
        0,
        0,
        0,
        0,
        0,
        0,
        0,
        0,
        0,
        0,
        0,
        0,
        0,
        0,
        0,
        0,
        0,
        0,
        0,
        0,
        0,
        0,
        0,
        0,
        0,
        0,
        0,
        0,
        0,
        0,
        0,
        0,
        0,
        0,
        0,
        0,
        0,
        0,
        0,
        0,
        0,
        0,
        0,
        0,
        0,
        0,
        0,
        0,
        0,
        0,
        0,
        0,
        0,
        0,
        0,
        0,
        0,
        0,
        0,
        0,
        0,
        0,
        0,
        0,
        0,
        0,
        0,
        0,
        0,
        0,
        0,
        0,
        0,
        0,
        0,
        0,
        0,
        0,
        0,
        0,
        0,
        0,
        0,
        0,
        0,
        0,
        0,
        0,
        0,
        0,
        0,
        0,
        0,
        0,
        0,
        0,
        0,
        0,
        0,
        0,
        0,
        0,
        0,
        0,
        0,
        0,
        0,
        0,
        0,
        0,
        0,
        0,
        0,
        0,
        0,
        0,
        0,
        0,
        0,
        0,
        0,
        0,
        0,
        0,
        0,
        0,
        0,
        0,
        0,
        0,
        0,
        0,
        0,
        0,
        0,
        0,
        0,
        0,
        0,
        0,
        0,
        0,
        0,
        0,
        0,
        0,
        0,
        0,
        0,
        0,
        0,
        0,
        0,
        0,
        0,
        0,
        0,
        0,
        0,
        0,
        0,
        0,
        0,
        0,
        0,
        0,
        0,
        0,
        0,
        0,
        0,
        0,
        0,
        0,
        0,
        0,
        0,
        0,
        0,
        0,
        0,
        0,
        0,
        0,
        0,
        0,
        0,
        0,
        0,
        0,
        0,
        0,
        0,
        0,
        0,
        0,
        0,
        0,
        0,
        0,
        0,
        0,
        0,
        0,
        0,
        0,
        0,
        0,
        0,
        0,
        0,
        0,
        0,
        0,
        0,
        0,
        0,
        0,
        0,
        0,
        0,
        0,
        0,
        0,
        0,
        0,
        0,
        0,
        0,
        0,
        0,
        0,
        0,
        0,
        0,
        0,
        0,
        0,
        0,
        0,
        0,
        0,
        0,
        0,
        0,
        0,
        0,
        0,
        0
      ]
    },
    {
      "id": 5,
      "name": "Thicket",
      "type": "tilelayer",
      "x": 0,
      "y": 0,
      "width": 96,
      "height": 72,
      "opacity": 1,
      "visible": true,
      "data": [
        17,
        18,
        17,
        17,
        17,
        17,
        17,
        17,
        17,
        17,
        18,
        17,
        18,
        17,
        18,
        17,
        17,
        18,
        18,
        17,
        18,
        18,
        18,
        18,
        17,
        17,
        17,
        18,
        17,
        18,
        17,
        18,
        17,
        18,
        17,
        17,
        17,
        17,
        17,
        17,
        0,
        0,
        18,
        17,
        17,
        18,
        17,
        18,
        17,
        17,
        17,
        18,
        18,
        17,
        17,
        17,
        18,
        18,
        18,
        17,
        17,
        17,
        18,
        17,
        17,
        18,
        17,
        17,
        17,
        17,
        17,
        18,
        17,
        18,
        17,
        18,
        17,
        18,
        17,
        17,
        18,
        17,
        17,
        17,
        17,
        17,
        18,
        17,
        17,
        17,
        17,
        17,
        17,
        18,
        17,
        18,
        17,
        18,
        17,
        18,
        17,
        18,
        17,
        17,
        17,
        17,
        17,
        17,
        17,
        17,
        17,
        17,
        17,
        17,
        17,
        17,
        17,
        17,
        17,
        17,
        18,
        17,
        17,
        17,
        17,
        18,
        17,
        17,
        18,
        18,
        17,
        17,
        17,
        17,
        17,
        17,
        0,
        0,
        17,
        17,
        18,
        17,
        18,
        18,
        18,
        17,
        18,
        17,
        18,
        17,
        17,
        17,
        18,
        18,
        17,
        17,
        17,
        17,
        18,
        17,
        17,
        17,
        18,
        17,
        17,
        18,
        18,
        17,
        17,
        18,
        18,
        18,
        17,
        17,
        17,
        18,
        18,
        17,
        17,
        17,
        18,
        18,
        17,
        18,
        18,
        17,
        18,
        17,
        18,
        18,
        17,
        18,
        18,
        18,
        0,
        0,
        0,
        0,
        0,
        0,
        0,
        0,
        0,
        0,
        0,
        0,
        0,
        0,
        0,
        0,
        0,
        0,
        0,
        0,
        0,
        0,
        0,
        0,
        0,
        0,
        0,
        0,
        0,
        0,
        0,
        0,
        0,
        0,
        0,
        0,
        0,
        0,
        0,
        0,
        0,
        0,
        0,
        0,
        0,
        0,
        0,
        0,
        0,
        0,
        0,
        0,
        0,
        0,
        0,
        0,
        0,
        0,
        0,
        0,
        0,
        0,
        0,
        0,
        0,
        0,
        0,
        0,
        0,
        0,
        0,
        0,
        0,
        0,
        0,
        0,
        0,
        0,
        0,
        0,
        0,
        0,
        0,
        0,
        0,
        0,
        0,
        0,
        0,
        0,
        0,
        0,
        17,
        18,
        18,
        17,
        0,
        0,
        0,
        0,
        0,
        0,
        0,
        0,
        0,
        0,
        0,
        0,
        0,
        0,
        0,
        0,
        0,
        0,
        0,
        0,
        0,
        0,
        0,
        0,
        0,
        0,
        0,
        0,
        0,
        0,
        0,
        0,
        0,
        0,
        0,
        0,
        0,
        0,
        0,
        0,
        0,
        0,
        0,
        0,
        0,
        0,
        0,
        0,
        0,
        0,
        0,
        0,
        0,
        0,
        0,
        0,
        0,
        0,
        0,
        0,
        0,
        0,
        0,
        0,
        0,
        0,
        0,
        0,
        0,
        0,
        0,
        0,
        0,
        0,
        0,
        0,
        0,
        0,
        0,
        0,
        0,
        0,
        0,
        0,
        0,
        0,
        0,
        0,
        0,
        0,
        0,
        0,
        18,
        17,
        17,
        17,
        0,
        0,
        0,
        0,
        0,
        0,
        0,
        0,
        0,
        0,
        0,
        0,
        0,
        0,
        0,
        0,
        0,
        0,
        0,
        0,
        0,
        0,
        0,
        0,
        0,
        0,
        0,
        0,
        0,
        0,
        0,
        0,
        0,
        0,
        0,
        0,
        0,
        0,
        0,
        0,
        0,
        0,
        0,
        0,
        0,
        0,
        0,
        0,
        0,
        0,
        0,
        0,
        0,
        0,
        18,
        17,
        0,
        0,
        0,
        0,
        0,
        0,
        0,
        0,
        0,
        0,
        0,
        0,
        0,
        0,
        0,
        0,
        0,
        0,
        0,
        0,
        0,
        0,
        0,
        0,
        0,
        0,
        0,
        0,
        0,
        0,
        0,
        0,
        0,
        0,
        0,
        0,
        17,
        17,
        18,
        17,
        0,
        0,
        0,
        0,
        0,
        0,
        0,
        0,
        0,
        0,
        0,
        0,
        0,
        0,
        0,
        0,
        0,
        0,
        0,
        0,
        0,
        0,
        0,
        0,
        0,
        0,
        0,
        0,
        0,
        0,
        0,
        0,
        0,
        0,
        0,
        0,
        0,
        0,
        0,
        0,
        0,
        0,
        0,
        0,
        0,
        0,
        0,
        0,
        0,
        0,
        0,
        0,
        0,
        0,
        17,
        17,
        0,
        0,
        0,
        0,
        0,
        0,
        0,
        0,
        0,
        0,
        0,
        0,
        0,
        0,
        0,
        0,
        0,
        0,
        0,
        0,
        0,
        0,
        0,
        0,
        0,
        0,
        0,
        0,
        0,
        0,
        0,
        0,
        0,
        0,
        0,
        0,
        17,
        17,
        17,
        18,
        0,
        0,
        0,
        0,
        0,
        0,
        0,
        0,
        0,
        0,
        0,
        0,
        0,
        0,
        0,
        0,
        0,
        0,
        0,
        0,
        0,
        0,
        0,
        0,
        0,
        0,
        0,
        0,
        0,
        0,
        0,
        0,
        0,
        0,
        0,
        0,
        0,
        0,
        0,
        0,
        0,
        0,
        0,
        0,
        0,
        0,
        0,
        0,
        0,
        0,
        0,
        0,
        0,
        0,
        17,
        17,
        0,
        0,
        0,
        0,
        0,
        0,
        0,
        0,
        0,
        0,
        0,
        0,
        0,
        0,
        0,
        0,
        0,
        0,
        0,
        0,
        0,
        0,
        0,
        0,
        0,
        0,
        0,
        0,
        0,
        0,
        0,
        0,
        0,
        0,
        0,
        0,
        17,
        17,
        17,
        17,
        0,
        0,
        18,
        18,
        0,
        0,
        0,
        0,
        0,
        0,
        0,
        0,
        0,
        0,
        0,
        0,
        0,
        0,
        0,
        0,
        0,
        0,
        0,
        0,
        0,
        0,
        0,
        0,
        0,
        0,
        0,
        0,
        0,
        0,
        0,
        0,
        0,
        0,
        0,
        0,
        0,
        0,
        0,
        0,
        0,
        0,
        0,
        0,
        0,
        0,
        0,
        0,
        0,
        0,
        17,
        17,
        0,
        0,
        0,
        0,
        0,
        0,
        0,
        0,
        0,
        0,
        0,
        0,
        0,
        0,
        0,
        0,
        0,
        0,
        0,
        0,
        0,
        0,
        0,
        0,
        0,
        0,
        0,
        0,
        0,
        0,
        0,
        0,
        0,
        0,
        0,
        0,
        17,
        17,
        18,
        17,
        0,
        0,
        17,
        17,
        0,
        0,
        0,
        0,
        0,
        0,
        0,
        0,
        0,
        0,
        0,
        0,
        0,
        0,
        0,
        0,
        0,
        0,
        0,
        0,
        0,
        0,
        0,
        0,
        0,
        0,
        0,
        0,
        0,
        0,
        0,
        0,
        0,
        0,
        0,
        0,
        0,
        0,
        0,
        0,
        0,
        0,
        0,
        0,
        0,
        0,
        0,
        0,
        0,
        0,
        0,
        0,
        0,
        0,
        0,
        0,
        0,
        0,
        0,
        0,
        0,
        0,
        0,
        0,
        0,
        0,
        0,
        0,
        0,
        0,
        0,
        0,
        0,
        0,
        0,
        0,
        0,
        0,
        0,
        0,
        0,
        0,
        0,
        0,
        0,
        0,
        0,
        0,
        17,
        17,
        18,
        17,
        0,
        0,
        18,
        17,
        0,
        0,
        0,
        0,
        0,
        0,
        0,
        0,
        0,
        0,
        0,
        0,
        0,
        0,
        0,
        0,
        0,
        0,
        0,
        0,
        0,
        0,
        0,
        0,
        0,
        0,
        0,
        0,
        0,
        0,
        0,
        0,
        0,
        0,
        0,
        0,
        0,
        0,
        0,
        0,
        0,
        0,
        0,
        0,
        0,
        0,
        0,
        0,
        0,
        0,
        0,
        0,
        0,
        0,
        0,
        0,
        0,
        0,
        0,
        0,
        0,
        0,
        0,
        0,
        0,
        0,
        0,
        0,
        0,
        0,
        0,
        0,
        0,
        0,
        0,
        0,
        0,
        0,
        0,
        0,
        0,
        0,
        0,
        0,
        0,
        0,
        0,
        0,
        18,
        17,
        17,
        17,
        0,
        0,
        18,
        17,
        0,
        0,
        0,
        0,
        0,
        0,
        0,
        0,
        0,
        0,
        0,
        0,
        0,
        0,
        0,
        0,
        0,
        0,
        0,
        0,
        0,
        0,
        0,
        0,
        0,
        0,
        0,
        0,
        0,
        0,
        0,
        17,
        18,
        18,
        18,
        17,
        0,
        0,
        0,
        0,
        0,
        0,
        0,
        0,
        0,
        0,
        0,
        0,
        0,
        0,
        0,
        0,
        0,
        0,
        0,
        0,
        0,
        0,
        0,
        0,
        0,
        0,
        0,
        0,
        0,
        0,
        0,
        0,
        0,
        0,
        0,
        0,
        0,
        0,
        0,
        0,
        0,
        0,
        0,
        0,
        0,
        0,
        0,
        0,
        0,
        0,
        0,
        0,
        18,
        18,
        17,
        17,
        0,
        0,
        0,
        0,
        0,
        0,
        0,
        0,
        0,
        0,
        0,
        0,
        0,
        17,
        17,
        17,
        17,
        0,
        0,
        0,
        0,
        0,
        0,
        0,
        0,
        0,
        0,
        0,
        0,
        0,
        0,
        0,
        0,
        0,
        0,
        18,
        17,
        18,
        18,
        18,
        0,
        0,
        0,
        0,
        0,
        0,
        0,
        0,
        0,
        0,
        0,
        0,
        0,
        0,
        0,
        0,
        0,
        0,
        0,
        0,
        0,
        0,
        0,
        0,
        0,
        0,
        0,
        0,
        0,
        0,
        0,
        0,
        0,
        0,
        0,
        0,
        0,
        0,
        0,
        0,
        0,
        0,
        0,
        0,
        0,
        0,
        0,
        0,
        0,
        0,
        0,
        0,
        17,
        18,
        17,
        18,
        0,
        0,
        0,
        0,
        0,
        0,
        0,
        0,
        0,
        0,
        0,
        0,
        0,
        17,
        18,
        17,
        17,
        0,
        0,
        0,
        0,
        0,
        0,
        0,
        0,
        0,
        0,
        0,
        0,
        0,
        0,
        0,
        0,
        0,
        0,
        0,
        0,
        0,
        0,
        0,
        0,
        0,
        0,
        0,
        0,
        0,
        0,
        0,
        0,
        0,
        0,
        0,
        0,
        0,
        0,
        0,
        0,
        0,
        0,
        0,
        0,
        0,
        0,
        0,
        0,
        0,
        0,
        0,
        0,
        0,
        0,
        0,
        0,
        0,
        0,
        0,
        0,
        0,
        0,
        0,
        0,
        0,
        0,
        0,
        0,
        0,
        0,
        0,
        0,
        0,
        0,
        0,
        17,
        18,
        17,
        18,
        0,
        0,
        0,
        0,
        0,
        0,
        0,
        0,
        0,
        0,
        0,
        0,
        0,
        18,
        17,
        17,
        18,
        0,
        0,
        0,
        0,
        0,
        0,
        0,
        0,
        0,
        0,
        0,
        0,
        0,
        0,
        0,
        0,
        0,
        0,
        0,
        0,
        0,
        0,
        0,
        0,
        0,
        0,
        0,
        0,
        0,
        0,
        0,
        0,
        0,
        0,
        0,
        0,
        0,
        0,
        0,
        0,
        0,
        0,
        0,
        0,
        0,
        0,
        0,
        0,
        0,
        0,
        0,
        0,
        0,
        0,
        0,
        0,
        0,
        0,
        0,
        0,
        0,
        0,
        0,
        0,
        0,
        0,
        0,
        0,
        0,
        0,
        0,
        0,
        0,
        0,
        0,
        18,
        18,
        17,
        17,
        0,
        0,
        0,
        0,
        0,
        0,
        0,
        0,
        0,
        0,
        0,
        0,
        0,
        0,
        0,
        0,
        0,
        0,
        0,
        0,
        0,
        0,
        0,
        0,
        0,
        0,
        0,
        0,
        0,
        0,
        0,
        0,
        0,
        0,
        0,
        0,
        0,
        0,
        0,
        0,
        0,
        0,
        0,
        0,
        0,
        0,
        0,
        0,
        0,
        0,
        0,
        0,
        0,
        0,
        0,
        0,
        0,
        0,
        0,
        0,
        0,
        0,
        0,
        0,
        0,
        0,
        0,
        0,
        0,
        0,
        0,
        0,
        0,
        0,
        0,
        0,
        0,
        0,
        0,
        0,
        0,
        0,
        0,
        0,
        0,
        0,
        0,
        0,
        0,
        0,
        0,
        0,
        17,
        17,
        17,
        17,
        0,
        0,
        0,
        0,
        0,
        0,
        0,
        0,
        0,
        0,
        0,
        0,
        0,
        0,
        0,
        0,
        0,
        0,
        0,
        0,
        0,
        0,
        0,
        0,
        0,
        0,
        0,
        0,
        0,
        0,
        0,
        0,
        0,
        0,
        0,
        0,
        0,
        0,
        0,
        0,
        0,
        0,
        0,
        0,
        0,
        0,
        0,
        0,
        0,
        0,
        0,
        0,
        0,
        0,
        0,
        0,
        0,
        0,
        0,
        0,
        0,
        0,
        0,
        0,
        0,
        0,
        0,
        0,
        0,
        0,
        0,
        0,
        0,
        0,
        0,
        0,
        0,
        0,
        0,
        0,
        0,
        0,
        0,
        0,
        0,
        0,
        0,
        0,
        0,
        0,
        0,
        0,
        18,
        17,
        18,
        17,
        0,
        0,
        0,
        0,
        0,
        0,
        0,
        0,
        0,
        0,
        0,
        0,
        0,
        0,
        0,
        0,
        0,
        0,
        0,
        0,
        0,
        0,
        0,
        0,
        0,
        0,
        0,
        0,
        0,
        0,
        0,
        0,
        0,
        0,
        0,
        0,
        0,
        0,
        0,
        0,
        0,
        0,
        0,
        0,
        0,
        0,
        0,
        0,
        0,
        0,
        0,
        0,
        0,
        0,
        0,
        0,
        0,
        0,
        0,
        0,
        0,
        0,
        0,
        0,
        0,
        0,
        0,
        0,
        0,
        0,
        0,
        0,
        0,
        0,
        0,
        0,
        0,
        0,
        0,
        0,
        0,
        0,
        0,
        0,
        0,
        0,
        0,
        0,
        0,
        0,
        0,
        0,
        17,
        18,
        18,
        17,
        0,
        0,
        0,
        0,
        0,
        0,
        0,
        0,
        0,
        0,
        0,
        0,
        0,
        0,
        0,
        0,
        0,
        0,
        0,
        0,
        0,
        0,
        0,
        0,
        0,
        0,
        0,
        0,
        0,
        0,
        0,
        0,
        0,
        0,
        0,
        0,
        0,
        0,
        0,
        0,
        0,
        0,
        0,
        0,
        0,
        0,
        0,
        0,
        0,
        0,
        0,
        0,
        0,
        0,
        0,
        0,
        0,
        0,
        0,
        0,
        0,
        0,
        0,
        0,
        0,
        0,
        0,
        0,
        0,
        0,
        0,
        0,
        0,
        0,
        0,
        0,
        0,
        0,
        0,
        0,
        0,
        0,
        0,
        0,
        0,
        0,
        0,
        0,
        0,
        0,
        0,
        0,
        18,
        17,
        17,
        17,
        0,
        0,
        0,
        0,
        0,
        0,
        0,
        0,
        0,
        0,
        0,
        0,
        0,
        0,
        0,
        0,
        0,
        0,
        0,
        0,
        0,
        0,
        0,
        0,
        0,
        0,
        0,
        0,
        0,
        0,
        0,
        0,
        0,
        0,
        0,
        0,
        0,
        0,
        0,
        0,
        0,
        0,
        0,
        0,
        0,
        0,
        0,
        0,
        0,
        0,
        0,
        0,
        0,
        0,
        0,
        0,
        0,
        0,
        0,
        0,
        0,
        0,
        0,
        0,
        0,
        0,
        0,
        0,
        0,
        0,
        0,
        0,
        0,
        0,
        0,
        0,
        0,
        0,
        0,
        0,
        0,
        0,
        0,
        0,
        0,
        0,
        0,
        0,
        0,
        0,
        0,
        0,
        18,
        18,
        18,
        17,
        0,
        0,
        0,
        0,
        0,
        0,
        0,
        0,
        0,
        0,
        0,
        0,
        0,
        0,
        0,
        0,
        0,
        0,
        0,
        0,
        0,
        0,
        0,
        0,
        0,
        0,
        0,
        0,
        0,
        0,
        0,
        0,
        0,
        0,
        0,
        0,
        0,
        0,
        0,
        0,
        0,
        0,
        0,
        0,
        0,
        0,
        0,
        0,
        0,
        0,
        0,
        0,
        0,
        0,
        0,
        0,
        0,
        0,
        0,
        0,
        0,
        0,
        0,
        0,
        0,
        0,
        0,
        0,
        0,
        0,
        0,
        0,
        0,
        0,
        0,
        0,
        0,
        0,
        0,
        0,
        0,
        0,
        0,
        0,
        0,
        0,
        0,
        0,
        0,
        0,
        0,
        0,
        17,
        17,
        17,
        17,
        0,
        0,
        0,
        0,
        0,
        0,
        0,
        0,
        0,
        0,
        0,
        0,
        0,
        0,
        0,
        0,
        0,
        0,
        0,
        0,
        0,
        0,
        0,
        0,
        0,
        0,
        0,
        0,
        0,
        0,
        0,
        0,
        0,
        0,
        0,
        0,
        0,
        0,
        0,
        0,
        0,
        0,
        0,
        0,
        0,
        0,
        0,
        0,
        0,
        0,
        0,
        0,
        0,
        0,
        0,
        0,
        0,
        0,
        0,
        0,
        0,
        0,
        0,
        0,
        0,
        0,
        0,
        0,
        0,
        0,
        0,
        0,
        0,
        0,
        0,
        0,
        0,
        0,
        0,
        0,
        0,
        0,
        0,
        0,
        0,
        0,
        0,
        0,
        0,
        0,
        0,
        0,
        18,
        17,
        17,
        18,
        0,
        0,
        0,
        0,
        0,
        0,
        0,
        0,
        0,
        0,
        0,
        0,
        0,
        0,
        0,
        0,
        0,
        0,
        0,
        0,
        0,
        0,
        0,
        0,
        0,
        0,
        0,
        0,
        0,
        0,
        0,
        0,
        0,
        0,
        0,
        0,
        0,
        0,
        0,
        0,
        0,
        0,
        0,
        0,
        0,
        0,
        0,
        0,
        0,
        0,
        0,
        0,
        0,
        0,
        0,
        0,
        0,
        0,
        0,
        0,
        0,
        0,
        0,
        0,
        0,
        0,
        0,
        0,
        0,
        0,
        0,
        0,
        0,
        0,
        0,
        0,
        0,
        0,
        0,
        0,
        0,
        0,
        0,
        0,
        0,
        0,
        0,
        0,
        0,
        0,
        0,
        0,
        17,
        17,
        18,
        18,
        0,
        0,
        0,
        0,
        0,
        0,
        0,
        0,
        0,
        0,
        0,
        0,
        0,
        0,
        0,
        0,
        0,
        0,
        0,
        0,
        0,
        0,
        0,
        0,
        0,
        0,
        0,
        0,
        0,
        0,
        0,
        0,
        0,
        0,
        0,
        0,
        0,
        0,
        0,
        0,
        0,
        0,
        0,
        0,
        0,
        0,
        0,
        0,
        0,
        0,
        0,
        0,
        0,
        0,
        0,
        0,
        0,
        0,
        0,
        0,
        0,
        0,
        0,
        0,
        0,
        0,
        0,
        0,
        0,
        0,
        0,
        0,
        0,
        0,
        0,
        0,
        0,
        0,
        0,
        0,
        0,
        0,
        0,
        0,
        0,
        0,
        0,
        0,
        0,
        0,
        0,
        0,
        18,
        17,
        18,
        17,
        0,
        0,
        0,
        0,
        0,
        0,
        0,
        0,
        0,
        0,
        0,
        0,
        0,
        0,
        0,
        0,
        0,
        0,
        0,
        0,
        0,
        0,
        0,
        0,
        0,
        0,
        0,
        0,
        0,
        0,
        0,
        0,
        0,
        0,
        0,
        0,
        0,
        0,
        0,
        0,
        0,
        0,
        0,
        0,
        0,
        0,
        0,
        0,
        0,
        0,
        0,
        0,
        0,
        0,
        0,
        0,
        0,
        0,
        0,
        0,
        0,
        0,
        0,
        0,
        0,
        0,
        0,
        0,
        0,
        0,
        0,
        0,
        0,
        0,
        0,
        0,
        0,
        0,
        0,
        0,
        0,
        0,
        0,
        0,
        0,
        0,
        0,
        0,
        0,
        0,
        0,
        0,
        18,
        17,
        17,
        18,
        0,
        0,
        0,
        0,
        0,
        0,
        18,
        17,
        17,
        0,
        0,
        0,
        0,
        0,
        0,
        0,
        0,
        0,
        0,
        0,
        0,
        0,
        0,
        0,
        0,
        0,
        0,
        0,
        0,
        0,
        0,
        0,
        0,
        0,
        0,
        0,
        0,
        0,
        0,
        0,
        0,
        0,
        0,
        0,
        0,
        0,
        0,
        0,
        0,
        0,
        0,
        0,
        0,
        0,
        0,
        0,
        0,
        0,
        0,
        0,
        0,
        0,
        0,
        0,
        0,
        0,
        0,
        0,
        0,
        0,
        0,
        0,
        0,
        0,
        0,
        0,
        0,
        0,
        0,
        0,
        0,
        0,
        0,
        0,
        0,
        0,
        0,
        0,
        0,
        0,
        0,
        0,
        17,
        17,
        17,
        18,
        0,
        0,
        0,
        0,
        0,
        0,
        18,
        18,
        18,
        0,
        0,
        0,
        0,
        0,
        0,
        0,
        0,
        0,
        0,
        0,
        0,
        0,
        0,
        0,
        0,
        0,
        0,
        0,
        0,
        0,
        0,
        0,
        0,
        0,
        0,
        0,
        0,
        0,
        0,
        0,
        0,
        0,
        0,
        0,
        0,
        0,
        0,
        0,
        0,
        0,
        0,
        0,
        0,
        0,
        0,
        0,
        0,
        0,
        0,
        0,
        0,
        0,
        0,
        0,
        0,
        0,
        0,
        0,
        0,
        0,
        0,
        0,
        0,
        0,
        0,
        0,
        0,
        0,
        0,
        0,
        0,
        0,
        0,
        0,
        0,
        0,
        0,
        0,
        17,
        17,
        17,
        17,
        18,
        18,
        17,
        17,
        0,
        0,
        0,
        0,
        0,
        0,
        17,
        18,
        17,
        0,
        0,
        0,
        0,
        0,
        0,
        0,
        0,
        0,
        0,
        0,
        0,
        0,
        0,
        0,
        0,
        0,
        0,
        0,
        0,
        0,
        0,
        0,
        0,
        0,
        0,
        0,
        0,
        0,
        0,
        0,
        0,
        0,
        0,
        0,
        0,
        0,
        0,
        0,
        0,
        0,
        0,
        0,
        0,
        0,
        0,
        0,
        0,
        0,
        0,
        0,
        0,
        0,
        0,
        0,
        0,
        0,
        0,
        0,
        0,
        0,
        0,
        0,
        0,
        0,
        0,
        0,
        0,
        0,
        0,
        0,
        0,
        0,
        0,
        0,
        0,
        0,
        0,
        0,
        18,
        18,
        18,
        17,
        17,
        17,
        17,
        17,
        0,
        0,
        0,
        0,
        0,
        0,
        0,
        0,
        0,
        0,
        0,
        0,
        0,
        0,
        0,
        0,
        0,
        0,
        0,
        0,
        0,
        0,
        0,
        0,
        0,
        0,
        0,
        0,
        0,
        0,
        0,
        0,
        0,
        0,
        0,
        0,
        0,
        0,
        0,
        0,
        0,
        0,
        0,
        0,
        0,
        0,
        0,
        0,
        0,
        0,
        0,
        0,
        0,
        0,
        0,
        0,
        0,
        0,
        0,
        0,
        0,
        0,
        0,
        0,
        0,
        0,
        0,
        0,
        0,
        0,
        0,
        0,
        0,
        0,
        0,
        0,
        0,
        0,
        0,
        0,
        0,
        0,
        0,
        0,
        0,
        0,
        0,
        0,
        18,
        18,
        18,
        18,
        18,
        18,
        17,
        17,
        0,
        0,
        0,
        0,
        0,
        0,
        0,
        0,
        0,
        0,
        0,
        0,
        0,
        0,
        0,
        0,
        0,
        0,
        0,
        0,
        0,
        0,
        0,
        0,
        0,
        0,
        0,
        0,
        0,
        0,
        0,
        0,
        0,
        0,
        0,
        0,
        0,
        0,
        0,
        0,
        0,
        0,
        0,
        0,
        0,
        0,
        0,
        0,
        17,
        18,
        18,
        18,
        18,
        0,
        0,
        0,
        0,
        0,
        0,
        0,
        0,
        0,
        0,
        0,
        0,
        0,
        0,
        0,
        0,
        0,
        0,
        0,
        0,
        0,
        0,
        0,
        0,
        0,
        0,
        0,
        0,
        0,
        0,
        0,
        0,
        0,
        0,
        0,
        0,
        0,
        0,
        0,
        18,
        18,
        17,
        18,
        0,
        0,
        0,
        0,
        0,
        0,
        0,
        0,
        0,
        0,
        0,
        0,
        0,
        0,
        0,
        0,
        0,
        0,
        0,
        0,
        0,
        0,
        0,
        0,
        0,
        0,
        0,
        0,
        0,
        0,
        0,
        0,
        0,
        0,
        0,
        0,
        0,
        0,
        0,
        0,
        0,
        0,
        0,
        0,
        0,
        0,
        0,
        0,
        17,
        18,
        18,
        18,
        18,
        0,
        0,
        0,
        0,
        0,
        0,
        0,
        0,
        0,
        0,
        0,
        0,
        0,
        0,
        0,
        0,
        0,
        0,
        0,
        0,
        0,
        0,
        0,
        0,
        0,
        0,
        0,
        0,
        0,
        0,
        0,
        0,
        0,
        0,
        0,
        0,
        0,
        0,
        0,
        17,
        18,
        18,
        18,
        0,
        0,
        0,
        0,
        0,
        0,
        0,
        0,
        0,
        0,
        0,
        0,
        0,
        0,
        0,
        0,
        0,
        0,
        0,
        0,
        0,
        0,
        0,
        0,
        0,
        0,
        0,
        0,
        0,
        0,
        0,
        0,
        0,
        0,
        0,
        0,
        0,
        0,
        0,
        0,
        0,
        0,
        0,
        0,
        0,
        0,
        0,
        0,
        17,
        17,
        17,
        18,
        17,
        0,
        0,
        0,
        0,
        0,
        0,
        0,
        0,
        0,
        0,
        0,
        0,
        0,
        0,
        0,
        0,
        0,
        0,
        0,
        0,
        0,
        0,
        0,
        0,
        0,
        0,
        0,
        0,
        0,
        0,
        0,
        0,
        0,
        0,
        0,
        0,
        0,
        0,
        0,
        18,
        17,
        17,
        17,
        0,
        0,
        0,
        0,
        0,
        0,
        0,
        0,
        0,
        0,
        0,
        0,
        0,
        0,
        0,
        0,
        0,
        0,
        0,
        0,
        0,
        0,
        0,
        0,
        0,
        0,
        0,
        0,
        0,
        0,
        0,
        0,
        0,
        0,
        0,
        0,
        0,
        0,
        0,
        0,
        0,
        0,
        0,
        0,
        0,
        0,
        0,
        0,
        0,
        0,
        0,
        0,
        0,
        0,
        0,
        0,
        0,
        0,
        0,
        0,
        0,
        0,
        0,
        0,
        0,
        0,
        0,
        0,
        0,
        0,
        0,
        0,
        0,
        0,
        0,
        0,
        0,
        0,
        0,
        0,
        0,
        0,
        0,
        0,
        0,
        0,
        0,
        0,
        0,
        0,
        0,
        0,
        18,
        17,
        17,
        17,
        0,
        0,
        0,
        0,
        17,
        17,
        17,
        17,
        18,
        17,
        0,
        0,
        0,
        0,
        0,
        0,
        0,
        0,
        0,
        0,
        0,
        0,
        0,
        0,
        0,
        0,
        0,
        0,
        0,
        0,
        0,
        0,
        0,
        0,
        0,
        0,
        0,
        0,
        0,
        0,
        0,
        0,
        0,
        0,
        0,
        0,
        0,
        0,
        0,
        0,
        0,
        0,
        0,
        0,
        0,
        0,
        0,
        0,
        0,
        0,
        0,
        0,
        0,
        0,
        0,
        0,
        0,
        0,
        0,
        0,
        0,
        0,
        0,
        0,
        0,
        0,
        0,
        0,
        0,
        0,
        0,
        0,
        0,
        0,
        0,
        0,
        0,
        0,
        0,
        0,
        0,
        0,
        17,
        17,
        17,
        17,
        0,
        0,
        0,
        0,
        17,
        18,
        17,
        17,
        17,
        18,
        0,
        0,
        0,
        0,
        0,
        0,
        0,
        0,
        0,
        0,
        0,
        0,
        0,
        0,
        0,
        0,
        0,
        0,
        0,
        0,
        0,
        0,
        0,
        0,
        0,
        0,
        0,
        0,
        0,
        0,
        0,
        0,
        0,
        0,
        0,
        0,
        0,
        0,
        0,
        0,
        0,
        0,
        0,
        0,
        0,
        0,
        0,
        0,
        0,
        0,
        0,
        0,
        0,
        0,
        0,
        0,
        0,
        0,
        0,
        0,
        0,
        0,
        0,
        0,
        0,
        0,
        0,
        0,
        0,
        0,
        0,
        0,
        0,
        0,
        0,
        0,
        0,
        0,
        0,
        0,
        0,
        0,
        17,
        17,
        17,
        18,
        0,
        0,
        0,
        0,
        0,
        0,
        0,
        0,
        0,
        0,
        0,
        0,
        0,
        0,
        0,
        0,
        0,
        0,
        0,
        0,
        0,
        0,
        0,
        0,
        0,
        0,
        0,
        0,
        0,
        0,
        0,
        0,
        0,
        0,
        0,
        0,
        0,
        0,
        0,
        0,
        0,
        0,
        0,
        0,
        0,
        0,
        0,
        0,
        0,
        0,
        0,
        0,
        0,
        0,
        0,
        0,
        0,
        0,
        0,
        0,
        0,
        0,
        0,
        0,
        0,
        0,
        0,
        0,
        0,
        0,
        0,
        0,
        0,
        0,
        0,
        0,
        0,
        0,
        0,
        0,
        0,
        0,
        0,
        0,
        0,
        0,
        0,
        0,
        0,
        0,
        0,
        0,
        17,
        17,
        18,
        17,
        0,
        0,
        0,
        0,
        0,
        0,
        0,
        0,
        0,
        0,
        0,
        0,
        0,
        0,
        0,
        0,
        0,
        0,
        0,
        0,
        0,
        0,
        0,
        0,
        0,
        0,
        0,
        0,
        0,
        0,
        0,
        0,
        0,
        0,
        0,
        0,
        0,
        0,
        0,
        0,
        0,
        0,
        0,
        0,
        0,
        0,
        0,
        0,
        0,
        0,
        0,
        0,
        0,
        0,
        0,
        0,
        0,
        0,
        0,
        0,
        0,
        0,
        0,
        0,
        0,
        0,
        0,
        0,
        0,
        0,
        0,
        0,
        0,
        0,
        0,
        0,
        0,
        0,
        0,
        0,
        0,
        0,
        0,
        0,
        0,
        0,
        0,
        0,
        0,
        0,
        0,
        0,
        18,
        17,
        17,
        17,
        0,
        0,
        0,
        0,
        0,
        0,
        0,
        0,
        0,
        0,
        0,
        0,
        0,
        0,
        0,
        0,
        0,
        0,
        0,
        0,
        0,
        0,
        0,
        0,
        0,
        0,
        0,
        0,
        0,
        0,
        0,
        0,
        0,
        0,
        0,
        0,
        0,
        0,
        0,
        0,
        0,
        0,
        0,
        0,
        0,
        0,
        0,
        0,
        0,
        0,
        0,
        0,
        0,
        0,
        0,
        0,
        0,
        0,
        0,
        0,
        0,
        0,
        0,
        0,
        0,
        0,
        0,
        0,
        0,
        0,
        0,
        0,
        0,
        0,
        0,
        0,
        0,
        0,
        0,
        0,
        0,
        0,
        0,
        0,
        0,
        0,
        0,
        0,
        0,
        0,
        0,
        0,
        17,
        18,
        17,
        17,
        0,
        0,
        0,
        0,
        0,
        0,
        0,
        0,
        0,
        0,
        0,
        0,
        0,
        0,
        0,
        0,
        0,
        0,
        0,
        0,
        0,
        0,
        0,
        0,
        0,
        0,
        0,
        0,
        0,
        0,
        0,
        0,
        0,
        0,
        0,
        0,
        0,
        0,
        0,
        0,
        0,
        0,
        0,
        0,
        0,
        0,
        0,
        0,
        0,
        0,
        0,
        0,
        0,
        0,
        0,
        0,
        0,
        0,
        0,
        0,
        0,
        0,
        0,
        0,
        0,
        0,
        0,
        0,
        0,
        0,
        0,
        0,
        0,
        0,
        0,
        0,
        0,
        0,
        0,
        0,
        0,
        0,
        0,
        0,
        0,
        0,
        0,
        0,
        0,
        0,
        0,
        0,
        17,
        18,
        17,
        18,
        0,
        0,
        0,
        0,
        0,
        0,
        0,
        0,
        0,
        0,
        0,
        0,
        0,
        0,
        0,
        0,
        0,
        0,
        0,
        0,
        0,
        0,
        0,
        0,
        0,
        0,
        0,
        0,
        0,
        0,
        0,
        0,
        0,
        0,
        0,
        0,
        0,
        0,
        0,
        0,
        0,
        0,
        0,
        0,
        18,
        17,
        17,
        17,
        17,
        18,
        0,
        0,
        0,
        0,
        0,
        0,
        0,
        0,
        0,
        0,
        0,
        0,
        0,
        0,
        0,
        0,
        0,
        0,
        0,
        0,
        0,
        0,
        0,
        0,
        0,
        0,
        0,
        0,
        0,
        0,
        0,
        0,
        0,
        0,
        0,
        0,
        0,
        0,
        0,
        0,
        0,
        0,
        17,
        17,
        17,
        18,
        0,
        0,
        0,
        0,
        0,
        0,
        0,
        0,
        0,
        0,
        0,
        0,
        0,
        0,
        0,
        0,
        0,
        0,
        0,
        0,
        0,
        0,
        0,
        0,
        0,
        0,
        0,
        0,
        0,
        0,
        0,
        0,
        0,
        0,
        0,
        0,
        0,
        0,
        0,
        18,
        18,
        18,
        17,
        0,
        18,
        18,
        17,
        18,
        17,
        18,
        0,
        0,
        0,
        0,
        0,
        0,
        0,
        0,
        0,
        0,
        0,
        0,
        0,
        0,
        0,
        0,
        0,
        0,
        0,
        0,
        0,
        0,
        0,
        0,
        0,
        0,
        0,
        0,
        0,
        0,
        0,
        0,
        0,
        0,
        0,
        0,
        0,
        0,
        0,
        0,
        0,
        0,
        17,
        17,
        17,
        17,
        0,
        0,
        0,
        0,
        0,
        0,
        0,
        0,
        0,
        0,
        0,
        0,
        0,
        0,
        0,
        0,
        0,
        0,
        0,
        0,
        0,
        0,
        0,
        0,
        0,
        0,
        0,
        0,
        0,
        0,
        0,
        0,
        0,
        0,
        0,
        0,
        0,
        0,
        0,
        18,
        18,
        18,
        17,
        0,
        17,
        17,
        17,
        18,
        17,
        17,
        0,
        0,
        0,
        0,
        0,
        0,
        0,
        0,
        0,
        0,
        0,
        0,
        0,
        0,
        0,
        0,
        0,
        0,
        0,
        0,
        0,
        0,
        0,
        0,
        0,
        0,
        0,
        0,
        0,
        0,
        0,
        0,
        0,
        0,
        0,
        0,
        0,
        0,
        0,
        0,
        0,
        0,
        17,
        17,
        18,
        18,
        0,
        0,
        0,
        0,
        0,
        0,
        0,
        0,
        0,
        0,
        0,
        0,
        0,
        0,
        0,
        0,
        0,
        0,
        0,
        0,
        0,
        0,
        0,
        0,
        0,
        0,
        0,
        0,
        0,
        0,
        0,
        0,
        0,
        0,
        0,
        0,
        0,
        0,
        0,
        18,
        17,
        17,
        17,
        0,
        0,
        0,
        0,
        0,
        0,
        0,
        0,
        0,
        0,
        0,
        0,
        0,
        0,
        0,
        0,
        0,
        0,
        0,
        0,
        0,
        0,
        0,
        0,
        0,
        0,
        0,
        0,
        0,
        0,
        0,
        0,
        0,
        0,
        0,
        0,
        0,
        0,
        0,
        0,
        0,
        0,
        0,
        0,
        0,
        0,
        0,
        0,
        0,
        17,
        17,
        18,
        18,
        0,
        0,
        0,
        0,
        0,
        0,
        0,
        0,
        0,
        0,
        0,
        0,
        0,
        0,
        0,
        0,
        0,
        0,
        0,
        0,
        0,
        0,
        0,
        0,
        0,
        0,
        0,
        0,
        0,
        0,
        0,
        0,
        0,
        0,
        0,
        0,
        0,
        0,
        0,
        17,
        18,
        18,
        18,
        0,
        0,
        0,
        0,
        0,
        0,
        0,
        0,
        0,
        0,
        0,
        0,
        0,
        0,
        0,
        0,
        0,
        0,
        0,
        0,
        0,
        0,
        0,
        0,
        0,
        0,
        0,
        0,
        0,
        0,
        0,
        0,
        0,
        0,
        0,
        0,
        0,
        0,
        0,
        0,
        0,
        0,
        0,
        0,
        0,
        0,
        0,
        0,
        0,
        17,
        17,
        17,
        18,
        0,
        0,
        0,
        0,
        0,
        0,
        0,
        0,
        0,
        0,
        0,
        0,
        0,
        0,
        17,
        17,
        0,
        0,
        0,
        0,
        0,
        0,
        0,
        0,
        0,
        0,
        0,
        0,
        0,
        0,
        0,
        0,
        0,
        0,
        0,
        0,
        0,
        0,
        0,
        0,
        0,
        0,
        0,
        0,
        0,
        0,
        0,
        0,
        0,
        0,
        0,
        0,
        0,
        0,
        0,
        0,
        0,
        0,
        0,
        0,
        0,
        0,
        0,
        0,
        0,
        0,
        0,
        0,
        0,
        0,
        0,
        0,
        0,
        0,
        0,
        0,
        0,
        0,
        0,
        0,
        0,
        0,
        0,
        0,
        0,
        0,
        0,
        0,
        0,
        0,
        0,
        0,
        18,
        17,
        18,
        18,
        0,
        0,
        0,
        0,
        0,
        0,
        0,
        0,
        0,
        0,
        0,
        0,
        0,
        0,
        18,
        17,
        0,
        0,
        0,
        0,
        0,
        0,
        0,
        0,
        0,
        0,
        0,
        0,
        0,
        0,
        0,
        0,
        0,
        0,
        0,
        0,
        0,
        0,
        0,
        0,
        0,
        0,
        0,
        0,
        0,
        0,
        0,
        0,
        0,
        0,
        0,
        0,
        0,
        0,
        0,
        0,
        0,
        0,
        0,
        0,
        0,
        0,
        0,
        0,
        0,
        0,
        0,
        0,
        0,
        0,
        0,
        0,
        0,
        0,
        0,
        0,
        0,
        17,
        17,
        18,
        17,
        17,
        0,
        0,
        0,
        0,
        0,
        0,
        0,
        0,
        0,
        0,
        18,
        17,
        17,
        18,
        0,
        0,
        0,
        0,
        0,
        0,
        0,
        0,
        0,
        0,
        0,
        0,
        0,
        0,
        17,
        18,
        0,
        0,
        0,
        0,
        0,
        0,
        0,
        0,
        0,
        0,
        0,
        0,
        0,
        0,
        0,
        0,
        0,
        0,
        0,
        0,
        0,
        0,
        0,
        0,
        0,
        0,
        0,
        0,
        0,
        0,
        0,
        0,
        0,
        0,
        0,
        0,
        0,
        0,
        0,
        0,
        0,
        0,
        0,
        0,
        0,
        0,
        0,
        0,
        0,
        0,
        0,
        0,
        0,
        0,
        0,
        0,
        0,
        0,
        0,
        0,
        0,
        18,
        17,
        17,
        17,
        17,
        0,
        0,
        0,
        0,
        0,
        0,
        0,
        0,
        0,
        0,
        17,
        17,
        17,
        18,
        0,
        0,
        0,
        0,
        0,
        0,
        0,
        0,
        0,
        0,
        0,
        0,
        0,
        0,
        17,
        18,
        0,
        0,
        0,
        0,
        0,
        0,
        0,
        0,
        0,
        0,
        0,
        0,
        0,
        0,
        0,
        0,
        0,
        0,
        0,
        0,
        0,
        0,
        0,
        0,
        0,
        0,
        0,
        0,
        0,
        0,
        0,
        0,
        0,
        0,
        0,
        0,
        0,
        0,
        0,
        0,
        0,
        0,
        0,
        0,
        0,
        0,
        0,
        0,
        0,
        0,
        0,
        0,
        0,
        0,
        0,
        0,
        0,
        0,
        0,
        0,
        0,
        18,
        17,
        18,
        17,
        18,
        0,
        0,
        0,
        0,
        0,
        0,
        0,
        0,
        0,
        0,
        17,
        17,
        18,
        18,
        0,
        0,
        0,
        0,
        0,
        0,
        0,
        0,
        0,
        0,
        0,
        0,
        0,
        0,
        0,
        0,
        0,
        0,
        0,
        0,
        0,
        0,
        0,
        0,
        0,
        0,
        0,
        0,
        0,
        0,
        0,
        0,
        0,
        0,
        0,
        0,
        0,
        0,
        0,
        0,
        0,
        0,
        0,
        0,
        0,
        0,
        0,
        0,
        0,
        0,
        0,
        0,
        0,
        0,
        0,
        0,
        0,
        0,
        0,
        0,
        0,
        0,
        0,
        0,
        0,
        0,
        0,
        0,
        0,
        0,
        0,
        0,
        0,
        0,
        0,
        0,
        0,
        18,
        17,
        18,
        17,
        18,
        0,
        0,
        0,
        0,
        0,
        0,
        0,
        0,
        0,
        0,
        18,
        18,
        17,
        17,
        0,
        0,
        0,
        0,
        0,
        0,
        0,
        0,
        0,
        0,
        0,
        0,
        0,
        0,
        0,
        0,
        0,
        0,
        0,
        0,
        0,
        0,
        0,
        0,
        0,
        0,
        0,
        0,
        0,
        0,
        0,
        0,
        0,
        0,
        0,
        0,
        0,
        0,
        0,
        0,
        0,
        0,
        0,
        0,
        0,
        0,
        0,
        0,
        0,
        0,
        0,
        0,
        0,
        0,
        0,
        0,
        0,
        0,
        0,
        0,
        0,
        0,
        0,
        0,
        0,
        0,
        0,
        0,
        0,
        0,
        0,
        0,
        0,
        0,
        0,
        0,
        0,
        0,
        0,
        0,
        0,
        0,
        0,
        0,
        0,
        0,
        0,
        0,
        0,
        0,
        0,
        0,
        17,
        18,
        17,
        17,
        0,
        0,
        0,
        0,
        0,
        0,
        0,
        0,
        0,
        0,
        0,
        0,
        0,
        0,
        0,
        0,
        0,
        0,
        0,
        0,
        0,
        0,
        0,
        0,
        0,
        0,
        0,
        0,
        0,
        0,
        0,
        0,
        0,
        0,
        0,
        0,
        0,
        0,
        0,
        0,
        0,
        0,
        0,
        0,
        0,
        0,
        0,
        0,
        0,
        0,
        0,
        0,
        0,
        0,
        0,
        0,
        0,
        0,
        0,
        0,
        0,
        0,
        0,
        0,
        0,
        0,
        0,
        0,
        0,
        0,
        0,
        0,
        0,
        0,
        0,
        0,
        0,
        0,
        0,
        0,
        0,
        0,
        0,
        0,
        0,
        0,
        0,
        0,
        0,
        0,
        0,
        0,
        18,
        18,
        17,
        18,
        0,
        0,
        0,
        0,
        0,
        0,
        0,
        0,
        0,
        0,
        0,
        0,
        0,
        0,
        0,
        0,
        0,
        0,
        0,
        0,
        0,
        0,
        0,
        0,
        0,
        0,
        0,
        0,
        0,
        0,
        0,
        0,
        0,
        0,
        0,
        0,
        0,
        0,
        0,
        0,
        0,
        0,
        0,
        0,
        0,
        0,
        0,
        0,
        0,
        0,
        0,
        0,
        0,
        0,
        0,
        0,
        0,
        0,
        0,
        0,
        0,
        0,
        0,
        0,
        0,
        0,
        0,
        0,
        0,
        0,
        0,
        0,
        0,
        0,
        0,
        0,
        0,
        0,
        0,
        0,
        0,
        0,
        0,
        0,
        0,
        0,
        0,
        0,
        0,
        0,
        0,
        0,
        17,
        17,
        17,
        17,
        0,
        0,
        0,
        0,
        0,
        0,
        0,
        0,
        0,
        0,
        0,
        0,
        0,
        0,
        0,
        0,
        0,
        0,
        0,
        0,
        0,
        0,
        0,
        0,
        0,
        0,
        0,
        0,
        0,
        0,
        0,
        0,
        0,
        0,
        0,
        0,
        0,
        0,
        0,
        0,
        0,
        0,
        0,
        0,
        0,
        0,
        0,
        0,
        0,
        0,
        0,
        0,
        0,
        0,
        0,
        0,
        0,
        0,
        0,
        0,
        0,
        0,
        0,
        0,
        0,
        0,
        0,
        0,
        0,
        0,
        0,
        0,
        0,
        0,
        0,
        0,
        0,
        0,
        0,
        0,
        0,
        0,
        0,
        0,
        0,
        0,
        0,
        0,
        0,
        0,
        0,
        0,
        18,
        18,
        18,
        18,
        0,
        0,
        0,
        0,
        0,
        0,
        0,
        0,
        0,
        0,
        0,
        0,
        0,
        0,
        0,
        0,
        0,
        0,
        0,
        0,
        0,
        0,
        0,
        0,
        0,
        0,
        0,
        0,
        0,
        0,
        0,
        0,
        0,
        0,
        0,
        0,
        0,
        0,
        0,
        0,
        0,
        0,
        0,
        0,
        0,
        0,
        0,
        0,
        0,
        0,
        0,
        0,
        0,
        0,
        0,
        0,
        0,
        0,
        0,
        0,
        0,
        0,
        0,
        0,
        0,
        0,
        0,
        0,
        0,
        0,
        0,
        0,
        0,
        0,
        0,
        0,
        0,
        0,
        0,
        0,
        0,
        0,
        0,
        0,
        0,
        0,
        0,
        0,
        0,
        0,
        0,
        0,
        18,
        17,
        17,
        17,
        0,
        0,
        0,
        0,
        0,
        0,
        0,
        0,
        0,
        0,
        0,
        0,
        0,
        0,
        0,
        0,
        0,
        0,
        0,
        0,
        0,
        0,
        0,
        0,
        0,
        0,
        0,
        0,
        0,
        0,
        0,
        0,
        0,
        0,
        0,
        0,
        0,
        0,
        0,
        0,
        0,
        0,
        0,
        0,
        0,
        0,
        0,
        0,
        0,
        0,
        0,
        0,
        0,
        0,
        0,
        0,
        0,
        0,
        0,
        0,
        0,
        0,
        0,
        0,
        0,
        0,
        0,
        0,
        0,
        0,
        0,
        0,
        0,
        0,
        0,
        0,
        0,
        0,
        0,
        0,
        0,
        0,
        0,
        0,
        0,
        0,
        0,
        0,
        0,
        0,
        0,
        0,
        18,
        17,
        18,
        18,
        0,
        0,
        0,
        0,
        0,
        0,
        0,
        0,
        0,
        0,
        0,
        0,
        0,
        0,
        0,
        0,
        0,
        0,
        0,
        0,
        0,
        0,
        0,
        0,
        0,
        0,
        0,
        0,
        0,
        0,
        0,
        0,
        0,
        0,
        0,
        0,
        0,
        0,
        0,
        0,
        0,
        0,
        0,
        0,
        0,
        0,
        0,
        0,
        0,
        0,
        0,
        0,
        0,
        0,
        0,
        0,
        0,
        0,
        0,
        0,
        0,
        0,
        0,
        0,
        0,
        0,
        0,
        0,
        0,
        0,
        0,
        0,
        0,
        0,
        0,
        0,
        0,
        0,
        0,
        0,
        0,
        0,
        0,
        0,
        0,
        0,
        0,
        0,
        0,
        0,
        0,
        0,
        17,
        17,
        18,
        17,
        0,
        0,
        0,
        0,
        0,
        0,
        0,
        0,
        0,
        0,
        0,
        0,
        0,
        0,
        0,
        0,
        0,
        0,
        0,
        0,
        0,
        0,
        0,
        0,
        0,
        0,
        0,
        0,
        0,
        0,
        0,
        0,
        0,
        0,
        0,
        0,
        0,
        0,
        0,
        0,
        0,
        0,
        0,
        0,
        0,
        0,
        0,
        0,
        0,
        0,
        0,
        0,
        0,
        0,
        0,
        0,
        0,
        0,
        0,
        0,
        0,
        0,
        0,
        0,
        0,
        0,
        0,
        0,
        0,
        0,
        0,
        0,
        0,
        0,
        0,
        0,
        0,
        0,
        0,
        0,
        0,
        0,
        0,
        0,
        0,
        0,
        0,
        0,
        0,
        0,
        0,
        0,
        17,
        17,
        17,
        18,
        0,
        0,
        0,
        0,
        0,
        0,
        0,
        0,
        0,
        0,
        0,
        0,
        0,
        0,
        0,
        0,
        0,
        0,
        0,
        0,
        0,
        0,
        0,
        0,
        0,
        0,
        0,
        0,
        0,
        0,
        0,
        0,
        0,
        0,
        0,
        0,
        0,
        0,
        0,
        0,
        0,
        0,
        0,
        0,
        0,
        0,
        0,
        0,
        0,
        0,
        0,
        0,
        0,
        0,
        0,
        0,
        0,
        0,
        0,
        0,
        0,
        0,
        0,
        0,
        0,
        0,
        0,
        0,
        0,
        0,
        0,
        0,
        0,
        0,
        0,
        0,
        0,
        0,
        0,
        0,
        0,
        0,
        0,
        0,
        0,
        0,
        0,
        0,
        0,
        0,
        0,
        0,
        17,
        17,
        17,
        17,
        0,
        0,
        0,
        0,
        0,
        0,
        0,
        0,
        0,
        0,
        0,
        0,
        0,
        0,
        0,
        0,
        0,
        0,
        0,
        0,
        0,
        0,
        0,
        0,
        0,
        0,
        0,
        0,
        0,
        0,
        0,
        0,
        0,
        0,
        0,
        0,
        0,
        0,
        0,
        0,
        0,
        0,
        0,
        0,
        0,
        0,
        0,
        0,
        0,
        0,
        0,
        0,
        0,
        0,
        0,
        0,
        0,
        0,
        0,
        0,
        0,
        0,
        0,
        0,
        0,
        0,
        0,
        0,
        0,
        0,
        0,
        0,
        0,
        0,
        0,
        0,
        0,
        0,
        0,
        0,
        0,
        0,
        0,
        0,
        0,
        0,
        0,
        0,
        0,
        0,
        0,
        0,
        17,
        17,
        17,
        17,
        0,
        0,
        0,
        0,
        0,
        0,
        0,
        0,
        0,
        0,
        0,
        0,
        0,
        0,
        0,
        0,
        0,
        0,
        0,
        0,
        0,
        0,
        0,
        0,
        0,
        0,
        0,
        0,
        0,
        0,
        0,
        0,
        0,
        0,
        0,
        0,
        0,
        0,
        0,
        0,
        0,
        0,
        0,
        0,
        0,
        0,
        0,
        0,
        0,
        0,
        0,
        0,
        0,
        0,
        0,
        0,
        0,
        0,
        0,
        0,
        0,
        0,
        0,
        0,
        0,
        0,
        0,
        0,
        0,
        0,
        0,
        0,
        0,
        0,
        0,
        0,
        0,
        0,
        0,
        0,
        0,
        0,
        0,
        0,
        0,
        0,
        0,
        0,
        0,
        0,
        0,
        0,
        17,
        18,
        17,
        18,
        0,
        0,
        0,
        0,
        0,
        0,
        0,
        0,
        0,
        0,
        0,
        0,
        0,
        0,
        0,
        0,
        0,
        0,
        0,
        0,
        0,
        0,
        0,
        0,
        0,
        0,
        0,
        0,
        0,
        0,
        0,
        0,
        0,
        0,
        0,
        0,
        0,
        0,
        0,
        0,
        0,
        0,
        0,
        0,
        0,
        0,
        0,
        0,
        0,
        0,
        0,
        0,
        0,
        0,
        0,
        0,
        0,
        0,
        0,
        0,
        0,
        0,
        0,
        0,
        0,
        0,
        0,
        0,
        0,
        0,
        0,
        0,
        0,
        0,
        0,
        0,
        0,
        0,
        0,
        0,
        18,
        17,
        0,
        0,
        0,
        0,
        0,
        0,
        0,
        0,
        0,
        0,
        17,
        17,
        17,
        18,
        0,
        0,
        0,
        0,
        0,
        0,
        0,
        0,
        0,
        0,
        0,
        0,
        0,
        0,
        0,
        0,
        0,
        0,
        0,
        0,
        0,
        0,
        0,
        0,
        0,
        0,
        0,
        0,
        0,
        0,
        0,
        0,
        0,
        0,
        0,
        0,
        0,
        0,
        0,
        0,
        0,
        0,
        0,
        0,
        0,
        0,
        0,
        0,
        0,
        0,
        0,
        0,
        0,
        0,
        0,
        0,
        0,
        0,
        0,
        0,
        0,
        0,
        0,
        0,
        0,
        0,
        0,
        0,
        0,
        0,
        0,
        0,
        0,
        0,
        0,
        0,
        0,
        0,
        0,
        0,
        17,
        18,
        0,
        0,
        0,
        0,
        0,
        0,
        0,
        0,
        0,
        0,
        18,
        18,
        17,
        17,
        0,
        0,
        0,
        0,
        0,
        0,
        0,
        0,
        0,
        0,
        0,
        0,
        0,
        0,
        0,
        0,
        0,
        0,
        0,
        0,
        0,
        0,
        0,
        0,
        0,
        0,
        0,
        0,
        0,
        0,
        0,
        0,
        0,
        0,
        0,
        0,
        0,
        0,
        0,
        0,
        0,
        0,
        0,
        0,
        0,
        0,
        0,
        0,
        0,
        0,
        0,
        0,
        0,
        0,
        0,
        0,
        0,
        0,
        0,
        0,
        0,
        0,
        0,
        0,
        0,
        0,
        0,
        0,
        0,
        0,
        0,
        0,
        0,
        0,
        0,
        0,
        0,
        0,
        0,
        0,
        17,
        17,
        0,
        0,
        0,
        0,
        18,
        17,
        0,
        0,
        0,
        0,
        17,
        17,
        17,
        17,
        0,
        0,
        0,
        0,
        0,
        0,
        0,
        0,
        0,
        0,
        0,
        0,
        0,
        0,
        0,
        0,
        0,
        0,
        0,
        0,
        0,
        0,
        0,
        0,
        0,
        0,
        0,
        0,
        0,
        0,
        0,
        0,
        0,
        0,
        0,
        0,
        0,
        0,
        0,
        0,
        0,
        0,
        0,
        0,
        0,
        0,
        0,
        0,
        0,
        0,
        0,
        0,
        0,
        0,
        0,
        0,
        0,
        0,
        0,
        0,
        0,
        0,
        0,
        0,
        0,
        0,
        0,
        0,
        0,
        0,
        0,
        0,
        0,
        0,
        0,
        0,
        0,
        0,
        0,
        0,
        0,
        0,
        0,
        0,
        0,
        0,
        17,
        18,
        0,
        18,
        18,
        17,
        17,
        17,
        18,
        17,
        0,
        0,
        0,
        0,
        0,
        0,
        0,
        0,
        0,
        0,
        0,
        0,
        0,
        0,
        0,
        0,
        0,
        0,
        0,
        0,
        0,
        0,
        0,
        0,
        0,
        0,
        0,
        0,
        0,
        0,
        0,
        0,
        0,
        0,
        0,
        0,
        0,
        0,
        0,
        0,
        0,
        0,
        0,
        0,
        0,
        0,
        0,
        0,
        0,
        0,
        0,
        0,
        0,
        0,
        0,
        0,
        0,
        0,
        0,
        0,
        0,
        0,
        0,
        0,
        0,
        0,
        0,
        0,
        0,
        0,
        0,
        0,
        0,
        0,
        0,
        0,
        0,
        0,
        0,
        0,
        0,
        0,
        0,
        0,
        0,
        0,
        18,
        17,
        0,
        17,
        17,
        18,
        18,
        17,
        18,
        17,
        0,
        0,
        0,
        0,
        0,
        0,
        0,
        0,
        0,
        0,
        0,
        0,
        0,
        0,
        0,
        0,
        0,
        0,
        0,
        0,
        0,
        0,
        0,
        0,
        0,
        0,
        0,
        0,
        0,
        0,
        0,
        0,
        0,
        0,
        0,
        0,
        0,
        0,
        0,
        0,
        0,
        0,
        0,
        0,
        0,
        0,
        0,
        0,
        0,
        0,
        0,
        0,
        0,
        0,
        0,
        0,
        0,
        0,
        17,
        18,
        17,
        17,
        0,
        0,
        0,
        0,
        0,
        0,
        0,
        0,
        0,
        0,
        0,
        0,
        0,
        0,
        0,
        0,
        0,
        0,
        0,
        0,
        0,
        0,
        0,
        0,
        0,
        0,
        0,
        17,
        17,
        17,
        17,
        17,
        17,
        17,
        0,
        0,
        0,
        0,
        0,
        0,
        0,
        0,
        0,
        0,
        0,
        0,
        0,
        0,
        0,
        0,
        0,
        0,
        0,
        0,
        0,
        0,
        0,
        0,
        0,
        0,
        0,
        0,
        0,
        0,
        0,
        0,
        0,
        0,
        0,
        0,
        0,
        0,
        0,
        0,
        0,
        0,
        0,
        0,
        0,
        0,
        0,
        0,
        0,
        0,
        0,
        0,
        0,
        0,
        0,
        0,
        0,
        0,
        18,
        18,
        17,
        17,
        0,
        0,
        0,
        0,
        0,
        0,
        0,
        0,
        0,
        0,
        0,
        0,
        0,
        0,
        0,
        0,
        0,
        0,
        0,
        0,
        0,
        0,
        0,
        0,
        0,
        0,
        0,
        0,
        0,
        0,
        17,
        17,
        17,
        17,
        0,
        0,
        0,
        0,
        0,
        0,
        0,
        0,
        0,
        0,
        0,
        0,
        0,
        0,
        0,
        0,
        0,
        0,
        0,
        0,
        0,
        0,
        0,
        0,
        0,
        0,
        0,
        0,
        0,
        0,
        0,
        0,
        0,
        0,
        0,
        0,
        0,
        0,
        0,
        0,
        0,
        0,
        0,
        0,
        0,
        0,
        0,
        0,
        0,
        0,
        0,
        0,
        0,
        0,
        0,
        0,
        0,
        0,
        17,
        17,
        17,
        17,
        0,
        0,
        0,
        0,
        0,
        0,
        0,
        0,
        0,
        0,
        0,
        0,
        0,
        0,
        0,
        0,
        0,
        0,
        0,
        0,
        0,
        0,
        0,
        0,
        0,
        0,
        0,
        0,
        0,
        0,
        17,
        17,
        18,
        18,
        0,
        0,
        0,
        0,
        0,
        0,
        0,
        0,
        0,
        0,
        0,
        0,
        0,
        0,
        0,
        0,
        0,
        0,
        0,
        0,
        0,
        0,
        0,
        0,
        0,
        0,
        0,
        0,
        0,
        0,
        0,
        0,
        0,
        0,
        0,
        0,
        0,
        0,
        0,
        0,
        0,
        0,
        0,
        0,
        0,
        0,
        0,
        0,
        0,
        0,
        0,
        0,
        0,
        0,
        0,
        0,
        0,
        0,
        17,
        17,
        18,
        17,
        0,
        0,
        0,
        0,
        0,
        0,
        0,
        0,
        0,
        0,
        0,
        0,
        0,
        0,
        0,
        18,
        17,
        0,
        0,
        0,
        0,
        0,
        0,
        0,
        0,
        0,
        0,
        0,
        0,
        0,
        17,
        18,
        17,
        17,
        0,
        0,
        0,
        0,
        0,
        0,
        0,
        0,
        0,
        0,
        0,
        0,
        0,
        0,
        0,
        0,
        0,
        0,
        0,
        0,
        0,
        0,
        0,
        0,
        0,
        0,
        0,
        0,
        0,
        0,
        0,
        0,
        0,
        0,
        0,
        0,
        0,
        0,
        0,
        0,
        0,
        0,
        0,
        0,
        0,
        0,
        0,
        0,
        0,
        0,
        0,
        0,
        0,
        0,
        0,
        0,
        0,
        0,
        0,
        0,
        0,
        0,
        0,
        0,
        0,
        0,
        0,
        0,
        0,
        0,
        0,
        0,
        0,
        0,
        0,
        0,
        0,
        17,
        17,
        0,
        0,
        0,
        0,
        0,
        0,
        0,
        0,
        0,
        0,
        0,
        0,
        0,
        18,
        17,
        17,
        17,
        0,
        0,
        0,
        0,
        0,
        0,
        0,
        0,
        0,
        0,
        0,
        0,
        0,
        0,
        0,
        0,
        0,
        0,
        0,
        0,
        0,
        0,
        0,
        0,
        0,
        0,
        0,
        0,
        0,
        0,
        0,
        0,
        0,
        0,
        0,
        0,
        0,
        0,
        0,
        0,
        0,
        0,
        0,
        0,
        0,
        0,
        0,
        0,
        0,
        0,
        0,
        0,
        0,
        0,
        0,
        0,
        0,
        0,
        0,
        0,
        0,
        0,
        0,
        0,
        0,
        0,
        0,
        0,
        0,
        0,
        0,
        0,
        0,
        0,
        0,
        0,
        0,
        0,
        0,
        0,
        0,
        0,
        0,
        0,
        0,
        0,
        0,
        0,
        0,
        0,
        0,
        0,
        17,
        17,
        18,
        18,
        17,
        18,
        17,
        17,
        17,
        18,
        17,
        18,
        18,
        17,
        18,
        18,
        17,
        17,
        17,
        17,
        17,
        17,
        17,
        17,
        17,
        18,
        18,
        17,
        17,
        18,
        18,
        17,
        17,
        18,
        18,
        17,
        17,
        18,
        17,
        17,
        0,
        0,
        17,
        17,
        17,
        17,
        17,
        18,
        17,
        18,
        17,
        17,
        17,
        18,
        17,
        17,
        18,
        18,
        18,
        17,
        17,
        17,
        17,
        17,
        17,
        17,
        17,
        17,
        18,
        17,
        17,
        17,
        17,
        18,
        17,
        17,
        18,
        18,
        17,
        18,
        17,
        17,
        17,
        18,
        18,
        18,
        17,
        17,
        18,
        17,
        18,
        17,
        17,
        18,
        17,
        18,
        18,
        17,
        18,
        17,
        17,
        17,
        18,
        18,
        18,
        18,
        18,
        17,
        18,
        17,
        17,
        17,
        17,
        18,
        17,
        18,
        17,
        17,
        18,
        17,
        18,
        18,
        17,
        17,
        17,
        17,
        17,
        18,
        17,
        18,
        18,
        17,
        17,
        17,
        17,
        17,
        0,
        0,
        17,
        17,
        18,
        17,
        18,
        18,
        18,
        17,
        18,
        17,
        17,
        17,
        17,
        17,
        18,
        17,
        18,
        18,
        17,
        18,
        18,
        17,
        18,
        17,
        17,
        17,
        17,
        17,
        17,
        17,
        18,
        18,
        17,
        17,
        17,
        17,
        17,
        18,
        17,
        17,
        17,
        17,
        18,
        18,
        18,
        18,
        18,
        18,
        17,
        17,
        18,
        18,
        18,
        17,
        17,
        17
      ]
    },
    {
      "id": 6,
      "name": "Fences",
      "type": "tilelayer",
      "x": 0,
      "y": 0,
      "width": 96,
      "height": 72,
      "opacity": 1,
      "visible": true,
      "data": [
        0,
        0,
        0,
        0,
        0,
        0,
        0,
        0,
        0,
        0,
        0,
        0,
        0,
        0,
        0,
        0,
        0,
        0,
        0,
        0,
        0,
        0,
        0,
        0,
        0,
        0,
        0,
        0,
        0,
        0,
        0,
        0,
        0,
        0,
        0,
        0,
        0,
        0,
        0,
        0,
        0,
        0,
        0,
        0,
        0,
        0,
        0,
        0,
        0,
        0,
        0,
        0,
        0,
        0,
        0,
        0,
        0,
        0,
        0,
        0,
        0,
        0,
        0,
        0,
        0,
        0,
        0,
        0,
        0,
        0,
        0,
        0,
        0,
        0,
        0,
        0,
        0,
        0,
        0,
        0,
        0,
        0,
        0,
        0,
        0,
        0,
        0,
        0,
        0,
        0,
        0,
        0,
        0,
        0,
        0,
        0,
        0,
        0,
        0,
        0,
        0,
        0,
        0,
        0,
        0,
        0,
        0,
        0,
        0,
        0,
        0,
        0,
        0,
        0,
        0,
        0,
        0,
        0,
        0,
        0,
        0,
        0,
        0,
        0,
        0,
        0,
        0,
        0,
        0,
        0,
        0,
        0,
        0,
        0,
        0,
        0,
        0,
        0,
        0,
        0,
        0,
        0,
        0,
        0,
        0,
        0,
        0,
        0,
        0,
        0,
        0,
        0,
        0,
        0,
        0,
        0,
        0,
        0,
        0,
        0,
        0,
        0,
        0,
        0,
        0,
        0,
        0,
        0,
        0,
        0,
        0,
        0,
        0,
        0,
        0,
        0,
        0,
        0,
        0,
        0,
        0,
        0,
        0,
        0,
        0,
        0,
        0,
        0,
        0,
        0,
        0,
        0,
        0,
        0,
        0,
        0,
        0,
        0,
        0,
        0,
        0,
        0,
        0,
        0,
        0,
        0,
        0,
        0,
        0,
        0,
        0,
        0,
        0,
        0,
        0,
        0,
        0,
        0,
        0,
        0,
        0,
        0,
        0,
        0,
        0,
        0,
        0,
        0,
        0,
        0,
        0,
        0,
        0,
        0,
        0,
        0,
        0,
        0,
        0,
        0,
        0,
        0,
        0,
        0,
        0,
        0,
        0,
        0,
        0,
        0,
        0,
        0,
        0,
        0,
        0,
        0,
        0,
        0,
        0,
        0,
        0,
        0,
        0,
        0,
        0,
        0,
        0,
        0,
        0,
        0,
        0,
        0,
        0,
        0,
        0,
        0,
        0,
        0,
        0,
        0,
        0,
        0,
        0,
        0,
        0,
        0,
        0,
        0,
        0,
        0,
        0,
        0,
        0,
        0,
        0,
        0,
        0,
        0,
        0,
        0,
        0,
        0,
        0,
        0,
        0,
        0,
        0,
        0,
        0,
        0,
        0,
        0,
        0,
        0,
        0,
        0,
        0,
        0,
        0,
        0,
        0,
        0,
        0,
        0,
        0,
        0,
        0,
        0,
        0,
        0,
        0,
        0,
        0,
        0,
        0,
        0,
        0,
        0,
        0,
        0,
        0,
        0,
        0,
        0,
        0,
        0,
        0,
        0,
        0,
        0,
        0,
        0,
        0,
        0,
        0,
        0,
        0,
        0,
        0,
        0,
        0,
        0,
        0,
        0,
        0,
        0,
        0,
        0,
        0,
        0,
        0,
        0,
        0,
        0,
        0,
        0,
        0,
        0,
        0,
        0,
        0,
        0,
        0,
        0,
        0,
        0,
        0,
        0,
        0,
        0,
        0,
        0,
        0,
        0,
        0,
        0,
        0,
        0,
        0,
        0,
        0,
        0,
        0,
        0,
        0,
        0,
        0,
        0,
        0,
        0,
        0,
        0,
        0,
        0,
        0,
        0,
        0,
        0,
        0,
        0,
        0,
        0,
        0,
        0,
        0,
        0,
        0,
        0,
        0,
        0,
        0,
        0,
        0,
        0,
        0,
        0,
        0,
        0,
        0,
        0,
        0,
        0,
        0,
        0,
        0,
        0,
        0,
        0,
        0,
        0,
        0,
        0,
        0,
        0,
        0,
        0,
        0,
        0,
        0,
        0,
        0,
        0,
        0,
        0,
        0,
        0,
        0,
        0,
        0,
        0,
        0,
        0,
        0,
        0,
        0,
        0,
        0,
        0,
        0,
        0,
        0,
        0,
        0,
        0,
        0,
        0,
        0,
        0,
        0,
        0,
        0,
        0,
        0,
        0,
        0,
        0,
        0,
        0,
        0,
        0,
        0,
        0,
        0,
        0,
        0,
        0,
        0,
        0,
        0,
        0,
        0,
        0,
        0,
        0,
        0,
        0,
        0,
        0,
        0,
        0,
        0,
        0,
        0,
        0,
        0,
        0,
        0,
        0,
        0,
        0,
        0,
        0,
        0,
        0,
        0,
        0,
        0,
        0,
        0,
        0,
        0,
        0,
        0,
        0,
        0,
        0,
        0,
        0,
        0,
        0,
        0,
        0,
        0,
        0,
        16,
        14,
        14,
        14,
        14,
        14,
        14,
        14,
        14,
        14,
        14,
        14,
        14,
        14,
        14,
        14,
        16,
        0,
        0,
        0,
        0,
        0,
        0,
        0,
        0,
        0,
        0,
        0,
        0,
        0,
        0,
        0,
        0,
        0,
        0,
        0,
        0,
        0,
        0,
        0,
        0,
        0,
        0,
        0,
        0,
        0,
        0,
        0,
        0,
        0,
        0,
        0,
        0,
        0,
        0,
        0,
        0,
        0,
        0,
        0,
        0,
        0,
        0,
        0,
        0,
        0,
        0,
        0,
        0,
        0,
        0,
        0,
        0,
        0,
        0,
        0,
        0,
        0,
        0,
        0,
        0,
        0,
        0,
        0,
        0,
        0,
        0,
        0,
        0,
        0,
        0,
        0,
        0,
        0,
        0,
        0,
        15,
        0,
        0,
        0,
        0,
        0,
        0,
        0,
        0,
        0,
        0,
        0,
        0,
        0,
        0,
        0,
        15,
        0,
        0,
        0,
        0,
        0,
        0,
        0,
        0,
        0,
        0,
        0,
        0,
        0,
        0,
        0,
        0,
        0,
        0,
        0,
        0,
        0,
        0,
        0,
        0,
        0,
        0,
        0,
        0,
        0,
        0,
        0,
        0,
        0,
        0,
        0,
        0,
        0,
        0,
        0,
        0,
        0,
        0,
        0,
        0,
        0,
        0,
        0,
        0,
        0,
        0,
        0,
        0,
        0,
        0,
        0,
        0,
        0,
        0,
        0,
        0,
        0,
        0,
        0,
        0,
        0,
        0,
        0,
        0,
        0,
        0,
        0,
        0,
        0,
        0,
        0,
        0,
        0,
        0,
        0,
        15,
        0,
        0,
        0,
        0,
        0,
        0,
        0,
        0,
        0,
        0,
        0,
        0,
        0,
        0,
        0,
        15,
        0,
        0,
        0,
        0,
        0,
        0,
        0,
        0,
        0,
        0,
        0,
        0,
        0,
        0,
        0,
        0,
        0,
        0,
        0,
        0,
        0,
        0,
        0,
        0,
        0,
        0,
        0,
        0,
        0,
        0,
        0,
        0,
        0,
        0,
        0,
        0,
        0,
        0,
        0,
        0,
        0,
        0,
        0,
        0,
        0,
        0,
        0,
        0,
        0,
        0,
        0,
        0,
        0,
        0,
        0,
        0,
        0,
        0,
        0,
        0,
        0,
        0,
        0,
        0,
        0,
        0,
        0,
        0,
        0,
        0,
        0,
        0,
        0,
        0,
        0,
        0,
        0,
        0,
        0,
        15,
        0,
        0,
        0,
        0,
        0,
        0,
        0,
        0,
        0,
        0,
        0,
        0,
        0,
        0,
        0,
        15,
        0,
        0,
        0,
        0,
        0,
        0,
        0,
        0,
        0,
        0,
        0,
        0,
        0,
        0,
        0,
        0,
        0,
        0,
        0,
        0,
        0,
        0,
        0,
        0,
        0,
        0,
        0,
        0,
        0,
        0,
        0,
        0,
        0,
        0,
        0,
        0,
        0,
        0,
        0,
        0,
        0,
        0,
        0,
        0,
        0,
        0,
        0,
        0,
        0,
        0,
        0,
        0,
        0,
        0,
        0,
        0,
        0,
        0,
        0,
        0,
        0,
        0,
        0,
        0,
        0,
        0,
        0,
        0,
        0,
        0,
        0,
        0,
        0,
        0,
        0,
        0,
        0,
        0,
        0,
        15,
        0,
        0,
        0,
        0,
        0,
        0,
        0,
        0,
        0,
        0,
        0,
        0,
        0,
        0,
        0,
        15,
        0,
        0,
        0,
        0,
        0,
        0,
        0,
        0,
        0,
        0,
        0,
        0,
        0,
        0,
        0,
        0,
        0,
        0,
        0,
        0,
        0,
        0,
        0,
        0,
        0,
        0,
        0,
        0,
        0,
        0,
        0,
        0,
        0,
        0,
        0,
        0,
        0,
        0,
        0,
        0,
        0,
        0,
        0,
        0,
        0,
        0,
        0,
        0,
        0,
        0,
        0,
        0,
        0,
        0,
        0,
        0,
        0,
        0,
        0,
        0,
        0,
        0,
        0,
        0,
        0,
        0,
        0,
        0,
        0,
        0,
        0,
        0,
        0,
        0,
        0,
        0,
        0,
        0,
        0,
        15,
        0,
        0,
        0,
        0,
        0,
        0,
        0,
        0,
        0,
        0,
        0,
        0,
        0,
        0,
        0,
        15,
        0,
        0,
        0,
        0,
        0,
        0,
        0,
        0,
        0,
        0,
        0,
        0,
        0,
        0,
        0,
        0,
        0,
        0,
        0,
        0,
        0,
        0,
        0,
        0,
        0,
        0,
        0,
        0,
        0,
        0,
        0,
        0,
        0,
        0,
        0,
        0,
        0,
        0,
        0,
        0,
        0,
        0,
        0,
        0,
        0,
        0,
        0,
        0,
        0,
        0,
        0,
        0,
        0,
        0,
        0,
        0,
        0,
        0,
        0,
        0,
        0,
        0,
        0,
        0,
        0,
        0,
        0,
        0,
        0,
        0,
        0,
        0,
        0,
        0,
        0,
        0,
        0,
        0,
        0,
        15,
        0,
        0,
        0,
        0,
        0,
        0,
        0,
        0,
        0,
        0,
        0,
        0,
        0,
        0,
        0,
        15,
        0,
        0,
        0,
        0,
        0,
        0,
        0,
        0,
        0,
        0,
        0,
        0,
        0,
        0,
        0,
        0,
        0,
        0,
        0,
        0,
        0,
        0,
        0,
        0,
        0,
        0,
        0,
        0,
        0,
        0,
        0,
        0,
        0,
        0,
        0,
        0,
        0,
        0,
        0,
        0,
        0,
        0,
        0,
        0,
        0,
        0,
        0,
        0,
        0,
        0,
        0,
        0,
        0,
        0,
        0,
        0,
        0,
        0,
        0,
        0,
        0,
        0,
        0,
        0,
        0,
        0,
        0,
        0,
        0,
        0,
        0,
        0,
        0,
        0,
        0,
        0,
        0,
        0,
        0,
        15,
        0,
        0,
        0,
        0,
        0,
        0,
        0,
        0,
        0,
        0,
        0,
        0,
        0,
        0,
        0,
        15,
        0,
        0,
        0,
        0,
        0,
        0,
        0,
        0,
        0,
        0,
        0,
        0,
        0,
        0,
        0,
        0,
        0,
        0,
        0,
        0,
        0,
        0,
        0,
        0,
        0,
        0,
        0,
        0,
        0,
        0,
        0,
        0,
        0,
        0,
        0,
        0,
        0,
        0,
        0,
        0,
        0,
        0,
        0,
        0,
        0,
        0,
        0,
        0,
        0,
        0,
        0,
        0,
        0,
        0,
        0,
        0,
        0,
        0,
        0,
        0,
        0,
        0,
        0,
        0,
        0,
        0,
        0,
        0,
        0,
        0,
        0,
        0,
        0,
        0,
        0,
        0,
        0,
        0,
        0,
        15,
        0,
        0,
        0,
        0,
        0,
        0,
        0,
        0,
        0,
        0,
        0,
        0,
        0,
        0,
        0,
        15,
        0,
        0,
        0,
        0,
        0,
        0,
        0,
        0,
        0,
        0,
        0,
        0,
        0,
        0,
        0,
        0,
        0,
        0,
        0,
        0,
        0,
        0,
        0,
        0,
        0,
        0,
        0,
        0,
        0,
        0,
        0,
        0,
        0,
        0,
        0,
        0,
        0,
        0,
        0,
        0,
        0,
        0,
        0,
        0,
        0,
        0,
        0,
        0,
        0,
        0,
        0,
        0,
        0,
        0,
        0,
        0,
        0,
        0,
        0,
        0,
        0,
        0,
        0,
        0,
        0,
        0,
        0,
        0,
        0,
        0,
        0,
        0,
        0,
        0,
        0,
        0,
        0,
        0,
        0,
        15,
        0,
        0,
        0,
        0,
        0,
        0,
        0,
        0,
        0,
        0,
        0,
        0,
        0,
        0,
        0,
        15,
        0,
        0,
        0,
        0,
        0,
        0,
        0,
        0,
        0,
        0,
        0,
        0,
        0,
        0,
        0,
        0,
        0,
        0,
        0,
        0,
        0,
        0,
        0,
        0,
        0,
        0,
        0,
        0,
        0,
        0,
        0,
        0,
        0,
        0,
        0,
        0,
        0,
        0,
        0,
        0,
        0,
        0,
        0,
        0,
        0,
        0,
        0,
        0,
        0,
        0,
        0,
        0,
        0,
        0,
        0,
        0,
        0,
        0,
        0,
        0,
        0,
        0,
        0,
        0,
        0,
        0,
        0,
        0,
        0,
        0,
        0,
        0,
        0,
        0,
        0,
        0,
        0,
        0,
        0,
        15,
        0,
        0,
        0,
        0,
        0,
        0,
        0,
        0,
        0,
        0,
        0,
        0,
        0,
        0,
        0,
        15,
        0,
        0,
        0,
        0,
        0,
        0,
        0,
        0,
        0,
        0,
        0,
        0,
        0,
        0,
        0,
        0,
        0,
        0,
        0,
        0,
        0,
        0,
        0,
        0,
        0,
        0,
        0,
        0,
        0,
        0,
        0,
        0,
        0,
        0,
        0,
        0,
        0,
        0,
        0,
        0,
        0,
        0,
        0,
        0,
        0,
        0,
        0,
        0,
        0,
        0,
        0,
        0,
        0,
        0,
        0,
        0,
        0,
        0,
        0,
        0,
        0,
        0,
        0,
        0,
        0,
        0,
        0,
        0,
        0,
        0,
        0,
        0,
        0,
        0,
        0,
        0,
        0,
        0,
        0,
        15,
        0,
        0,
        0,
        0,
        0,
        0,
        0,
        0,
        0,
        0,
        0,
        0,
        0,
        0,
        0,
        15,
        0,
        0,
        0,
        0,
        0,
        0,
        0,
        0,
        0,
        0,
        0,
        0,
        0,
        0,
        0,
        0,
        0,
        0,
        0,
        0,
        0,
        0,
        0,
        0,
        0,
        0,
        0,
        0,
        0,
        0,
        0,
        0,
        0,
        0,
        0,
        0,
        0,
        0,
        0,
        0,
        0,
        0,
        0,
        0,
        0,
        0,
        0,
        0,
        0,
        0,
        0,
        0,
        0,
        0,
        0,
        0,
        0,
        0,
        0,
        0,
        0,
        0,
        0,
        0,
        0,
        0,
        0,
        0,
        0,
        0,
        0,
        0,
        0,
        0,
        0,
        0,
        0,
        0,
        0,
        16,
        14,
        14,
        14,
        14,
        14,
        14,
        16,
        0,
        0,
        16,
        14,
        14,
        14,
        14,
        14,
        16,
        0,
        0,
        0,
        0,
        0,
        0,
        0,
        0,
        0,
        0,
        0,
        0,
        0,
        0,
        0,
        0,
        0,
        0,
        0,
        0,
        0,
        0,
        0,
        0,
        0,
        0,
        0,
        0,
        0,
        0,
        0,
        0,
        0,
        0,
        0,
        0,
        0,
        0,
        0,
        0,
        0,
        0,
        0,
        0,
        0,
        0,
        0,
        0,
        0,
        0,
        0,
        0,
        0,
        0,
        0,
        0,
        0,
        0,
        0,
        0,
        0,
        0,
        0,
        0,
        0,
        0,
        0,
        0,
        0,
        0,
        0,
        0,
        0,
        0,
        0,
        0,
        0,
        0,
        0,
        0,
        0,
        0,
        0,
        0,
        0,
        0,
        0,
        0,
        0,
        0,
        0,
        0,
        0,
        0,
        0,
        0,
        0,
        0,
        0,
        0,
        0,
        0,
        0,
        0,
        0,
        0,
        0,
        0,
        0,
        0,
        0,
        0,
        0,
        0,
        0,
        0,
        0,
        0,
        0,
        0,
        0,
        0,
        0,
        0,
        0,
        0,
        0,
        0,
        0,
        0,
        0,
        0,
        0,
        0,
        0,
        0,
        0,
        0,
        0,
        0,
        0,
        0,
        0,
        0,
        0,
        0,
        0,
        0,
        0,
        0,
        0,
        0,
        0,
        0,
        0,
        0,
        0,
        0,
        0,
        0,
        0,
        0,
        0,
        0,
        0,
        0,
        0,
        0,
        0,
        0,
        0,
        0,
        0,
        0,
        0,
        0,
        0,
        0,
        0,
        0,
        0,
        0,
        0,
        0,
        0,
        0,
        0,
        0,
        0,
        0,
        0,
        0,
        0,
        0,
        0,
        0,
        0,
        0,
        0,
        0,
        0,
        0,
        0,
        0,
        0,
        0,
        0,
        0,
        0,
        0,
        0,
        0,
        0,
        0,
        0,
        0,
        0,
        0,
        0,
        0,
        0,
        0,
        0,
        0,
        0,
        0,
        0,
        0,
        0,
        0,
        0,
        0,
        0,
        0,
        0,
        0,
        0,
        0,
        0,
        0,
        0,
        0,
        0,
        0,
        0,
        0,
        0,
        0,
        0,
        0,
        0,
        0,
        0,
        0,
        0,
        0,
        0,
        0,
        0,
        0,
        0,
        0,
        0,
        0,
        0,
        0,
        0,
        0,
        0,
        0,
        0,
        0,
        0,
        0,
        0,
        0,
        0,
        0,
        0,
        0,
        0,
        0,
        0,
        0,
        0,
        0,
        0,
        0,
        0,
        0,
        0,
        0,
        0,
        0,
        0,
        0,
        0,
        0,
        0,
        0,
        0,
        0,
        0,
        0,
        0,
        0,
        0,
        0,
        0,
        0,
        0,
        0,
        0,
        0,
        0,
        0,
        0,
        0,
        0,
        0,
        0,
        0,
        0,
        0,
        0,
        0,
        0,
        0,
        0,
        0,
        0,
        0,
        0,
        0,
        0,
        0,
        0,
        0,
        0,
        0,
        0,
        0,
        0,
        0,
        0,
        0,
        0,
        0,
        0,
        0,
        0,
        0,
        0,
        0,
        0,
        0,
        0,
        0,
        0,
        0,
        0,
        0,
        0,
        0,
        0,
        0,
        0,
        0,
        0,
        0,
        0,
        0,
        0,
        0,
        0,
        0,
        0,
        0,
        0,
        0,
        0,
        0,
        0,
        0,
        0,
        0,
        0,
        0,
        0,
        0,
        0,
        0,
        0,
        0,
        0,
        0,
        0,
        0,
        0,
        0,
        0,
        0,
        0,
        0,
        0,
        0,
        0,
        0,
        0,
        0,
        0,
        0,
        0,
        0,
        0,
        0,
        0,
        0,
        0,
        0,
        0,
        0,
        0,
        0,
        0,
        0,
        0,
        0,
        0,
        0,
        0,
        0,
        0,
        0,
        0,
        0,
        0,
        0,
        0,
        0,
        0,
        0,
        0,
        0,
        0,
        0,
        0,
        0,
        0,
        0,
        0,
        0,
        0,
        0,
        0,
        0,
        0,
        0,
        0,
        0,
        0,
        0,
        0,
        0,
        0,
        0,
        0,
        0,
        0,
        0,
        0,
        0,
        0,
        0,
        0,
        0,
        0,
        0,
        0,
        0,
        0,
        0,
        0,
        0,
        0,
        0,
        0,
        0,
        0,
        0,
        0,
        0,
        0,
        0,
        0,
        0,
        0,
        0,
        0,
        0,
        0,
        0,
        0,
        0,
        0,
        0,
        0,
        0,
        0,
        0,
        0,
        0,
        0,
        0,
        0,
        0,
        0,
        0,
        0,
        0,
        0,
        0,
        0,
        0,
        0,
        0,
        0,
        0,
        0,
        0,
        0,
        0,
        0,
        0,
        0,
        0,
        0,
        0,
        0,
        0,
        0,
        0,
        0,
        0,
        0,
        0,
        0,
        0,
        0,
        0,
        0,
        0,
        0,
        0,
        0,
        0,
        0,
        0,
        0,
        0,
        0,
        0,
        0,
        0,
        0,
        0,
        0,
        0,
        0,
        0,
        0,
        0,
        0,
        0,
        0,
        0,
        0,
        0,
        0,
        0,
        0,
        0,
        0,
        0,
        0,
        0,
        0,
        0,
        0,
        0,
        0,
        0,
        0,
        0,
        0,
        0,
        0,
        0,
        0,
        0,
        0,
        0,
        0,
        0,
        0,
        0,
        0,
        0,
        0,
        0,
        0,
        0,
        0,
        0,
        0,
        0,
        0,
        0,
        0,
        0,
        0,
        0,
        0,
        0,
        0,
        0,
        0,
        0,
        0,
        0,
        0,
        0,
        0,
        0,
        0,
        0,
        0,
        0,
        0,
        0,
        0,
        0,
        0,
        0,
        0,
        0,
        0,
        0,
        0,
        0,
        0,
        0,
        0,
        0,
        0,
        0,
        0,
        0,
        0,
        0,
        0,
        0,
        0,
        0,
        0,
        0,
        0,
        0,
        0,
        0,
        0,
        0,
        0,
        0,
        0,
        0,
        0,
        0,
        0,
        0,
        0,
        0,
        0,
        0,
        0,
        0,
        0,
        0,
        0,
        0,
        0,
        0,
        0,
        0,
        0,
        0,
        0,
        0,
        0,
        0,
        0,
        0,
        0,
        0,
        0,
        0,
        0,
        0,
        0,
        0,
        0,
        0,
        0,
        0,
        0,
        0,
        0,
        0,
        0,
        0,
        0,
        0,
        0,
        0,
        0,
        0,
        0,
        0,
        0,
        0,
        0,
        0,
        0,
        0,
        0,
        0,
        0,
        0,
        0,
        0,
        0,
        0,
        0,
        0,
        0,
        0,
        0,
        0,
        0,
        0,
        0,
        0,
        0,
        0,
        0,
        0,
        0,
        0,
        0,
        0,
        0,
        0,
        0,
        0,
        0,
        0,
        0,
        0,
        0,
        0,
        0,
        0,
        0,
        0,
        0,
        0,
        0,
        0,
        0,
        0,
        0,
        0,
        0,
        0,
        0,
        0,
        0,
        0,
        0,
        0,
        0,
        0,
        0,
        0,
        0,
        0,
        0,
        0,
        0,
        0,
        0,
        0,
        0,
        0,
        0,
        0,
        0,
        0,
        0,
        0,
        0,
        0,
        0,
        0,
        0,
        0,
        0,
        0,
        0,
        0,
        0,
        0,
        0,
        0,
        0,
        0,
        0,
        0,
        0,
        0,
        0,
        0,
        0,
        0,
        0,
        0,
        0,
        0,
        0,
        0,
        0,
        0,
        0,
        0,
        0,
        0,
        0,
        0,
        0,
        0,
        0,
        0,
        0,
        0,
        0,
        0,
        0,
        0,
        0,
        0,
        0,
        0,
        0,
        0,
        0,
        0,
        0,
        0,
        0,
        0,
        0,
        0,
        0,
        0,
        0,
        0,
        0,
        0,
        0,
        0,
        0,
        0,
        0,
        0,
        0,
        0,
        0,
        0,
        0,
        0,
        0,
        0,
        0,
        0,
        0,
        0,
        0,
        0,
        0,
        0,
        0,
        0,
        0,
        0,
        0,
        0,
        0,
        0,
        0,
        0,
        0,
        0,
        0,
        0,
        0,
        0,
        0,
        0,
        0,
        0,
        0,
        0,
        0,
        0,
        0,
        0,
        0,
        0,
        0,
        0,
        0,
        0,
        0,
        0,
        0,
        0,
        0,
        0,
        0,
        0,
        0,
        0,
        0,
        0,
        0,
        0,
        0,
        0,
        0,
        0,
        0,
        0,
        0,
        0,
        0,
        0,
        0,
        0,
        0,
        0,
        0,
        0,
        0,
        0,
        0,
        0,
        0,
        0,
        0,
        0,
        0,
        0,
        0,
        0,
        0,
        0,
        0,
        0,
        0,
        0,
        0,
        0,
        0,
        0,
        0,
        0,
        0,
        0,
        0,
        0,
        0,
        0,
        0,
        0,
        0,
        0,
        0,
        0,
        0,
        0,
        0,
        0,
        0,
        0,
        0,
        0,
        0,
        0,
        0,
        0,
        0,
        0,
        0,
        0,
        0,
        0,
        0,
        0,
        0,
        0,
        0,
        0,
        0,
        0,
        0,
        0,
        0,
        0,
        0,
        0,
        0,
        0,
        0,
        0,
        0,
        0,
        0,
        0,
        0,
        0,
        0,
        0,
        0,
        0,
        0,
        0,
        0,
        0,
        0,
        0,
        0,
        0,
        0,
        0,
        0,
        0,
        0,
        0,
        0,
        0,
        0,
        0,
        0,
        0,
        0,
        0,
        0,
        0,
        0,
        0,
        0,
        0,
        0,
        0,
        0,
        0,
        0,
        0,
        0,
        0,
        0,
        0,
        0,
        0,
        0,
        0,
        0,
        0,
        0,
        0,
        0,
        0,
        0,
        0,
        0,
        0,
        0,
        0,
        0,
        0,
        0,
        0,
        0,
        0,
        0,
        0,
        0,
        0,
        0,
        0,
        0,
        0,
        0,
        0,
        0,
        0,
        0,
        0,
        0,
        0,
        0,
        0,
        0,
        0,
        0,
        0,
        0,
        0,
        0,
        0,
        0,
        0,
        0,
        0,
        0,
        0,
        0,
        0,
        0,
        0,
        0,
        0,
        0,
        0,
        0,
        0,
        0,
        0,
        0,
        0,
        0,
        0,
        0,
        0,
        0,
        0,
        0,
        0,
        0,
        0,
        0,
        0,
        0,
        0,
        0,
        0,
        0,
        0,
        0,
        0,
        0,
        0,
        0,
        0,
        0,
        0,
        0,
        0,
        0,
        0,
        0,
        0,
        0,
        0,
        0,
        0,
        0,
        0,
        0,
        0,
        0,
        0,
        0,
        0,
        0,
        0,
        0,
        0,
        0,
        0,
        0,
        0,
        0,
        0,
        0,
        0,
        0,
        0,
        0,
        0,
        0,
        0,
        0,
        0,
        0,
        0,
        0,
        0,
        0,
        0,
        0,
        0,
        0,
        0,
        0,
        0,
        0,
        0,
        0,
        0,
        0,
        0,
        0,
        0,
        0,
        0,
        0,
        0,
        0,
        0,
        0,
        0,
        0,
        0,
        0,
        0,
        0,
        0,
        0,
        0,
        0,
        0,
        0,
        0,
        0,
        0,
        0,
        0,
        0,
        0,
        0,
        0,
        0,
        0,
        0,
        0,
        0,
        0,
        0,
        0,
        0,
        0,
        0,
        0,
        0,
        0,
        0,
        0,
        0,
        0,
        0,
        0,
        0,
        0,
        0,
        0,
        0,
        0,
        0,
        0,
        0,
        0,
        0,
        0,
        0,
        0,
        0,
        0,
        0,
        0,
        0,
        0,
        0,
        0,
        0,
        0,
        0,
        0,
        0,
        0,
        0,
        0,
        0,
        0,
        0,
        0,
        0,
        0,
        0,
        0,
        0,
        0,
        0,
        0,
        0,
        0,
        0,
        0,
        0,
        0,
        0,
        0,
        0,
        0,
        0,
        0,
        0,
        0,
        0,
        0,
        0,
        0,
        0,
        0,
        0,
        0,
        0,
        0,
        0,
        0,
        0,
        0,
        0,
        0,
        0,
        0,
        0,
        0,
        0,
        0,
        0,
        0,
        0,
        0,
        0,
        0,
        0,
        0,
        0,
        0,
        0,
        0,
        0,
        0,
        0,
        0,
        0,
        0,
        0,
        0,
        0,
        0,
        0,
        0,
        0,
        0,
        0,
        0,
        0,
        0,
        0,
        0,
        0,
        0,
        0,
        0,
        0,
        0,
        0,
        0,
        0,
        0,
        0,
        0,
        0,
        0,
        0,
        0,
        0,
        0,
        0,
        0,
        0,
        0,
        0,
        0,
        0,
        0,
        0,
        0,
        0,
        0,
        0,
        0,
        0,
        0,
        0,
        0,
        0,
        0,
        0,
        0,
        0,
        0,
        0,
        0,
        0,
        0,
        0,
        0,
        0,
        0,
        0,
        0,
        0,
        0,
        0,
        0,
        0,
        0,
        0,
        0,
        0,
        0,
        0,
        0,
        0,
        0,
        0,
        0,
        0,
        0,
        0,
        0,
        0,
        0,
        0,
        0,
        0,
        0,
        0,
        0,
        0,
        0,
        0,
        0,
        0,
        0,
        0,
        0,
        0,
        0,
        0,
        0,
        0,
        0,
        0,
        0,
        0,
        0,
        0,
        0,
        0,
        0,
        0,
        0,
        0,
        0,
        0,
        0,
        0,
        0,
        0,
        0,
        0,
        0,
        0,
        0,
        0,
        0,
        0,
        0,
        0,
        0,
        0,
        0,
        0,
        0,
        0,
        0,
        0,
        0,
        0,
        0,
        0,
        0,
        0,
        0,
        0,
        0,
        0,
        0,
        0,
        0,
        0,
        0,
        0,
        0,
        0,
        0,
        0,
        0,
        0,
        0,
        0,
        0,
        0,
        0,
        0,
        0,
        0,
        0,
        0,
        0,
        0,
        0,
        0,
        0,
        0,
        0,
        0,
        0,
        0,
        0,
        0,
        0,
        0,
        0,
        0,
        0,
        0,
        0,
        0,
        0,
        0,
        0,
        0,
        0,
        0,
        0,
        0,
        0,
        0,
        0,
        0,
        0,
        0,
        0,
        0,
        0,
        0,
        0,
        0,
        0,
        0,
        0,
        0,
        0,
        0,
        0,
        0,
        0,
        0,
        0,
        0,
        0,
        0,
        0,
        0,
        0,
        0,
        0,
        0,
        0,
        0,
        0,
        0,
        0,
        0,
        0,
        0,
        0,
        0,
        0,
        0,
        0,
        0,
        0,
        0,
        0,
        0,
        0,
        0,
        0,
        0,
        0,
        0,
        0,
        0,
        0,
        0,
        0,
        0,
        0,
        0,
        0,
        0,
        0,
        0,
        0,
        0,
        0,
        0,
        0,
        0,
        0,
        0,
        0,
        0,
        0,
        0,
        0,
        0,
        0,
        0,
        0,
        0,
        0,
        0,
        0,
        0,
        0,
        0,
        0,
        0,
        0,
        0,
        0,
        0,
        0,
        0,
        0,
        0,
        0,
        0,
        0,
        0,
        0,
        0,
        0,
        0,
        0,
        0,
        0,
        0,
        0,
        0,
        0,
        0,
        0,
        0,
        0,
        0,
        0,
        0,
        0,
        0,
        0,
        0,
        0,
        0,
        0,
        0,
        0,
        0,
        0,
        0,
        0,
        0,
        0,
        0,
        0,
        0,
        0,
        0,
        0,
        0,
        0,
        0,
        0,
        0,
        0,
        0,
        0,
        0,
        0,
        0,
        0,
        0,
        0,
        0,
        0,
        0,
        0,
        0,
        0,
        0,
        0,
        0,
        0,
        0,
        0,
        0,
        0,
        0,
        0,
        0,
        0,
        0,
        0,
        0,
        0,
        0,
        0,
        0,
        0,
        0,
        0,
        0,
        0,
        0,
        0,
        0,
        0,
        0,
        0,
        0,
        0,
        0,
        0,
        0,
        0,
        0,
        0,
        0,
        0,
        0,
        0,
        0,
        0,
        0,
        0,
        0,
        0,
        0,
        0,
        0,
        0,
        0,
        0,
        0,
        0,
        0,
        0,
        0,
        0,
        0,
        0,
        0,
        0,
        0,
        0,
        0,
        0,
        0,
        0,
        0,
        0,
        0,
        0,
        0,
        0,
        0,
        0,
        0,
        0,
        0,
        0,
        0,
        0,
        0,
        0,
        0,
        0,
        0,
        0,
        0,
        0,
        0,
        0,
        0,
        0,
        0,
        0,
        0,
        0,
        0,
        0,
        0,
        0,
        0,
        0,
        0,
        0,
        0,
        0,
        0,
        0,
        0,
        0,
        0,
        0,
        0,
        0,
        0,
        0,
        0,
        0,
        0,
        0,
        0,
        0,
        0,
        0,
        0,
        0,
        0,
        0,
        0,
        0,
        0,
        0,
        0,
        0,
        0,
        0,
        0,
        0,
        0,
        0,
        0,
        0,
        0,
        0,
        0,
        0,
        0,
        0,
        0,
        0,
        0,
        0,
        0,
        0,
        0,
        0,
        0,
        0,
        0,
        0,
        0,
        0,
        0,
        0,
        0,
        0,
        0,
        0,
        0,
        0,
        0,
        0,
        0,
        0,
        0,
        0,
        0,
        0,
        0,
        0,
        0,
        0,
        0,
        0,
        0,
        0,
        0,
        0,
        0,
        0,
        0,
        0,
        0,
        0,
        0,
        0,
        0,
        0,
        0,
        0,
        0,
        0,
        0,
        0,
        0,
        0,
        0,
        0,
        0,
        0,
        0,
        0,
        0,
        0,
        0,
        0,
        0,
        0,
        0,
        0,
        0,
        0,
        0,
        0,
        0,
        0,
        0,
        0,
        0,
        0,
        0,
        0,
        0,
        0,
        0,
        0,
        0,
        0,
        0,
        0,
        0,
        0,
        0,
        0,
        0,
        0,
        0,
        0,
        0,
        0,
        0,
        0,
        0,
        0,
        0,
        0,
        0,
        0,
        0,
        0,
        0,
        0,
        0,
        0,
        0,
        0,
        0,
        0,
        0,
        0,
        0,
        0,
        0,
        0,
        0,
        0,
        0,
        0,
        0,
        0,
        0,
        0,
        0,
        0,
        0,
        0,
        0,
        0,
        0,
        0,
        0,
        0,
        0,
        0,
        0,
        0,
        0,
        0,
        0,
        0,
        0,
        0,
        0,
        0,
        0,
        0,
        0,
        0,
        0,
        0,
        0,
        0,
        0,
        0,
        0,
        0,
        0,
        0,
        0,
        0,
        0,
        0,
        0,
        0,
        0,
        0,
        0,
        0,
        0,
        0,
        0,
        0,
        0,
        0,
        0,
        0,
        0,
        0,
        0,
        0,
        0,
        0,
        0,
        0,
        0,
        0,
        0,
        0,
        0,
        0,
        0,
        0,
        0,
        0,
        0,
        0,
        0,
        0,
        0,
        0,
        0,
        0,
        0,
        0,
        0,
        0,
        0,
        0,
        0,
        0,
        0,
        0,
        0,
        0,
        0,
        0,
        0,
        0,
        0,
        0,
        0,
        0,
        0,
        0,
        0,
        0,
        0,
        0,
        0,
        0,
        0,
        0,
        0,
        0,
        0,
        0,
        0,
        0,
        0,
        0,
        0,
        0,
        0,
        0,
        0,
        0,
        0,
        0,
        0,
        0,
        0,
        0,
        0,
        0,
        0,
        0,
        0,
        0,
        0,
        0,
        0,
        0,
        0,
        0,
        0,
        0,
        0,
        0,
        0,
        0,
        0,
        0,
        0,
        0,
        0,
        0,
        0,
        0,
        0,
        0,
        0,
        0,
        0,
        0,
        0,
        0,
        0,
        0,
        0,
        0,
        0,
        0,
        0,
        0,
        0,
        0,
        0,
        0,
        0,
        0,
        0,
        0,
        0,
        0,
        0,
        0,
        0,
        0,
        0,
        0,
        0,
        0,
        0,
        0,
        0,
        0,
        0,
        0,
        0,
        0,
        0,
        0,
        0,
        0,
        0,
        0,
        0,
        0,
        0,
        0,
        0,
        0,
        0,
        0,
        0,
        0,
        0,
        0,
        0,
        0,
        0,
        0,
        0,
        0,
        0,
        0,
        0,
        0,
        0,
        0,
        0,
        0,
        0,
        0,
        0,
        0,
        0,
        0,
        0,
        0,
        0,
        0,
        0,
        0,
        0,
        0,
        0,
        0,
        0,
        0,
        0,
        0,
        0,
        0,
        0,
        0,
        0,
        0,
        0,
        0,
        0,
        0,
        0,
        0,
        0,
        0,
        0,
        0,
        0,
        0,
        0,
        0,
        0,
        0,
        0,
        0,
        0,
        0,
        0,
        0,
        0,
        0,
        0,
        0,
        0,
        0,
        0,
        0,
        0,
        0,
        0,
        0,
        0,
        0,
        0,
        0,
        0,
        0,
        0,
        0,
        0,
        0,
        0,
        0,
        0,
        0,
        0,
        0,
        0,
        0,
        0,
        0,
        0,
        0,
        0,
        0,
        0,
        0,
        0,
        0,
        0,
        0,
        0,
        0,
        0,
        0,
        0,
        0,
        0,
        0,
        0,
        0,
        0,
        0,
        0,
        0,
        0,
        0,
        0,
        0,
        0,
        0,
        0,
        0,
        0,
        0,
        0,
        0,
        0,
        0,
        0,
        0,
        0,
        0,
        0,
        0,
        0,
        0,
        0,
        0,
        0,
        0,
        0,
        0,
        0,
        0,
        0,
        0,
        0,
        0,
        0,
        0,
        0,
        0,
        0,
        0,
        0,
        0,
        0,
        0,
        0,
        0,
        0,
        0,
        0,
        0,
        0,
        0,
        0,
        0,
        0,
        0,
        0,
        0,
        0,
        0,
        0,
        0,
        0,
        0,
        0,
        0,
        0,
        0,
        0,
        0,
        0,
        0,
        0,
        0,
        0,
        0,
        0,
        0,
        0,
        0,
        0,
        0,
        0,
        0,
        0,
        0,
        0,
        0,
        0,
        0,
        0,
        0,
        0,
        0,
        0,
        0,
        0,
        0,
        0,
        0,
        0,
        0,
        0,
        0,
        0,
        0,
        0,
        0,
        0,
        0,
        0,
        0,
        0,
        0,
        0,
        0,
        0,
        0,
        0,
        0,
        0,
        0,
        0,
        0,
        0,
        0,
        0,
        0,
        0,
        0,
        0,
        0,
        0,
        0,
        0,
        0,
        0,
        0,
        0,
        0,
        0,
        0,
        0,
        0,
        0,
        0,
        0,
        0,
        0,
        0,
        0,
        0,
        0,
        0,
        0,
        0,
        0,
        0,
        0,
        0,
        0,
        0,
        0,
        0,
        0,
        0,
        0,
        0,
        0,
        0,
        0,
        0,
        0,
        0,
        0,
        0,
        0,
        0,
        0,
        0,
        0,
        0,
        0,
        0,
        0,
        0,
        0,
        0,
        0,
        0,
        0,
        0,
        0,
        0,
        0,
        0,
        0,
        0,
        0,
        0,
        0,
        0,
        0,
        0,
        0,
        0,
        0,
        0,
        0,
        0,
        0,
        0,
        0,
        0,
        0,
        0,
        0,
        0,
        0,
        0,
        0,
        0,
        0,
        0,
        0,
        0,
        0,
        0,
        0,
        0,
        0,
        0,
        0,
        0,
        0,
        0,
        0,
        0,
        0,
        0,
        0,
        0,
        0,
        0,
        0,
        0,
        0,
        0,
        0,
        0,
        0,
        0,
        0,
        0,
        0,
        0,
        0,
        0,
        0,
        0,
        0,
        0,
        0,
        0,
        0,
        0,
        0,
        0,
        0,
        0,
        0,
        0,
        0,
        0,
        0,
        0,
        0,
        0,
        0,
        0,
        0,
        0,
        0,
        0,
        0,
        0,
        0,
        0,
        0,
        0,
        0,
        0,
        0,
        0,
        0,
        0,
        0,
        0,
        0,
        0,
        0,
        0,
        0,
        0,
        0,
        0,
        0,
        0,
        0,
        0,
        0,
        0,
        0,
        0,
        0,
        0,
        0,
        0,
        0,
        0,
        0,
        0,
        0,
        0,
        0,
        0,
        0,
        0,
        0,
        0,
        0,
        0,
        0,
        0,
        0,
        0,
        0,
        0,
        0,
        0,
        0,
        0,
        0,
        0,
        0,
        0,
        0,
        0,
        0,
        0,
        0,
        0,
        0,
        0,
        0,
        0,
        0,
        0,
        0,
        0,
        0,
        0,
        0,
        0,
        0,
        0,
        0,
        0,
        0,
        0,
        0,
        0,
        0,
        0,
        0,
        0,
        0,
        0,
        0,
        0,
        0,
        0,
        0,
        0,
        0,
        0,
        0,
        0,
        0,
        0,
        0,
        0,
        0,
        0,
        0,
        0,
        0,
        0,
        0,
        0,
        0,
        0,
        0,
        0,
        0,
        0,
        0,
        0,
        0,
        0,
        0,
        0,
        0,
        0,
        0,
        0,
        0,
        0,
        0,
        0,
        0,
        0,
        0,
        0,
        0,
        0,
        0,
        0,
        0,
        0,
        0,
        0,
        0,
        0,
        0,
        0,
        0,
        0,
        0,
        0,
        0,
        0,
        0,
        0,
        0,
        0,
        0,
        0,
        0,
        0,
        0,
        0,
        0,
        0,
        0,
        0,
        0,
        0,
        0,
        0,
        0,
        0,
        0,
        0,
        0,
        0,
        0,
        0,
        0,
        0,
        0,
        0,
        0,
        0,
        0,
        0,
        0,
        0,
        0,
        0,
        0,
        0,
        0,
        0,
        0,
        0,
        0,
        0,
        0,
        0,
        0,
        0,
        0,
        0,
        0,
        0,
        0,
        0,
        0,
        0,
        0,
        0,
        0,
        0,
        0,
        0,
        0,
        0,
        0,
        0,
        0,
        0,
        0,
        0,
        0,
        0,
        0,
        0,
        0,
        0,
        0,
        0,
        0,
        0,
        0,
        0,
        0,
        0,
        0,
        0,
        0,
        0,
        0,
        0,
        0,
        0,
        0,
        0,
        0,
        0,
        0,
        0,
        0,
        0,
        0,
        0,
        0,
        0,
        0,
        0,
        0,
        0,
        0,
        0,
        0,
        0,
        0,
        0,
        0,
        0,
        0,
        0,
        0,
        0,
        0,
        0,
        0,
        0,
        0,
        0,
        0,
        0,
        0,
        0,
        0,
        0,
        0,
        0,
        0,
        0,
        0,
        0,
        0,
        0,
        0,
        0,
        0,
        0,
        0,
        0,
        0,
        0,
        0,
        0,
        0,
        0,
        0,
        0,
        0,
        0,
        0,
        0,
        0,
        0,
        0,
        0,
        0,
        0,
        0,
        0,
        0,
        0,
        0,
        0,
        0,
        0,
        0,
        0,
        0,
        0,
        0,
        0,
        0,
        0,
        0,
        0,
        0,
        0,
        0,
        0,
        0,
        0,
        0,
        0,
        0,
        0,
        0,
        0,
        0,
        0,
        0,
        0,
        0,
        0,
        0,
        0,
        0,
        0,
        0,
        0,
        0,
        0,
        0,
        0,
        0,
        0,
        0,
        0,
        0,
        0,
        0,
        0,
        0,
        0,
        0,
        0,
        0,
        0,
        0,
        0,
        0,
        0,
        0,
        0,
        0,
        0,
        0,
        0,
        0,
        0,
        0,
        0,
        0,
        0,
        0,
        0,
        0,
        0,
        0,
        0,
        0,
        0,
        0,
        0,
        0,
        0,
        0,
        0,
        0,
        0,
        0,
        0,
        0,
        0,
        0,
        0,
        0,
        0,
        0,
        0,
        0,
        0,
        0,
        0,
        0,
        0,
        0,
        0,
        0,
        0,
        0,
        0,
        0,
        0,
        0,
        0,
        0,
        0,
        0,
        0,
        0,
        0,
        0,
        0,
        0,
        0,
        0,
        0,
        0,
        0,
        0,
        0,
        0,
        0,
        0,
        0,
        0,
        0,
        0,
        0,
        0,
        0,
        0,
        0,
        0,
        0,
        0,
        0,
        0,
        0,
        0,
        0,
        0,
        0,
        0,
        0,
        0,
        0,
        0,
        0,
        0,
        0,
        0,
        0,
        0,
        0,
        0,
        0,
        0,
        0,
        0,
        0,
        0,
        0,
        0,
        0,
        0,
        0,
        0,
        0,
        0,
        0,
        0,
        0,
        0,
        0,
        0,
        0,
        0,
        0,
        0,
        0,
        0,
        0,
        0,
        0,
        0,
        0,
        0,
        0,
        0,
        0,
        0,
        0,
        0,
        0,
        0,
        0,
        0,
        0,
        0,
        0,
        0,
        0,
        0,
        0,
        0,
        0,
        0,
        0,
        0,
        0,
        0,
        0,
        0,
        0,
        0,
        0,
        0,
        0,
        0,
        0,
        0,
        0,
        0,
        0,
        0,
        0,
        0,
        0,
        0,
        0,
        0,
        0,
        0,
        0,
        0,
        0,
        0,
        0,
        0,
        0,
        0,
        0,
        0,
        0,
        0,
        0,
        0,
        0,
        0,
        0,
        0,
        0,
        0,
        0,
        0,
        0,
        0,
        0,
        0,
        0,
        0,
        0,
        0,
        0,
        0,
        0,
        0,
        0,
        0,
        0,
        0,
        0,
        0,
        0,
        0,
        0,
        0,
        0,
        0,
        0,
        0,
        0,
        0,
        0,
        0,
        0,
        0,
        0,
        0,
        0,
        0,
        0,
        0,
        0,
        0,
        0,
        0,
        0,
        0,
        0,
        0,
        0,
        0,
        0,
        0,
        0,
        0,
        0,
        0,
        0,
        0,
        0,
        0,
        0,
        0,
        0,
        0,
        0,
        0,
        0,
        0,
        0,
        0,
        0,
        0,
        0,
        0,
        0,
        0,
        0,
        0,
        0,
        0,
        0,
        0,
        0,
        0,
        0,
        0,
        0,
        0,
        0,
        0,
        0,
        0,
        0,
        0,
        0,
        0,
        0,
        0,
        0,
        0,
        0,
        0,
        0,
        0,
        0,
        0,
        0,
        0,
        0,
        0,
        0,
        0,
        0,
        0,
        0,
        0,
        0,
        0,
        0,
        0,
        0,
        0,
        0,
        0,
        0,
        0,
        0,
        0,
        0,
        0,
        0,
        0,
        0,
        0,
        0,
        0,
        0,
        0,
        0,
        0,
        0,
        0,
        0,
        0,
        0,
        0,
        0,
        0,
        0,
        0,
        0,
        0,
        0,
        0,
        0,
        0,
        0,
        0,
        0,
        0,
        0,
        0,
        0,
        0,
        0,
        0,
        0,
        0,
        0,
        0,
        0,
        0,
        0,
        0,
        0,
        0,
        0,
        0,
        0,
        0,
        0,
        0,
        0,
        0,
        0,
        0,
        0,
        0,
        0,
        0,
        0,
        0,
        0,
        0,
        0,
        0,
        0,
        0,
        0,
        0,
        0,
        0,
        0,
        0,
        0,
        0,
        0,
        0,
        0,
        0,
        0,
        0,
        0,
        0,
        0,
        0,
        0,
        0,
        0,
        0,
        0,
        0,
        0,
        0,
        0,
        0,
        0,
        0,
        0,
        0,
        0,
        0,
        0,
        0,
        0,
        0,
        0,
        0,
        0,
        0,
        0,
        0,
        0,
        0,
        0,
        0,
        0,
        0,
        0,
        0,
        0,
        0,
        0,
        0,
        0,
        0,
        0,
        0,
        0,
        0,
        0,
        0,
        0,
        0,
        0,
        0,
        0,
        0,
        0,
        0,
        0,
        0,
        0,
        0,
        0,
        0,
        0,
        0,
        0,
        0,
        0,
        0,
        0,
        0,
        0,
        0,
        0,
        0,
        0,
        0,
        0,
        0,
        0,
        0,
        0,
        0,
        0,
        0,
        0,
        0,
        0,
        0,
        0,
        0,
        0,
        0,
        0,
        0,
        0,
        0,
        0,
        0,
        0,
        0,
        0,
        0,
        0,
        0,
        0,
        0,
        0,
        0,
        0,
        0,
        0,
        0,
        0,
        0,
        0,
        0,
        0,
        0,
        0,
        0,
        0,
        0,
        0,
        0,
        0,
        0,
        0,
        0,
        0,
        0,
        0,
        0,
        0,
        0,
        0,
        0,
        0,
        0,
        0,
        0,
        0,
        0,
        0,
        0,
        0,
        0,
        0,
        0,
        0,
        0,
        0,
        0,
        0,
        0,
        0,
        0,
        0,
        0,
        0,
        0,
        0,
        0,
        0,
        0,
        0,
        0,
        0,
        0,
        0,
        0,
        0,
        0,
        0,
        0,
        0,
        0,
        0,
        0,
        0,
        0,
        0,
        0,
        0,
        0,
        0,
        0,
        0,
        0,
        0,
        0,
        0,
        0,
        0,
        0,
        0,
        0,
        0,
        0,
        0,
        0,
        0,
        0,
        0,
        0,
        0,
        0,
        0,
        0,
        0,
        0,
        0,
        0,
        0,
        0,
        0,
        0,
        0,
        0,
        0,
        0,
        0,
        0,
        0,
        0,
        0,
        0,
        0,
        0,
        0,
        0,
        0,
        0,
        0,
        0,
        0,
        0,
        0,
        0,
        0,
        0,
        0,
        0,
        0,
        0,
        0,
        0,
        0,
        0,
        0,
        0,
        0,
        0,
        0,
        0,
        0,
        0,
        0,
        0,
        0,
        0,
        0,
        0,
        0,
        0,
        0,
        0,
        0,
        0,
        0,
        0,
        0,
        0,
        0,
        0,
        0,
        0,
        0,
        0,
        0,
        0,
        0,
        0,
        0,
        0,
        0,
        0,
        0,
        0,
        0,
        0,
        0,
        0,
        0,
        0,
        0,
        0,
        0,
        0,
        0,
        0,
        0,
        0,
        0,
        0,
        0,
        0,
        0,
        0,
        0,
        0,
        0,
        0,
        0,
        0,
        0,
        0,
        0,
        0,
        0,
        0,
        0,
        0,
        0,
        0,
        0,
        0,
        0,
        0,
        0,
        0,
        0,
        0,
        0,
        0,
        0,
        0,
        0,
        0,
        0,
        0,
        0,
        0,
        0,
        0,
        0,
        0,
        0,
        0,
        0,
        0,
        0,
        0,
        0,
        0,
        0,
        0,
        0,
        0,
        0,
        0,
        0,
        0,
        0,
        0,
        0,
        0,
        0,
        0,
        0,
        0,
        0,
        0,
        0,
        0,
        0,
        0,
        0,
        0,
        0,
        0,
        0,
        0,
        0,
        0,
        0,
        0,
        0,
        0,
        0,
        0,
        0,
        0,
        0,
        0,
        0,
        0,
        0,
        0,
        0,
        0,
        0,
        0,
        0,
        0,
        0,
        0,
        0,
        0,
        0,
        0,
        0,
        0,
        0,
        0,
        0,
        0,
        0,
        0,
        0,
        0,
        0,
        0,
        0,
        0,
        0,
        0,
        0,
        0,
        0,
        0,
        0,
        0,
        0,
        0,
        0,
        0,
        0,
        0,
        0,
        0,
        0,
        0,
        0,
        0,
        0,
        0,
        0,
        0,
        0,
        0,
        0,
        0,
        0,
        0,
        0,
        0,
        0,
        0,
        0,
        0,
        0,
        0,
        0,
        0,
        0,
        0,
        0,
        0,
        0,
        0,
        0,
        0,
        0,
        0,
        0,
        0,
        0,
        0,
        0,
        0,
        0,
        0,
        0,
        0,
        0,
        0,
        0,
        0,
        0,
        0,
        0,
        0,
        0,
        0,
        0,
        0,
        0,
        0,
        0,
        0,
        0,
        0,
        0,
        0,
        0,
        0,
        0,
        0,
        0,
        0,
        0,
        0,
        0,
        0,
        0,
        0,
        0,
        0,
        0,
        0,
        0,
        0,
        0,
        0,
        0,
        0,
        0,
        0,
        0,
        0,
        0,
        0,
        0,
        0,
        0,
        0,
        0,
        0,
        0,
        0,
        0,
        0,
        0,
        0,
        0,
        0,
        0,
        0,
        0,
        0,
        0,
        0,
        0,
        0,
        0,
        0,
        0,
        0,
        0,
        0,
        0,
        0,
        0,
        0,
        0,
        0,
        0,
        0,
        0,
        0,
        0,
        0,
        0,
        0,
        0,
        0,
        0,
        0,
        0,
        0,
        0,
        0,
        0,
        0,
        0,
        0,
        0,
        0,
        0,
        0,
        0,
        0,
        0,
        0,
        0,
        0,
        0,
        0,
        0,
        0,
        0,
        0,
        0,
        0,
        0,
        0,
        0,
        0,
        0,
        0,
        0,
        0,
        0,
        0,
        0,
        0,
        0,
        0,
        0,
        0,
        0,
        0,
        0,
        0,
        0,
        0,
        0,
        0,
        0,
        0,
        0,
        0,
        0,
        0,
        0,
        0,
        0,
        0,
        0,
        0,
        0,
        0,
        0,
        0,
        0,
        0,
        0,
        0,
        0,
        0,
        0,
        0,
        0,
        0,
        0,
        0,
        0,
        0,
        0,
        0,
        0,
        0,
        0,
        0,
        0,
        0,
        0,
        0,
        0,
        0,
        0,
        0,
        0,
        0,
        0,
        0,
        0,
        0,
        0,
        0,
        0,
        0,
        0,
        0,
        0,
        0,
        0,
        0,
        0,
        0,
        0,
        0,
        0,
        0,
        0,
        0,
        0,
        0,
        0,
        0,
        0,
        0,
        0,
        0,
        0,
        0,
        0,
        0,
        0,
        0,
        0,
        0,
        0,
        0,
        0,
        0,
        0,
        0,
        0,
        0,
        0,
        0,
        0,
        0,
        0,
        0,
        0,
        0,
        0,
        0,
        0,
        0,
        0,
        0,
        0,
        0,
        0,
        0,
        0,
        0,
        0,
        0,
        0,
        0,
        0,
        0,
        0,
        0,
        0,
        0,
        0,
        0,
        0,
        0,
        0,
        0,
        0,
        0,
        0,
        0,
        0,
        0,
        0,
        0,
        0,
        0,
        0,
        0,
        0,
        0,
        0,
        0,
        0,
        0,
        0,
        0,
        0,
        0,
        0,
        0,
        0,
        0,
        0,
        0,
        0,
        0,
        0,
        0,
        0,
        0,
        0,
        0,
        0,
        0,
        0,
        0,
        0,
        0,
        0,
        0,
        0,
        0,
        0,
        0,
        0,
        0,
        0,
        0,
        0,
        0,
        0,
        0,
        0,
        0,
        0,
        0,
        0,
        0,
        0,
        0,
        0,
        0,
        0,
        0,
        0,
        0,
        0,
        0,
        0,
        0,
        0,
        0,
        0,
        0,
        0,
        0,
        0,
        0,
        0,
        0,
        0,
        0,
        0,
        0,
        0,
        0,
        0,
        0,
        0,
        0,
        0,
        0,
        0,
        0,
        0,
        0,
        0,
        0,
        0,
        0,
        0,
        0,
        0,
        0,
        0,
        0,
        0,
        0,
        0,
        0,
        0,
        0,
        0,
        0,
        0,
        0,
        0,
        0,
        0,
        0,
        0,
        0,
        0,
        0,
        0,
        0,
        0,
        0,
        0,
        0,
        0,
        0,
        0,
        0,
        0,
        0,
        0,
        0,
        0,
        0,
        0,
        0,
        0,
        0,
        0,
        0,
        0,
        0,
        0,
        0,
        0,
        0,
        0,
        0,
        0,
        0,
        0,
        0,
        0,
        0,
        0,
        0,
        0,
        0,
        0,
        0,
        0,
        0,
        0,
        0,
        0,
        0,
        0,
        0,
        0,
        0,
        0,
        0,
        0,
        0,
        0,
        0,
        0,
        0,
        0,
        0,
        0,
        0,
        0,
        0,
        0,
        0,
        0,
        0,
        0,
        0,
        0,
        0,
        0,
        0,
        0,
        0,
        0,
        0,
        0,
        0,
        0,
        0,
        0,
        0,
        0,
        0,
        0,
        0,
        0,
        0,
        0,
        0,
        0,
        0,
        0,
        0,
        0,
        0,
        0,
        0,
        0,
        0,
        0,
        0,
        0,
        0,
        0,
        0,
        0,
        0,
        0,
        0,
        0,
        0,
        0,
        0,
        0,
        0,
        0,
        0,
        0,
        0,
        0,
        0,
        0,
        0,
        0,
        0,
        0,
        0,
        0,
        0,
        0,
        0,
        0,
        0,
        0,
        0,
        0,
        0,
        0,
        0,
        0,
        0,
        0,
        0,
        0,
        0,
        0,
        0,
        0,
        0,
        0,
        0,
        0,
        0,
        0,
        0,
        0,
        0,
        0,
        0,
        0,
        0,
        0,
        0,
        0,
        0,
        0,
        0,
        0,
        0,
        0,
        0,
        0,
        0,
        0,
        0,
        0,
        0,
        0,
        0,
        0,
        0,
        0,
        0,
        0,
        0,
        0,
        0,
        0,
        0,
        0,
        0,
        0,
        0,
        0,
        0,
        0,
        0,
        0,
        0,
        0,
        0,
        0,
        0,
        0,
        0,
        0,
        0,
        0,
        0,
        0,
        0,
        0,
        0,
        0,
        0,
        0,
        0,
        0,
        0,
        0,
        0,
        0,
        0,
        0,
        0,
        0,
        0,
        0,
        0,
        0,
        0,
        0,
        0,
        0,
        0,
        0,
        0,
        0,
        0,
        0,
        0,
        0,
        0,
        0,
        0,
        0,
        0,
        0,
        0,
        0,
        0,
        0,
        0,
        0,
        0,
        0,
        0,
        0,
        0,
        0,
        0,
        0,
        0,
        0,
        0,
        0,
        0,
        0,
        0,
        0,
        0,
        0,
        0,
        0,
        0,
        0,
        0,
        0,
        0,
        0,
        0,
        0,
        0,
        0,
        0,
        0,
        0,
        0,
        0,
        0,
        0,
        0,
        0,
        0,
        0,
        0,
        0,
        0,
        0,
        0,
        0,
        0,
        0,
        0,
        0,
        0,
        0,
        0,
        0,
        0,
        0,
        0,
        0,
        0,
        0,
        0,
        0,
        0,
        0,
        0,
        0,
        0,
        0,
        0,
        0,
        0,
        0,
        0,
        0,
        0,
        0,
        0,
        0,
        0,
        0,
        0,
        0,
        0,
        0,
        0,
        0,
        0,
        0,
        0,
        0,
        0,
        0,
        0,
        0,
        0,
        0,
        0,
        0,
        0,
        0,
        0,
        0,
        0,
        0,
        0,
        0,
        0,
        0,
        0,
        0,
        0,
        0,
        0,
        0,
        0,
        0,
        0,
        0,
        0,
        0,
        0,
        0,
        0,
        0,
        0,
        0,
        0,
        0,
        0,
        0,
        0,
        0,
        0,
        0,
        0,
        0,
        0,
        0,
        0,
        0,
        0,
        0,
        0,
        0,
        0,
        0,
        0,
        0,
        0,
        0,
        0,
        0,
        0,
        0,
        0,
        0,
        0,
        0,
        0,
        0,
        0,
        0,
        0,
        0,
        0,
        0,
        0,
        0,
        0,
        0,
        0,
        0,
        0,
        0,
        0,
        0,
        0,
        0,
        0,
        0,
        0,
        0,
        0,
        0,
        0,
        0,
        0,
        0,
        0,
        0,
        0,
        0,
        0,
        0,
        0,
        0,
        0,
        0,
        0,
        0,
        0,
        0,
        0,
        0,
        0,
        0,
        0,
        0,
        0,
        0,
        0,
        0,
        0,
        0,
        0,
        0,
        0,
        0,
        0,
        0,
        0,
        0,
        0,
        0,
        0,
        0,
        0,
        0,
        0,
        0,
        0,
        0,
        0,
        0,
        0,
        0,
        0,
        0,
        0,
        0,
        0,
        0,
        0,
        0,
        0,
        0,
        0,
        0,
        0,
        0,
        0,
        0,
        0,
        0,
        0,
        0,
        0,
        0,
        0,
        0,
        0,
        0,
        0,
        0,
        0,
        0,
        0,
        0,
        0,
        0,
        0,
        0,
        0,
        0,
        0,
        0,
        0,
        0,
        0,
        0,
        0,
        0,
        0,
        0,
        0,
        0,
        0,
        0,
        0,
        0,
        0,
        0,
        0,
        0,
        0,
        0,
        0,
        0,
        0,
        0,
        0,
        0,
        0,
        0,
        0,
        0,
        0,
        0,
        0,
        0,
        0,
        0,
        0,
        0,
        0,
        0,
        0,
        0,
        0,
        0,
        0,
        0,
        0,
        0,
        0,
        0,
        0,
        0,
        0,
        0,
        0,
        0,
        0,
        0,
        0,
        0,
        0,
        0,
        0,
        0,
        0,
        0,
        0,
        0,
        0,
        0,
        0,
        0,
        0,
        0,
        0,
        0,
        0,
        0,
        0,
        0,
        0,
        0,
        0,
        0,
        0,
        0,
        0,
        0,
        0,
        0,
        0,
        0,
        0,
        0,
        0,
        0,
        0,
        0,
        0,
        0,
        0,
        0,
        0,
        0,
        0,
        0,
        0,
        0,
        0,
        0,
        0,
        0,
        0,
        0,
        0,
        0,
        0,
        0,
        0,
        0,
        0,
        0,
        0,
        0,
        0,
        0,
        0,
        0,
        0,
        0,
        0,
        0,
        0,
        0,
        0,
        0,
        0,
        0,
        0,
        0,
        0,
        0,
        0,
        0,
        0,
        0,
        0,
        0,
        0,
        0,
        0,
        0,
        0,
        0,
        0,
        0,
        0,
        0,
        0,
        0,
        0,
        0,
        0,
        0,
        0,
        0,
        0,
        0,
        0,
        0,
        0,
        0,
        0,
        0,
        0,
        0,
        0,
        0,
        0,
        0,
        0,
        0,
        0,
        0,
        0,
        0,
        0,
        0,
        0,
        0,
        0,
        0,
        0,
        0,
        0,
        0,
        0,
        0,
        0,
        0,
        0,
        0,
        0,
        0,
        0,
        0,
        0,
        0,
        0,
        0,
        0,
        0,
        0,
        0,
        0,
        0,
        0,
        0,
        0,
        0,
        0,
        0,
        0,
        0,
        0,
        0,
        0,
        0,
        0,
        0,
        0,
        0,
        0,
        0,
        0,
        0,
        0,
        0,
        0,
        0,
        0,
        0,
        0,
        0,
        0,
        0,
        0,
        0,
        0,
        0,
        0,
        0,
        0,
        0,
        0,
        0,
        0,
        0,
        0,
        0,
        0,
        0,
        0,
        0,
        0,
        0,
        0,
        0,
        0,
        0,
        0,
        0,
        0,
        0,
        0,
        0,
        0,
        0,
        0,
        0,
        0,
        0,
        0,
        0,
        0,
        0,
        0,
        0,
        0,
        0,
        0,
        0,
        0,
        0,
        0,
        0,
        0,
        0,
        0,
        0,
        0,
        0,
        0,
        0,
        0,
        0,
        0,
        0,
        0,
        0,
        0,
        0,
        0,
        0
      ]
    },
    {
      "id": 7,
      "name": "Trees and People",
      "type": "objectgroup",
      "draworder": "topdown",
      "opacity": 1,
      "visible": true,
      "x": 0,
      "y": 0,
      "objects": [
        {
          "id": 1,
          "name": "wreck",
          "type": "engineeria_object",
          "gid": 101,
          "x": 160,
          "y": 960,
          "width": 176,
          "height": 96,
          "rotation": 0,
          "visible": true
        },
        {
          "id": 2,
          "name": "debris",
          "type": "engineeria_object",
          "gid": 115,
          "x": 112,
          "y": 912,
          "width": 22,
          "height": 14,
          "rotation": 0,
          "visible": true
        },
        {
          "id": 3,
          "name": "debris",
          "type": "engineeria_object",
          "gid": 117,
          "x": 352,
          "y": 880,
          "width": 22,
          "height": 14,
          "rotation": 0,
          "visible": true
        },
        {
          "id": 4,
          "name": "debris",
          "type": "engineeria_object",
          "gid": 115,
          "x": 400,
          "y": 1008,
          "width": 22,
          "height": 14,
          "rotation": 0,
          "visible": true
        },
        {
          "id": 5,
          "name": "debris",
          "type": "engineeria_object",
          "gid": 117,
          "x": 144,
          "y": 1040,
          "width": 22,
          "height": 14,
          "rotation": 0,
          "visible": true
        },
        {
          "id": 6,
          "name": "debris",
          "type": "engineeria_object",
          "gid": 115,
          "x": 304,
          "y": 1056,
          "width": 22,
          "height": 14,
          "rotation": 0,
          "visible": true
        },
        {
          "id": 7,
          "name": "wreck_fire",
          "type": "engineeria_object",
          "gid": 107,
          "x": 128,
          "y": 976,
          "width": 14,
          "height": 18,
          "rotation": 0,
          "visible": true
        },
        {
          "id": 8,
          "name": "wreck_fire",
          "type": "engineeria_object",
          "gid": 107,
          "x": 416,
          "y": 944,
          "width": 14,
          "height": 18,
          "rotation": 0,
          "visible": true
        },
        {
          "id": 9,
          "name": "wreck_fire",
          "type": "engineeria_object",
          "gid": 107,
          "x": 336,
          "y": 1040,
          "width": 14,
          "height": 18,
          "rotation": 0,
          "visible": true
        },
        {
          "id": 10,
          "name": "envoy_lying_0",
          "type": "engineeria_object",
          "gid": 109,
          "x": 176,
          "y": 1014,
          "width": 26,
          "height": 20,
          "rotation": 0,
          "visible": true
        },
        {
          "id": 11,
          "name": "envoy_lying_1",
          "type": "engineeria_object",
          "gid": 111,
          "x": 288,
          "y": 1034,
          "width": 26,
          "height": 20,
          "rotation": 0,
          "visible": true
        },
        {
          "id": 12,
          "name": "envoy_lying_2",
          "type": "engineeria_object",
          "gid": 113,
          "x": 364,
          "y": 982,
          "width": 26,
          "height": 20,
          "rotation": 0,
          "visible": true
        },
        {
          "id": 13,
          "name": "player",
          "type": "engineeria_object",
          "gid": 100,
          "x": 224,
          "y": 1004,
          "width": 16,
          "height": 24,
          "rotation": 0,
          "visible": true
        },
        {
          "id": 14,
          "name": "davor_house",
          "type": "engineeria_object",
          "gid": 102,
          "x": 1286,
          "y": 192,
          "width": 84,
          "height": 92,
          "rotation": 0,
          "visible": true
        },
        {
          "id": 15,
          "name": "woodpile",
          "type": "engineeria_object",
          "gid": 103,
          "x": 1216,
          "y": 208,
          "width": 30,
          "height": 18,
          "rotation": 0,
          "visible": true
        },
        {
          "id": 16,
          "name": "chopping_block",
          "type": "engineeria_object",
          "gid": 104,
          "x": 1254,
          "y": 230,
          "width": 14,
          "height": 12,
          "rotation": 0,
          "visible": true
        },
        {
          "id": 17,
          "name": "tree_broadleaf",
          "type": "engineeria_object",
          "gid": 110,
          "x": 1202,
          "y": 1038,
          "width": 44,
          "height": 54,
          "rotation": 0,
          "visible": true
        },
        {
          "id": 18,
          "name": "tree_broadleaf",
          "type": "engineeria_object",
          "gid": 110,
          "x": 690,
          "y": 78,
          "width": 44,
          "height": 54,
          "rotation": 0,
          "visible": true
        },
        {
          "id": 19,
          "name": "tree_broadleaf",
          "type": "engineeria_object",
          "gid": 108,
          "x": 402,
          "y": 382,
          "width": 44,
          "height": 54,
          "rotation": 0,
          "visible": true
        },
        {
          "id": 20,
          "name": "tree_broadleaf",
          "type": "engineeria_object",
          "gid": 108,
          "x": 274,
          "y": 398,
          "width": 44,
          "height": 54,
          "rotation": 0,
          "visible": true
        },
        {
          "id": 21,
          "name": "tree_broadleaf",
          "type": "engineeria_object",
          "gid": 110,
          "x": 210,
          "y": 238,
          "width": 44,
          "height": 54,
          "rotation": 0,
          "visible": true
        },
        {
          "id": 22,
          "name": "tree_broadleaf",
          "type": "engineeria_object",
          "gid": 112,
          "x": 430,
          "y": 574,
          "width": 52,
          "height": 62,
          "rotation": 0,
          "visible": true
        },
        {
          "id": 23,
          "name": "tree_broadleaf",
          "type": "engineeria_object",
          "gid": 110,
          "x": 194,
          "y": 718,
          "width": 44,
          "height": 54,
          "rotation": 0,
          "visible": true
        },
        {
          "id": 24,
          "name": "tree_broadleaf",
          "type": "engineeria_object",
          "gid": 108,
          "x": 1218,
          "y": 990,
          "width": 44,
          "height": 54,
          "rotation": 0,
          "visible": true
        },
        {
          "id": 25,
          "name": "tree_broadleaf",
          "type": "engineeria_object",
          "gid": 108,
          "x": 1170,
          "y": 1038,
          "width": 44,
          "height": 54,
          "rotation": 0,
          "visible": true
        },
        {
          "id": 26,
          "name": "tree_broadleaf",
          "type": "engineeria_object",
          "gid": 108,
          "x": 786,
          "y": 686,
          "width": 44,
          "height": 54,
          "rotation": 0,
          "visible": true
        },
        {
          "id": 27,
          "name": "tree_broadleaf",
          "type": "engineeria_object",
          "gid": 108,
          "x": 498,
          "y": 750,
          "width": 44,
          "height": 54,
          "rotation": 0,
          "visible": true
        },
        {
          "id": 28,
          "name": "tree_broadleaf",
          "type": "engineeria_object",
          "gid": 110,
          "x": 466,
          "y": 1102,
          "width": 44,
          "height": 54,
          "rotation": 0,
          "visible": true
        },
        {
          "id": 29,
          "name": "tree_broadleaf",
          "type": "engineeria_object",
          "gid": 108,
          "x": 210,
          "y": 638,
          "width": 44,
          "height": 54,
          "rotation": 0,
          "visible": true
        },
        {
          "id": 30,
          "name": "tree_broadleaf",
          "type": "engineeria_object",
          "gid": 110,
          "x": 1026,
          "y": 990,
          "width": 44,
          "height": 54,
          "rotation": 0,
          "visible": true
        },
        {
          "id": 31,
          "name": "tree_broadleaf",
          "type": "engineeria_object",
          "gid": 110,
          "x": 914,
          "y": 958,
          "width": 44,
          "height": 54,
          "rotation": 0,
          "visible": true
        },
        {
          "id": 32,
          "name": "tree_broadleaf",
          "type": "engineeria_object",
          "gid": 110,
          "x": 1074,
          "y": 318,
          "width": 44,
          "height": 54,
          "rotation": 0,
          "visible": true
        },
        {
          "id": 33,
          "name": "tree_broadleaf",
          "type": "engineeria_object",
          "gid": 112,
          "x": 718,
          "y": 110,
          "width": 52,
          "height": 62,
          "rotation": 0,
          "visible": true
        },
        {
          "id": 34,
          "name": "tree_broadleaf",
          "type": "engineeria_object",
          "gid": 110,
          "x": 1250,
          "y": 622,
          "width": 44,
          "height": 54,
          "rotation": 0,
          "visible": true
        },
        {
          "id": 35,
          "name": "tree_broadleaf",
          "type": "engineeria_object",
          "gid": 110,
          "x": 258,
          "y": 78,
          "width": 44,
          "height": 54,
          "rotation": 0,
          "visible": true
        },
        {
          "id": 36,
          "name": "tree_broadleaf",
          "type": "engineeria_object",
          "gid": 108,
          "x": 242,
          "y": 638,
          "width": 44,
          "height": 54,
          "rotation": 0,
          "visible": true
        },
        {
          "id": 37,
          "name": "tree_broadleaf",
          "type": "engineeria_object",
          "gid": 110,
          "x": 338,
          "y": 206,
          "width": 44,
          "height": 54,
          "rotation": 0,
          "visible": true
        },
        {
          "id": 38,
          "name": "tree_broadleaf",
          "type": "engineeria_object",
          "gid": 110,
          "x": 578,
          "y": 142,
          "width": 44,
          "height": 54,
          "rotation": 0,
          "visible": true
        },
        {
          "id": 39,
          "name": "tree_broadleaf",
          "type": "engineeria_object",
          "gid": 110,
          "x": 418,
          "y": 766,
          "width": 44,
          "height": 54,
          "rotation": 0,
          "visible": true
        },
        {
          "id": 40,
          "name": "tree_broadleaf",
          "type": "engineeria_object",
          "gid": 110,
          "x": 82,
          "y": 798,
          "width": 44,
          "height": 54,
          "rotation": 0,
          "visible": true
        },
        {
          "id": 41,
          "name": "tree_broadleaf",
          "type": "engineeria_object",
          "gid": 110,
          "x": 66,
          "y": 78,
          "width": 44,
          "height": 54,
          "rotation": 0,
          "visible": true
        },
        {
          "id": 42,
          "name": "tree_broadleaf",
          "type": "engineeria_object",
          "gid": 112,
          "x": 1038,
          "y": 1054,
          "width": 52,
          "height": 62,
          "rotation": 0,
          "visible": true
        },
        {
          "id": 43,
          "name": "tree_broadleaf",
          "type": "engineeria_object",
          "gid": 110,
          "x": 194,
          "y": 414,
          "width": 44,
          "height": 54,
          "rotation": 0,
          "visible": true
        },
        {
          "id": 44,
          "name": "tree_broadleaf",
          "type": "engineeria_object",
          "gid": 110,
          "x": 1234,
          "y": 1054,
          "width": 44,
          "height": 54,
          "rotation": 0,
          "visible": true
        },
        {
          "id": 45,
          "name": "tree_broadleaf",
          "type": "engineeria_object",
          "gid": 112,
          "x": 46,
          "y": 798,
          "width": 52,
          "height": 62,
          "rotation": 0,
          "visible": true
        },
        {
          "id": 46,
          "name": "tree_broadleaf",
          "type": "engineeria_object",
          "gid": 110,
          "x": 34,
          "y": 350,
          "width": 44,
          "height": 54,
          "rotation": 0,
          "visible": true
        },
        {
          "id": 47,
          "name": "tree_broadleaf",
          "type": "engineeria_object",
          "gid": 108,
          "x": 1026,
          "y": 782,
          "width": 44,
          "height": 54,
          "rotation": 0,
          "visible": true
        },
        {
          "id": 48,
          "name": "tree_broadleaf",
          "type": "engineeria_object",
          "gid": 108,
          "x": 530,
          "y": 702,
          "width": 44,
          "height": 54,
          "rotation": 0,
          "visible": true
        },
        {
          "id": 49,
          "name": "tree_broadleaf",
          "type": "engineeria_object",
          "gid": 108,
          "x": 1346,
          "y": 766,
          "width": 44,
          "height": 54,
          "rotation": 0,
          "visible": true
        },
        {
          "id": 50,
          "name": "tree_broadleaf",
          "type": "engineeria_object",
          "gid": 108,
          "x": 818,
          "y": 894,
          "width": 44,
          "height": 54,
          "rotation": 0,
          "visible": true
        },
        {
          "id": 51,
          "name": "tree_broadleaf",
          "type": "engineeria_object",
          "gid": 112,
          "x": 1182,
          "y": 622,
          "width": 52,
          "height": 62,
          "rotation": 0,
          "visible": true
        },
        {
          "id": 52,
          "name": "tree_broadleaf",
          "type": "engineeria_object",
          "gid": 110,
          "x": 1090,
          "y": 222,
          "width": 44,
          "height": 54,
          "rotation": 0,
          "visible": true
        },
        {
          "id": 53,
          "name": "tree_broadleaf",
          "type": "engineeria_object",
          "gid": 112,
          "x": 926,
          "y": 542,
          "width": 52,
          "height": 62,
          "rotation": 0,
          "visible": true
        },
        {
          "id": 54,
          "name": "tree_broadleaf",
          "type": "engineeria_object",
          "gid": 112,
          "x": 94,
          "y": 190,
          "width": 52,
          "height": 62,
          "rotation": 0,
          "visible": true
        },
        {
          "id": 55,
          "name": "tree_broadleaf",
          "type": "engineeria_object",
          "gid": 108,
          "x": 1298,
          "y": 542,
          "width": 44,
          "height": 54,
          "rotation": 0,
          "visible": true
        },
        {
          "id": 56,
          "name": "tree_broadleaf",
          "type": "engineeria_object",
          "gid": 108,
          "x": 1442,
          "y": 766,
          "width": 44,
          "height": 54,
          "rotation": 0,
          "visible": true
        },
        {
          "id": 57,
          "name": "tree_broadleaf",
          "type": "engineeria_object",
          "gid": 112,
          "x": 430,
          "y": 830,
          "width": 52,
          "height": 62,
          "rotation": 0,
          "visible": true
        },
        {
          "id": 58,
          "name": "tree_broadleaf",
          "type": "engineeria_object",
          "gid": 110,
          "x": 690,
          "y": 286,
          "width": 44,
          "height": 54,
          "rotation": 0,
          "visible": true
        },
        {
          "id": 59,
          "name": "tree_broadleaf",
          "type": "engineeria_object",
          "gid": 108,
          "x": 1106,
          "y": 1070,
          "width": 44,
          "height": 54,
          "rotation": 0,
          "visible": true
        },
        {
          "id": 60,
          "name": "tree_broadleaf",
          "type": "engineeria_object",
          "gid": 112,
          "x": 606,
          "y": 238,
          "width": 52,
          "height": 62,
          "rotation": 0,
          "visible": true
        },
        {
          "id": 61,
          "name": "tree_broadleaf",
          "type": "engineeria_object",
          "gid": 108,
          "x": 706,
          "y": 142,
          "width": 44,
          "height": 54,
          "rotation": 0,
          "visible": true
        },
        {
          "id": 62,
          "name": "tree_broadleaf",
          "type": "engineeria_object",
          "gid": 112,
          "x": 126,
          "y": 174,
          "width": 52,
          "height": 62,
          "rotation": 0,
          "visible": true
        },
        {
          "id": 63,
          "name": "tree_broadleaf",
          "type": "engineeria_object",
          "gid": 110,
          "x": 34,
          "y": 526,
          "width": 44,
          "height": 54,
          "rotation": 0,
          "visible": true
        },
        {
          "id": 64,
          "name": "tree_broadleaf",
          "type": "engineeria_object",
          "gid": 108,
          "x": 562,
          "y": 702,
          "width": 44,
          "height": 54,
          "rotation": 0,
          "visible": true
        },
        {
          "id": 65,
          "name": "tree_broadleaf",
          "type": "engineeria_object",
          "gid": 110,
          "x": 50,
          "y": 686,
          "width": 44,
          "height": 54,
          "rotation": 0,
          "visible": true
        },
        {
          "id": 66,
          "name": "tree_broadleaf",
          "type": "engineeria_object",
          "gid": 112,
          "x": 446,
          "y": 318,
          "width": 52,
          "height": 62,
          "rotation": 0,
          "visible": true
        },
        {
          "id": 67,
          "name": "tree_broadleaf",
          "type": "engineeria_object",
          "gid": 110,
          "x": 434,
          "y": 718,
          "width": 44,
          "height": 54,
          "rotation": 0,
          "visible": true
        },
        {
          "id": 68,
          "name": "tree_broadleaf",
          "type": "engineeria_object",
          "gid": 108,
          "x": 258,
          "y": 462,
          "width": 44,
          "height": 54,
          "rotation": 0,
          "visible": true
        },
        {
          "id": 69,
          "name": "tree_broadleaf",
          "type": "engineeria_object",
          "gid": 108,
          "x": 1170,
          "y": 702,
          "width": 44,
          "height": 54,
          "rotation": 0,
          "visible": true
        },
        {
          "id": 70,
          "name": "tree_broadleaf",
          "type": "engineeria_object",
          "gid": 108,
          "x": 18,
          "y": 830,
          "width": 44,
          "height": 54,
          "rotation": 0,
          "visible": true
        },
        {
          "id": 71,
          "name": "tree_broadleaf",
          "type": "engineeria_object",
          "gid": 108,
          "x": 786,
          "y": 286,
          "width": 44,
          "height": 54,
          "rotation": 0,
          "visible": true
        },
        {
          "id": 72,
          "name": "tree_broadleaf",
          "type": "engineeria_object",
          "gid": 110,
          "x": 1426,
          "y": 670,
          "width": 44,
          "height": 54,
          "rotation": 0,
          "visible": true
        },
        {
          "id": 73,
          "name": "tree_broadleaf",
          "type": "engineeria_object",
          "gid": 112,
          "x": 1214,
          "y": 542,
          "width": 52,
          "height": 62,
          "rotation": 0,
          "visible": true
        },
        {
          "id": 74,
          "name": "tree_broadleaf",
          "type": "engineeria_object",
          "gid": 110,
          "x": 1282,
          "y": 510,
          "width": 44,
          "height": 54,
          "rotation": 0,
          "visible": true
        },
        {
          "id": 75,
          "name": "tree_broadleaf",
          "type": "engineeria_object",
          "gid": 108,
          "x": 962,
          "y": 78,
          "width": 44,
          "height": 54,
          "rotation": 0,
          "visible": true
        },
        {
          "id": 76,
          "name": "tree_broadleaf",
          "type": "engineeria_object",
          "gid": 110,
          "x": 274,
          "y": 142,
          "width": 44,
          "height": 54,
          "rotation": 0,
          "visible": true
        },
        {
          "id": 77,
          "name": "tree_broadleaf",
          "type": "engineeria_object",
          "gid": 108,
          "x": 162,
          "y": 222,
          "width": 44,
          "height": 54,
          "rotation": 0,
          "visible": true
        },
        {
          "id": 78,
          "name": "tree_broadleaf",
          "type": "engineeria_object",
          "gid": 112,
          "x": 910,
          "y": 830,
          "width": 52,
          "height": 62,
          "rotation": 0,
          "visible": true
        },
        {
          "id": 79,
          "name": "tree_broadleaf",
          "type": "engineeria_object",
          "gid": 112,
          "x": 142,
          "y": 494,
          "width": 52,
          "height": 62,
          "rotation": 0,
          "visible": true
        },
        {
          "id": 80,
          "name": "tree_broadleaf",
          "type": "engineeria_object",
          "gid": 108,
          "x": 514,
          "y": 174,
          "width": 44,
          "height": 54,
          "rotation": 0,
          "visible": true
        },
        {
          "id": 81,
          "name": "tree_broadleaf",
          "type": "engineeria_object",
          "gid": 110,
          "x": 18,
          "y": 1038,
          "width": 44,
          "height": 54,
          "rotation": 0,
          "visible": true
        },
        {
          "id": 82,
          "name": "tree_broadleaf",
          "type": "engineeria_object",
          "gid": 108,
          "x": 1426,
          "y": 974,
          "width": 44,
          "height": 54,
          "rotation": 0,
          "visible": true
        },
        {
          "id": 83,
          "name": "tree_broadleaf",
          "type": "engineeria_object",
          "gid": 112,
          "x": 574,
          "y": 910,
          "width": 52,
          "height": 62,
          "rotation": 0,
          "visible": true
        },
        {
          "id": 84,
          "name": "tree_broadleaf",
          "type": "engineeria_object",
          "gid": 112,
          "x": 1438,
          "y": 398,
          "width": 52,
          "height": 62,
          "rotation": 0,
          "visible": true
        },
        {
          "id": 85,
          "name": "tree_broadleaf",
          "type": "engineeria_object",
          "gid": 112,
          "x": 14,
          "y": 126,
          "width": 52,
          "height": 62,
          "rotation": 0,
          "visible": true
        },
        {
          "id": 86,
          "name": "tree_broadleaf",
          "type": "engineeria_object",
          "gid": 110,
          "x": 1298,
          "y": 1102,
          "width": 44,
          "height": 54,
          "rotation": 0,
          "visible": true
        },
        {
          "id": 87,
          "name": "tree_broadleaf",
          "type": "engineeria_object",
          "gid": 110,
          "x": 674,
          "y": 1086,
          "width": 44,
          "height": 54,
          "rotation": 0,
          "visible": true
        },
        {
          "id": 88,
          "name": "tree_broadleaf",
          "type": "engineeria_object",
          "gid": 112,
          "x": 1294,
          "y": 670,
          "width": 52,
          "height": 62,
          "rotation": 0,
          "visible": true
        },
        {
          "id": 89,
          "name": "tree_broadleaf",
          "type": "engineeria_object",
          "gid": 110,
          "x": 1202,
          "y": 494,
          "width": 44,
          "height": 54,
          "rotation": 0,
          "visible": true
        },
        {
          "id": 90,
          "name": "tree_broadleaf",
          "type": "engineeria_object",
          "gid": 108,
          "x": 642,
          "y": 142,
          "width": 44,
          "height": 54,
          "rotation": 0,
          "visible": true
        },
        {
          "id": 91,
          "name": "tree_broadleaf",
          "type": "engineeria_object",
          "gid": 108,
          "x": 274,
          "y": 366,
          "width": 44,
          "height": 54,
          "rotation": 0,
          "visible": true
        },
        {
          "id": 92,
          "name": "tree_broadleaf",
          "type": "engineeria_object",
          "gid": 112,
          "x": 1198,
          "y": 766,
          "width": 52,
          "height": 62,
          "rotation": 0,
          "visible": true
        },
        {
          "id": 93,
          "name": "tree_broadleaf",
          "type": "engineeria_object",
          "gid": 108,
          "x": 738,
          "y": 1102,
          "width": 44,
          "height": 54,
          "rotation": 0,
          "visible": true
        },
        {
          "id": 94,
          "name": "tree_broadleaf",
          "type": "engineeria_object",
          "gid": 112,
          "x": 622,
          "y": 494,
          "width": 52,
          "height": 62,
          "rotation": 0,
          "visible": true
        },
        {
          "id": 95,
          "name": "tree_broadleaf",
          "type": "engineeria_object",
          "gid": 110,
          "x": 1378,
          "y": 494,
          "width": 44,
          "height": 54,
          "rotation": 0,
          "visible": true
        },
        {
          "id": 96,
          "name": "tree_broadleaf",
          "type": "engineeria_object",
          "gid": 108,
          "x": 338,
          "y": 110,
          "width": 44,
          "height": 54,
          "rotation": 0,
          "visible": true
        },
        {
          "id": 97,
          "name": "tree_broadleaf",
          "type": "engineeria_object",
          "gid": 108,
          "x": 1346,
          "y": 814,
          "width": 44,
          "height": 54,
          "rotation": 0,
          "visible": true
        },
        {
          "id": 98,
          "name": "tree_broadleaf",
          "type": "engineeria_object",
          "gid": 108,
          "x": 930,
          "y": 254,
          "width": 44,
          "height": 54,
          "rotation": 0,
          "visible": true
        },
        {
          "id": 99,
          "name": "tree_broadleaf",
          "type": "engineeria_object",
          "gid": 108,
          "x": 914,
          "y": 894,
          "width": 44,
          "height": 54,
          "rotation": 0,
          "visible": true
        },
        {
          "id": 100,
          "name": "tree_broadleaf",
          "type": "engineeria_object",
          "gid": 110,
          "x": 50,
          "y": 414,
          "width": 44,
          "height": 54,
          "rotation": 0,
          "visible": true
        },
        {
          "id": 101,
          "name": "tree_broadleaf",
          "type": "engineeria_object",
          "gid": 110,
          "x": 114,
          "y": 126,
          "width": 44,
          "height": 54,
          "rotation": 0,
          "visible": true
        },
        {
          "id": 102,
          "name": "tree_broadleaf",
          "type": "engineeria_object",
          "gid": 110,
          "x": 866,
          "y": 174,
          "width": 44,
          "height": 54,
          "rotation": 0,
          "visible": true
        },
        {
          "id": 103,
          "name": "tree_broadleaf",
          "type": "engineeria_object",
          "gid": 108,
          "x": 930,
          "y": 446,
          "width": 44,
          "height": 54,
          "rotation": 0,
          "visible": true
        },
        {
          "id": 104,
          "name": "tree_broadleaf",
          "type": "engineeria_object",
          "gid": 110,
          "x": 834,
          "y": 446,
          "width": 44,
          "height": 54,
          "rotation": 0,
          "visible": true
        },
        {
          "id": 105,
          "name": "tree_broadleaf",
          "type": "engineeria_object",
          "gid": 110,
          "x": 994,
          "y": 862,
          "width": 44,
          "height": 54,
          "rotation": 0,
          "visible": true
        },
        {
          "id": 106,
          "name": "tree_broadleaf",
          "type": "engineeria_object",
          "gid": 112,
          "x": 1166,
          "y": 942,
          "width": 52,
          "height": 62,
          "rotation": 0,
          "visible": true
        },
        {
          "id": 107,
          "name": "tree_broadleaf",
          "type": "engineeria_object",
          "gid": 112,
          "x": 1374,
          "y": 558,
          "width": 52,
          "height": 62,
          "rotation": 0,
          "visible": true
        },
        {
          "id": 108,
          "name": "tree_broadleaf",
          "type": "engineeria_object",
          "gid": 112,
          "x": 430,
          "y": 78,
          "width": 52,
          "height": 62,
          "rotation": 0,
          "visible": true
        },
        {
          "id": 109,
          "name": "tree_broadleaf",
          "type": "engineeria_object",
          "gid": 110,
          "x": 258,
          "y": 814,
          "width": 44,
          "height": 54,
          "rotation": 0,
          "visible": true
        },
        {
          "id": 110,
          "name": "tree_broadleaf",
          "type": "engineeria_object",
          "gid": 108,
          "x": 226,
          "y": 1118,
          "width": 44,
          "height": 54,
          "rotation": 0,
          "visible": true
        },
        {
          "id": 111,
          "name": "tree_broadleaf",
          "type": "engineeria_object",
          "gid": 108,
          "x": 802,
          "y": 222,
          "width": 44,
          "height": 54,
          "rotation": 0,
          "visible": true
        },
        {
          "id": 112,
          "name": "tree_broadleaf",
          "type": "engineeria_object",
          "gid": 110,
          "x": 1410,
          "y": 1118,
          "width": 44,
          "height": 54,
          "rotation": 0,
          "visible": true
        },
        {
          "id": 113,
          "name": "tree_broadleaf",
          "type": "engineeria_object",
          "gid": 108,
          "x": 818,
          "y": 558,
          "width": 44,
          "height": 54,
          "rotation": 0,
          "visible": true
        },
        {
          "id": 114,
          "name": "tree_broadleaf",
          "type": "engineeria_object",
          "gid": 112,
          "x": 1438,
          "y": 894,
          "width": 52,
          "height": 62,
          "rotation": 0,
          "visible": true
        },
        {
          "id": 115,
          "name": "tree_broadleaf",
          "type": "engineeria_object",
          "gid": 112,
          "x": 1006,
          "y": 222,
          "width": 52,
          "height": 62,
          "rotation": 0,
          "visible": true
        },
        {
          "id": 116,
          "name": "tree_broadleaf",
          "type": "engineeria_object",
          "gid": 108,
          "x": 802,
          "y": 1086,
          "width": 44,
          "height": 54,
          "rotation": 0,
          "visible": true
        },
        {
          "id": 117,
          "name": "tree_broadleaf",
          "type": "engineeria_object",
          "gid": 108,
          "x": 498,
          "y": 222,
          "width": 44,
          "height": 54,
          "rotation": 0,
          "visible": true
        },
        {
          "id": 118,
          "name": "tree_broadleaf",
          "type": "engineeria_object",
          "gid": 108,
          "x": 34,
          "y": 478,
          "width": 44,
          "height": 54,
          "rotation": 0,
          "visible": true
        },
        {
          "id": 119,
          "name": "tree_broadleaf",
          "type": "engineeria_object",
          "gid": 108,
          "x": 1330,
          "y": 894,
          "width": 44,
          "height": 54,
          "rotation": 0,
          "visible": true
        },
        {
          "id": 120,
          "name": "tree_broadleaf",
          "type": "engineeria_object",
          "gid": 108,
          "x": 1186,
          "y": 1086,
          "width": 44,
          "height": 54,
          "rotation": 0,
          "visible": true
        },
        {
          "id": 121,
          "name": "tree_broadleaf",
          "type": "engineeria_object",
          "gid": 108,
          "x": 114,
          "y": 830,
          "width": 44,
          "height": 54,
          "rotation": 0,
          "visible": true
        },
        {
          "id": 122,
          "name": "tree_broadleaf",
          "type": "engineeria_object",
          "gid": 108,
          "x": 1122,
          "y": 718,
          "width": 44,
          "height": 54,
          "rotation": 0,
          "visible": true
        },
        {
          "id": 123,
          "name": "tree_broadleaf",
          "type": "engineeria_object",
          "gid": 108,
          "x": 1282,
          "y": 638,
          "width": 44,
          "height": 54,
          "rotation": 0,
          "visible": true
        },
        {
          "id": 124,
          "name": "tree_broadleaf",
          "type": "engineeria_object",
          "gid": 108,
          "x": 546,
          "y": 94,
          "width": 44,
          "height": 54,
          "rotation": 0,
          "visible": true
        },
        {
          "id": 125,
          "name": "tree_broadleaf",
          "type": "engineeria_object",
          "gid": 108,
          "x": 946,
          "y": 942,
          "width": 44,
          "height": 54,
          "rotation": 0,
          "visible": true
        },
        {
          "id": 126,
          "name": "tree_broadleaf",
          "type": "engineeria_object",
          "gid": 108,
          "x": 898,
          "y": 558,
          "width": 44,
          "height": 54,
          "rotation": 0,
          "visible": true
        },
        {
          "id": 127,
          "name": "tree_broadleaf",
          "type": "engineeria_object",
          "gid": 110,
          "x": 562,
          "y": 1022,
          "width": 44,
          "height": 54,
          "rotation": 0,
          "visible": true
        },
        {
          "id": 128,
          "name": "tree_broadleaf",
          "type": "engineeria_object",
          "gid": 110,
          "x": 898,
          "y": 670,
          "width": 44,
          "height": 54,
          "rotation": 0,
          "visible": true
        },
        {
          "id": 129,
          "name": "tree_broadleaf",
          "type": "engineeria_object",
          "gid": 108,
          "x": 706,
          "y": 750,
          "width": 44,
          "height": 54,
          "rotation": 0,
          "visible": true
        },
        {
          "id": 130,
          "name": "tree_broadleaf",
          "type": "engineeria_object",
          "gid": 110,
          "x": 1234,
          "y": 814,
          "width": 44,
          "height": 54,
          "rotation": 0,
          "visible": true
        },
        {
          "id": 131,
          "name": "tree_broadleaf",
          "type": "engineeria_object",
          "gid": 112,
          "x": 1358,
          "y": 1006,
          "width": 52,
          "height": 62,
          "rotation": 0,
          "visible": true
        },
        {
          "id": 132,
          "name": "tree_broadleaf",
          "type": "engineeria_object",
          "gid": 108,
          "x": 1186,
          "y": 1006,
          "width": 44,
          "height": 54,
          "rotation": 0,
          "visible": true
        },
        {
          "id": 133,
          "name": "tree_broadleaf",
          "type": "engineeria_object",
          "gid": 108,
          "x": 210,
          "y": 94,
          "width": 44,
          "height": 54,
          "rotation": 0,
          "visible": true
        },
        {
          "id": 134,
          "name": "tree_broadleaf",
          "type": "engineeria_object",
          "gid": 110,
          "x": 178,
          "y": 622,
          "width": 44,
          "height": 54,
          "rotation": 0,
          "visible": true
        },
        {
          "id": 135,
          "name": "tree_broadleaf",
          "type": "engineeria_object",
          "gid": 108,
          "x": 322,
          "y": 270,
          "width": 44,
          "height": 54,
          "rotation": 0,
          "visible": true
        },
        {
          "id": 136,
          "name": "tree_broadleaf",
          "type": "engineeria_object",
          "gid": 108,
          "x": 626,
          "y": 110,
          "width": 44,
          "height": 54,
          "rotation": 0,
          "visible": true
        },
        {
          "id": 137,
          "name": "tree_broadleaf",
          "type": "engineeria_object",
          "gid": 110,
          "x": 1458,
          "y": 734,
          "width": 44,
          "height": 54,
          "rotation": 0,
          "visible": true
        },
        {
          "id": 138,
          "name": "tree_broadleaf",
          "type": "engineeria_object",
          "gid": 108,
          "x": 370,
          "y": 110,
          "width": 44,
          "height": 54,
          "rotation": 0,
          "visible": true
        },
        {
          "id": 139,
          "name": "tree_broadleaf",
          "type": "engineeria_object",
          "gid": 108,
          "x": 898,
          "y": 990,
          "width": 44,
          "height": 54,
          "rotation": 0,
          "visible": true
        },
        {
          "id": 140,
          "name": "tree_broadleaf",
          "type": "engineeria_object",
          "gid": 112,
          "x": 190,
          "y": 382,
          "width": 52,
          "height": 62,
          "rotation": 0,
          "visible": true
        },
        {
          "id": 141,
          "name": "tree_broadleaf",
          "type": "engineeria_object",
          "gid": 108,
          "x": 210,
          "y": 526,
          "width": 44,
          "height": 54,
          "rotation": 0,
          "visible": true
        },
        {
          "id": 142,
          "name": "tree_broadleaf",
          "type": "engineeria_object",
          "gid": 112,
          "x": 1406,
          "y": 766,
          "width": 52,
          "height": 62,
          "rotation": 0,
          "visible": true
        },
        {
          "id": 143,
          "name": "tree_broadleaf",
          "type": "engineeria_object",
          "gid": 108,
          "x": 1058,
          "y": 94,
          "width": 44,
          "height": 54,
          "rotation": 0,
          "visible": true
        },
        {
          "id": 144,
          "name": "tree_broadleaf",
          "type": "engineeria_object",
          "gid": 108,
          "x": 770,
          "y": 1102,
          "width": 44,
          "height": 54,
          "rotation": 0,
          "visible": true
        },
        {
          "id": 145,
          "name": "tree_broadleaf",
          "type": "engineeria_object",
          "gid": 112,
          "x": 126,
          "y": 590,
          "width": 52,
          "height": 62,
          "rotation": 0,
          "visible": true
        },
        {
          "id": 146,
          "name": "tree_broadleaf",
          "type": "engineeria_object",
          "gid": 112,
          "x": 1262,
          "y": 910,
          "width": 52,
          "height": 62,
          "rotation": 0,
          "visible": true
        },
        {
          "id": 147,
          "name": "tree_broadleaf",
          "type": "engineeria_object",
          "gid": 112,
          "x": 158,
          "y": 254,
          "width": 52,
          "height": 62,
          "rotation": 0,
          "visible": true
        },
        {
          "id": 148,
          "name": "tree_broadleaf",
          "type": "engineeria_object",
          "gid": 108,
          "x": 82,
          "y": 734,
          "width": 44,
          "height": 54,
          "rotation": 0,
          "visible": true
        },
        {
          "id": 149,
          "name": "tree_broadleaf",
          "type": "engineeria_object",
          "gid": 112,
          "x": 110,
          "y": 750,
          "width": 52,
          "height": 62,
          "rotation": 0,
          "visible": true
        },
        {
          "id": 150,
          "name": "tree_broadleaf",
          "type": "engineeria_object",
          "gid": 108,
          "x": 1234,
          "y": 702,
          "width": 44,
          "height": 54,
          "rotation": 0,
          "visible": true
        },
        {
          "id": 151,
          "name": "tree_broadleaf",
          "type": "engineeria_object",
          "gid": 110,
          "x": 738,
          "y": 974,
          "width": 44,
          "height": 54,
          "rotation": 0,
          "visible": true
        },
        {
          "id": 152,
          "name": "tree_broadleaf",
          "type": "engineeria_object",
          "gid": 112,
          "x": 366,
          "y": 190,
          "width": 52,
          "height": 62,
          "rotation": 0,
          "visible": true
        },
        {
          "id": 153,
          "name": "tree_broadleaf",
          "type": "engineeria_object",
          "gid": 108,
          "x": 530,
          "y": 990,
          "width": 44,
          "height": 54,
          "rotation": 0,
          "visible": true
        },
        {
          "id": 154,
          "name": "tree_broadleaf",
          "type": "engineeria_object",
          "gid": 110,
          "x": 130,
          "y": 238,
          "width": 44,
          "height": 54,
          "rotation": 0,
          "visible": true
        },
        {
          "id": 155,
          "name": "tree_broadleaf",
          "type": "engineeria_object",
          "gid": 112,
          "x": 974,
          "y": 542,
          "width": 52,
          "height": 62,
          "rotation": 0,
          "visible": true
        },
        {
          "id": 156,
          "name": "tree_broadleaf",
          "type": "engineeria_object",
          "gid": 108,
          "x": 450,
          "y": 286,
          "width": 44,
          "height": 54,
          "rotation": 0,
          "visible": true
        },
        {
          "id": 157,
          "name": "tree_broadleaf",
          "type": "engineeria_object",
          "gid": 110,
          "x": 866,
          "y": 1054,
          "width": 44,
          "height": 54,
          "rotation": 0,
          "visible": true
        },
        {
          "id": 158,
          "name": "tree_broadleaf",
          "type": "engineeria_object",
          "gid": 112,
          "x": 142,
          "y": 654,
          "width": 52,
          "height": 62,
          "rotation": 0,
          "visible": true
        },
        {
          "id": 159,
          "name": "tree_broadleaf",
          "type": "engineeria_object",
          "gid": 110,
          "x": 1074,
          "y": 878,
          "width": 44,
          "height": 54,
          "rotation": 0,
          "visible": true
        },
        {
          "id": 160,
          "name": "tree_broadleaf",
          "type": "engineeria_object",
          "gid": 112,
          "x": 334,
          "y": 414,
          "width": 52,
          "height": 62,
          "rotation": 0,
          "visible": true
        },
        {
          "id": 161,
          "name": "tree_broadleaf",
          "type": "engineeria_object",
          "gid": 110,
          "x": 898,
          "y": 1070,
          "width": 44,
          "height": 54,
          "rotation": 0,
          "visible": true
        },
        {
          "id": 162,
          "name": "tree_broadleaf",
          "type": "engineeria_object",
          "gid": 110,
          "x": 1362,
          "y": 846,
          "width": 44,
          "height": 54,
          "rotation": 0,
          "visible": true
        },
        {
          "id": 163,
          "name": "tree_broadleaf",
          "type": "engineeria_object",
          "gid": 110,
          "x": 1058,
          "y": 62,
          "width": 44,
          "height": 54,
          "rotation": 0,
          "visible": true
        },
        {
          "id": 164,
          "name": "tree_broadleaf",
          "type": "engineeria_object",
          "gid": 112,
          "x": 462,
          "y": 1070,
          "width": 52,
          "height": 62,
          "rotation": 0,
          "visible": true
        },
        {
          "id": 165,
          "name": "tree_broadleaf",
          "type": "engineeria_object",
          "gid": 108,
          "x": 578,
          "y": 110,
          "width": 44,
          "height": 54,
          "rotation": 0,
          "visible": true
        },
        {
          "id": 166,
          "name": "tree_broadleaf",
          "type": "engineeria_object",
          "gid": 108,
          "x": 1058,
          "y": 974,
          "width": 44,
          "height": 54,
          "rotation": 0,
          "visible": true
        },
        {
          "id": 167,
          "name": "tree_broadleaf",
          "type": "engineeria_object",
          "gid": 110,
          "x": 18,
          "y": 718,
          "width": 44,
          "height": 54,
          "rotation": 0,
          "visible": true
        },
        {
          "id": 168,
          "name": "tree_broadleaf",
          "type": "engineeria_object",
          "gid": 110,
          "x": 146,
          "y": 558,
          "width": 44,
          "height": 54,
          "rotation": 0,
          "visible": true
        },
        {
          "id": 169,
          "name": "tree_broadleaf",
          "type": "engineeria_object",
          "gid": 108,
          "x": 178,
          "y": 782,
          "width": 44,
          "height": 54,
          "rotation": 0,
          "visible": true
        },
        {
          "id": 170,
          "name": "tree_broadleaf",
          "type": "engineeria_object",
          "gid": 108,
          "x": 1234,
          "y": 1118,
          "width": 44,
          "height": 54,
          "rotation": 0,
          "visible": true
        },
        {
          "id": 171,
          "name": "tree_broadleaf",
          "type": "engineeria_object",
          "gid": 112,
          "x": 862,
          "y": 926,
          "width": 52,
          "height": 62,
          "rotation": 0,
          "visible": true
        },
        {
          "id": 172,
          "name": "tree_broadleaf",
          "type": "engineeria_object",
          "gid": 108,
          "x": 546,
          "y": 126,
          "width": 44,
          "height": 54,
          "rotation": 0,
          "visible": true
        },
        {
          "id": 173,
          "name": "tree_broadleaf",
          "type": "engineeria_object",
          "gid": 108,
          "x": 226,
          "y": 574,
          "width": 44,
          "height": 54,
          "rotation": 0,
          "visible": true
        },
        {
          "id": 174,
          "name": "tree_broadleaf",
          "type": "engineeria_object",
          "gid": 108,
          "x": 578,
          "y": 1118,
          "width": 44,
          "height": 54,
          "rotation": 0,
          "visible": true
        },
        {
          "id": 175,
          "name": "tree_broadleaf",
          "type": "engineeria_object",
          "gid": 108,
          "x": 290,
          "y": 174,
          "width": 44,
          "height": 54,
          "rotation": 0,
          "visible": true
        },
        {
          "id": 176,
          "name": "tree_broadleaf",
          "type": "engineeria_object",
          "gid": 112,
          "x": 926,
          "y": 414,
          "width": 52,
          "height": 62,
          "rotation": 0,
          "visible": true
        },
        {
          "id": 177,
          "name": "tree_broadleaf",
          "type": "engineeria_object",
          "gid": 108,
          "x": 482,
          "y": 798,
          "width": 44,
          "height": 54,
          "rotation": 0,
          "visible": true
        },
        {
          "id": 178,
          "name": "tree_broadleaf",
          "type": "engineeria_object",
          "gid": 112,
          "x": 14,
          "y": 590,
          "width": 52,
          "height": 62,
          "rotation": 0,
          "visible": true
        },
        {
          "id": 179,
          "name": "tree_broadleaf",
          "type": "engineeria_object",
          "gid": 110,
          "x": 530,
          "y": 542,
          "width": 44,
          "height": 54,
          "rotation": 0,
          "visible": true
        },
        {
          "id": 180,
          "name": "tree_broadleaf",
          "type": "engineeria_object",
          "gid": 110,
          "x": 418,
          "y": 302,
          "width": 44,
          "height": 54,
          "rotation": 0,
          "visible": true
        },
        {
          "id": 181,
          "name": "tree_broadleaf",
          "type": "engineeria_object",
          "gid": 110,
          "x": 962,
          "y": 222,
          "width": 44,
          "height": 54,
          "rotation": 0,
          "visible": true
        },
        {
          "id": 182,
          "name": "tree_broadleaf",
          "type": "engineeria_object",
          "gid": 112,
          "x": 830,
          "y": 78,
          "width": 52,
          "height": 62,
          "rotation": 0,
          "visible": true
        },
        {
          "id": 183,
          "name": "tree_broadleaf",
          "type": "engineeria_object",
          "gid": 108,
          "x": 402,
          "y": 814,
          "width": 44,
          "height": 54,
          "rotation": 0,
          "visible": true
        },
        {
          "id": 184,
          "name": "tree_broadleaf",
          "type": "engineeria_object",
          "gid": 112,
          "x": 30,
          "y": 254,
          "width": 52,
          "height": 62,
          "rotation": 0,
          "visible": true
        },
        {
          "id": 185,
          "name": "tree_broadleaf",
          "type": "engineeria_object",
          "gid": 108,
          "x": 290,
          "y": 446,
          "width": 44,
          "height": 54,
          "rotation": 0,
          "visible": true
        },
        {
          "id": 186,
          "name": "tree_broadleaf",
          "type": "engineeria_object",
          "gid": 112,
          "x": 654,
          "y": 206,
          "width": 52,
          "height": 62,
          "rotation": 0,
          "visible": true
        },
        {
          "id": 187,
          "name": "tree_broadleaf",
          "type": "engineeria_object",
          "gid": 108,
          "x": 338,
          "y": 1118,
          "width": 44,
          "height": 54,
          "rotation": 0,
          "visible": true
        },
        {
          "id": 188,
          "name": "tree_broadleaf",
          "type": "engineeria_object",
          "gid": 108,
          "x": 1186,
          "y": 670,
          "width": 44,
          "height": 54,
          "rotation": 0,
          "visible": true
        },
        {
          "id": 189,
          "name": "tree_broadleaf",
          "type": "engineeria_object",
          "gid": 110,
          "x": 210,
          "y": 782,
          "width": 44,
          "height": 54,
          "rotation": 0,
          "visible": true
        },
        {
          "id": 190,
          "name": "tree_broadleaf",
          "type": "engineeria_object",
          "gid": 112,
          "x": 686,
          "y": 1006,
          "width": 52,
          "height": 62,
          "rotation": 0,
          "visible": true
        },
        {
          "id": 191,
          "name": "tree_broadleaf",
          "type": "engineeria_object",
          "gid": 108,
          "x": 834,
          "y": 1022,
          "width": 44,
          "height": 54,
          "rotation": 0,
          "visible": true
        },
        {
          "id": 192,
          "name": "tree_broadleaf",
          "type": "engineeria_object",
          "gid": 112,
          "x": 1406,
          "y": 542,
          "width": 52,
          "height": 62,
          "rotation": 0,
          "visible": true
        },
        {
          "id": 193,
          "name": "tree_broadleaf",
          "type": "engineeria_object",
          "gid": 110,
          "x": 50,
          "y": 894,
          "width": 44,
          "height": 54,
          "rotation": 0,
          "visible": true
        },
        {
          "id": 194,
          "name": "tree_broadleaf",
          "type": "engineeria_object",
          "gid": 108,
          "x": 642,
          "y": 254,
          "width": 44,
          "height": 54,
          "rotation": 0,
          "visible": true
        },
        {
          "id": 195,
          "name": "tree_broadleaf",
          "type": "engineeria_object",
          "gid": 112,
          "x": 1198,
          "y": 942,
          "width": 52,
          "height": 62,
          "rotation": 0,
          "visible": true
        },
        {
          "id": 196,
          "name": "tree_broadleaf",
          "type": "engineeria_object",
          "gid": 112,
          "x": 1358,
          "y": 670,
          "width": 52,
          "height": 62,
          "rotation": 0,
          "visible": true
        },
        {
          "id": 197,
          "name": "tree_broadleaf",
          "type": "engineeria_object",
          "gid": 112,
          "x": 1326,
          "y": 862,
          "width": 52,
          "height": 62,
          "rotation": 0,
          "visible": true
        },
        {
          "id": 198,
          "name": "tree_broadleaf",
          "type": "engineeria_object",
          "gid": 112,
          "x": 990,
          "y": 766,
          "width": 52,
          "height": 62,
          "rotation": 0,
          "visible": true
        },
        {
          "id": 199,
          "name": "tree_broadleaf",
          "type": "engineeria_object",
          "gid": 112,
          "x": 894,
          "y": 254,
          "width": 52,
          "height": 62,
          "rotation": 0,
          "visible": true
        },
        {
          "id": 200,
          "name": "tree_broadleaf",
          "type": "engineeria_object",
          "gid": 108,
          "x": 1058,
          "y": 910,
          "width": 44,
          "height": 54,
          "rotation": 0,
          "visible": true
        },
        {
          "id": 201,
          "name": "tree_broadleaf",
          "type": "engineeria_object",
          "gid": 112,
          "x": 926,
          "y": 78,
          "width": 52,
          "height": 62,
          "rotation": 0,
          "visible": true
        },
        {
          "id": 202,
          "name": "tree_broadleaf",
          "type": "engineeria_object",
          "gid": 108,
          "x": 1058,
          "y": 158,
          "width": 44,
          "height": 54,
          "rotation": 0,
          "visible": true
        },
        {
          "id": 203,
          "name": "tree_broadleaf",
          "type": "engineeria_object",
          "gid": 110,
          "x": 450,
          "y": 606,
          "width": 44,
          "height": 54,
          "rotation": 0,
          "visible": true
        },
        {
          "id": 204,
          "name": "tree_broadleaf",
          "type": "engineeria_object",
          "gid": 112,
          "x": 958,
          "y": 158,
          "width": 52,
          "height": 62,
          "rotation": 0,
          "visible": true
        },
        {
          "id": 205,
          "name": "tree_broadleaf",
          "type": "engineeria_object",
          "gid": 112,
          "x": 1374,
          "y": 766,
          "width": 52,
          "height": 62,
          "rotation": 0,
          "visible": true
        },
        {
          "id": 206,
          "name": "tree_broadleaf",
          "type": "engineeria_object",
          "gid": 112,
          "x": 174,
          "y": 494,
          "width": 52,
          "height": 62,
          "rotation": 0,
          "visible": true
        },
        {
          "id": 207,
          "name": "tree_broadleaf",
          "type": "engineeria_object",
          "gid": 108,
          "x": 1410,
          "y": 446,
          "width": 44,
          "height": 54,
          "rotation": 0,
          "visible": true
        },
        {
          "id": 208,
          "name": "tree_broadleaf",
          "type": "engineeria_object",
          "gid": 108,
          "x": 754,
          "y": 1006,
          "width": 44,
          "height": 54,
          "rotation": 0,
          "visible": true
        },
        {
          "id": 209,
          "name": "tree_broadleaf",
          "type": "engineeria_object",
          "gid": 108,
          "x": 754,
          "y": 1054,
          "width": 44,
          "height": 54,
          "rotation": 0,
          "visible": true
        },
        {
          "id": 210,
          "name": "tree_broadleaf",
          "type": "engineeria_object",
          "gid": 108,
          "x": 418,
          "y": 606,
          "width": 44,
          "height": 54,
          "rotation": 0,
          "visible": true
        },
        {
          "id": 211,
          "name": "tree_broadleaf",
          "type": "engineeria_object",
          "gid": 108,
          "x": 82,
          "y": 574,
          "width": 44,
          "height": 54,
          "rotation": 0,
          "visible": true
        },
        {
          "id": 212,
          "name": "tree_broadleaf",
          "type": "engineeria_object",
          "gid": 112,
          "x": 462,
          "y": 206,
          "width": 52,
          "height": 62,
          "rotation": 0,
          "visible": true
        },
        {
          "id": 213,
          "name": "tree_broadleaf",
          "type": "engineeria_object",
          "gid": 108,
          "x": 274,
          "y": 494,
          "width": 44,
          "height": 54,
          "rotation": 0,
          "visible": true
        },
        {
          "id": 214,
          "name": "tree_broadleaf",
          "type": "engineeria_object",
          "gid": 112,
          "x": 1054,
          "y": 1118,
          "width": 52,
          "height": 62,
          "rotation": 0,
          "visible": true
        },
        {
          "id": 215,
          "name": "tree_broadleaf",
          "type": "engineeria_object",
          "gid": 110,
          "x": 994,
          "y": 286,
          "width": 44,
          "height": 54,
          "rotation": 0,
          "visible": true
        },
        {
          "id": 216,
          "name": "tree_broadleaf",
          "type": "engineeria_object",
          "gid": 110,
          "x": 306,
          "y": 94,
          "width": 44,
          "height": 54,
          "rotation": 0,
          "visible": true
        },
        {
          "id": 217,
          "name": "tree_broadleaf",
          "type": "engineeria_object",
          "gid": 108,
          "x": 578,
          "y": 942,
          "width": 44,
          "height": 54,
          "rotation": 0,
          "visible": true
        },
        {
          "id": 218,
          "name": "tree_broadleaf",
          "type": "engineeria_object",
          "gid": 108,
          "x": 642,
          "y": 974,
          "width": 44,
          "height": 54,
          "rotation": 0,
          "visible": true
        },
        {
          "id": 219,
          "name": "tree_broadleaf",
          "type": "engineeria_object",
          "gid": 108,
          "x": 82,
          "y": 110,
          "width": 44,
          "height": 54,
          "rotation": 0,
          "visible": true
        },
        {
          "id": 220,
          "name": "tree_broadleaf",
          "type": "engineeria_object",
          "gid": 108,
          "x": 530,
          "y": 62,
          "width": 44,
          "height": 54,
          "rotation": 0,
          "visible": true
        },
        {
          "id": 221,
          "name": "tree_broadleaf",
          "type": "engineeria_object",
          "gid": 110,
          "x": 962,
          "y": 110,
          "width": 44,
          "height": 54,
          "rotation": 0,
          "visible": true
        },
        {
          "id": 222,
          "name": "tree_broadleaf",
          "type": "engineeria_object",
          "gid": 108,
          "x": 1106,
          "y": 798,
          "width": 44,
          "height": 54,
          "rotation": 0,
          "visible": true
        },
        {
          "id": 223,
          "name": "tree_broadleaf",
          "type": "engineeria_object",
          "gid": 110,
          "x": 530,
          "y": 1054,
          "width": 44,
          "height": 54,
          "rotation": 0,
          "visible": true
        },
        {
          "id": 224,
          "name": "tree_broadleaf",
          "type": "engineeria_object",
          "gid": 110,
          "x": 114,
          "y": 318,
          "width": 44,
          "height": 54,
          "rotation": 0,
          "visible": true
        },
        {
          "id": 225,
          "name": "tree_broadleaf",
          "type": "engineeria_object",
          "gid": 112,
          "x": 1006,
          "y": 1038,
          "width": 52,
          "height": 62,
          "rotation": 0,
          "visible": true
        },
        {
          "id": 226,
          "name": "tree_broadleaf",
          "type": "engineeria_object",
          "gid": 112,
          "x": 702,
          "y": 910,
          "width": 52,
          "height": 62,
          "rotation": 0,
          "visible": true
        },
        {
          "id": 227,
          "name": "tree_broadleaf",
          "type": "engineeria_object",
          "gid": 108,
          "x": 1138,
          "y": 1070,
          "width": 44,
          "height": 54,
          "rotation": 0,
          "visible": true
        },
        {
          "id": 228,
          "name": "tree_broadleaf",
          "type": "engineeria_object",
          "gid": 112,
          "x": 1118,
          "y": 670,
          "width": 52,
          "height": 62,
          "rotation": 0,
          "visible": true
        },
        {
          "id": 229,
          "name": "tree_broadleaf",
          "type": "engineeria_object",
          "gid": 108,
          "x": 514,
          "y": 334,
          "width": 44,
          "height": 54,
          "rotation": 0,
          "visible": true
        },
        {
          "id": 230,
          "name": "tree_broadleaf",
          "type": "engineeria_object",
          "gid": 112,
          "x": 94,
          "y": 638,
          "width": 52,
          "height": 62,
          "rotation": 0,
          "visible": true
        },
        {
          "id": 231,
          "name": "tree_broadleaf",
          "type": "engineeria_object",
          "gid": 108,
          "x": 402,
          "y": 1102,
          "width": 44,
          "height": 54,
          "rotation": 0,
          "visible": true
        },
        {
          "id": 232,
          "name": "tree_broadleaf",
          "type": "engineeria_object",
          "gid": 112,
          "x": 30,
          "y": 958,
          "width": 52,
          "height": 62,
          "rotation": 0,
          "visible": true
        },
        {
          "id": 233,
          "name": "tree_broadleaf",
          "type": "engineeria_object",
          "gid": 108,
          "x": 658,
          "y": 494,
          "width": 44,
          "height": 54,
          "rotation": 0,
          "visible": true
        },
        {
          "id": 234,
          "name": "tree_broadleaf",
          "type": "engineeria_object",
          "gid": 108,
          "x": 866,
          "y": 526,
          "width": 44,
          "height": 54,
          "rotation": 0,
          "visible": true
        },
        {
          "id": 235,
          "name": "tree_broadleaf",
          "type": "engineeria_object",
          "gid": 110,
          "x": 18,
          "y": 862,
          "width": 44,
          "height": 54,
          "rotation": 0,
          "visible": true
        },
        {
          "id": 236,
          "name": "tree_broadleaf",
          "type": "engineeria_object",
          "gid": 108,
          "x": 1474,
          "y": 1102,
          "width": 44,
          "height": 54,
          "rotation": 0,
          "visible": true
        },
        {
          "id": 237,
          "name": "tree_broadleaf",
          "type": "engineeria_object",
          "gid": 110,
          "x": 482,
          "y": 94,
          "width": 44,
          "height": 54,
          "rotation": 0,
          "visible": true
        },
        {
          "id": 238,
          "name": "tree_broadleaf",
          "type": "engineeria_object",
          "gid": 110,
          "x": 66,
          "y": 382,
          "width": 44,
          "height": 54,
          "rotation": 0,
          "visible": true
        },
        {
          "id": 239,
          "name": "tree_broadleaf",
          "type": "engineeria_object",
          "gid": 110,
          "x": 34,
          "y": 174,
          "width": 44,
          "height": 54,
          "rotation": 0,
          "visible": true
        },
        {
          "id": 240,
          "name": "tree_broadleaf",
          "type": "engineeria_object",
          "gid": 108,
          "x": 434,
          "y": 1054,
          "width": 44,
          "height": 54,
          "rotation": 0,
          "visible": true
        },
        {
          "id": 241,
          "name": "tree_broadleaf",
          "type": "engineeria_object",
          "gid": 108,
          "x": 754,
          "y": 206,
          "width": 44,
          "height": 54,
          "rotation": 0,
          "visible": true
        },
        {
          "id": 242,
          "name": "tree_broadleaf",
          "type": "engineeria_object",
          "gid": 110,
          "x": 210,
          "y": 606,
          "width": 44,
          "height": 54,
          "rotation": 0,
          "visible": true
        },
        {
          "id": 243,
          "name": "tree_broadleaf",
          "type": "engineeria_object",
          "gid": 108,
          "x": 658,
          "y": 718,
          "width": 44,
          "height": 54,
          "rotation": 0,
          "visible": true
        },
        {
          "id": 244,
          "name": "tree_broadleaf",
          "type": "engineeria_object",
          "gid": 112,
          "x": 1470,
          "y": 830,
          "width": 52,
          "height": 62,
          "rotation": 0,
          "visible": true
        },
        {
          "id": 245,
          "name": "tree_broadleaf",
          "type": "engineeria_object",
          "gid": 112,
          "x": 1342,
          "y": 1118,
          "width": 52,
          "height": 62,
          "rotation": 0,
          "visible": true
        },
        {
          "id": 246,
          "name": "tree_broadleaf",
          "type": "engineeria_object",
          "gid": 112,
          "x": 798,
          "y": 958,
          "width": 52,
          "height": 62,
          "rotation": 0,
          "visible": true
        },
        {
          "id": 247,
          "name": "tree_broadleaf",
          "type": "engineeria_object",
          "gid": 110,
          "x": 1378,
          "y": 958,
          "width": 44,
          "height": 54,
          "rotation": 0,
          "visible": true
        },
        {
          "id": 248,
          "name": "tree_broadleaf",
          "type": "engineeria_object",
          "gid": 108,
          "x": 1074,
          "y": 190,
          "width": 44,
          "height": 54,
          "rotation": 0,
          "visible": true
        },
        {
          "id": 249,
          "name": "tree_broadleaf",
          "type": "engineeria_object",
          "gid": 108,
          "x": 258,
          "y": 334,
          "width": 44,
          "height": 54,
          "rotation": 0,
          "visible": true
        },
        {
          "id": 250,
          "name": "tree_broadleaf",
          "type": "engineeria_object",
          "gid": 108,
          "x": 114,
          "y": 62,
          "width": 44,
          "height": 54,
          "rotation": 0,
          "visible": true
        },
        {
          "id": 251,
          "name": "tree_broadleaf",
          "type": "engineeria_object",
          "gid": 108,
          "x": 1154,
          "y": 542,
          "width": 44,
          "height": 54,
          "rotation": 0,
          "visible": true
        },
        {
          "id": 252,
          "name": "tree_broadleaf",
          "type": "engineeria_object",
          "gid": 108,
          "x": 866,
          "y": 110,
          "width": 44,
          "height": 54,
          "rotation": 0,
          "visible": true
        },
        {
          "id": 253,
          "name": "tree_broadleaf",
          "type": "engineeria_object",
          "gid": 110,
          "x": 706,
          "y": 670,
          "width": 44,
          "height": 54,
          "rotation": 0,
          "visible": true
        },
        {
          "id": 254,
          "name": "tree_broadleaf",
          "type": "engineeria_object",
          "gid": 108,
          "x": 1138,
          "y": 974,
          "width": 44,
          "height": 54,
          "rotation": 0,
          "visible": true
        },
        {
          "id": 255,
          "name": "tree_broadleaf",
          "type": "engineeria_object",
          "gid": 112,
          "x": 222,
          "y": 286,
          "width": 52,
          "height": 62,
          "rotation": 0,
          "visible": true
        },
        {
          "id": 256,
          "name": "tree_broadleaf",
          "type": "engineeria_object",
          "gid": 110,
          "x": 226,
          "y": 350,
          "width": 44,
          "height": 54,
          "rotation": 0,
          "visible": true
        },
        {
          "id": 257,
          "name": "tree_broadleaf",
          "type": "engineeria_object",
          "gid": 112,
          "x": 1006,
          "y": 126,
          "width": 52,
          "height": 62,
          "rotation": 0,
          "visible": true
        },
        {
          "id": 258,
          "name": "tree_broadleaf",
          "type": "engineeria_object",
          "gid": 108,
          "x": 418,
          "y": 254,
          "width": 44,
          "height": 54,
          "rotation": 0,
          "visible": true
        },
        {
          "id": 259,
          "name": "tree_broadleaf",
          "type": "engineeria_object",
          "gid": 112,
          "x": 494,
          "y": 254,
          "width": 52,
          "height": 62,
          "rotation": 0,
          "visible": true
        },
        {
          "id": 260,
          "name": "tree_broadleaf",
          "type": "engineeria_object",
          "gid": 108,
          "x": 802,
          "y": 414,
          "width": 44,
          "height": 54,
          "rotation": 0,
          "visible": true
        },
        {
          "id": 261,
          "name": "tree_broadleaf",
          "type": "engineeria_object",
          "gid": 108,
          "x": 1410,
          "y": 1086,
          "width": 44,
          "height": 54,
          "rotation": 0,
          "visible": true
        },
        {
          "id": 262,
          "name": "tree_broadleaf",
          "type": "engineeria_object",
          "gid": 110,
          "x": 1298,
          "y": 1070,
          "width": 44,
          "height": 54,
          "rotation": 0,
          "visible": true
        },
        {
          "id": 263,
          "name": "tree_broadleaf",
          "type": "engineeria_object",
          "gid": 112,
          "x": 1278,
          "y": 878,
          "width": 52,
          "height": 62,
          "rotation": 0,
          "visible": true
        },
        {
          "id": 264,
          "name": "tree_broadleaf",
          "type": "engineeria_object",
          "gid": 112,
          "x": 190,
          "y": 206,
          "width": 52,
          "height": 62,
          "rotation": 0,
          "visible": true
        },
        {
          "id": 265,
          "name": "tree_broadleaf",
          "type": "engineeria_object",
          "gid": 110,
          "x": 818,
          "y": 926,
          "width": 44,
          "height": 54,
          "rotation": 0,
          "visible": true
        },
        {
          "id": 266,
          "name": "tree_broadleaf",
          "type": "engineeria_object",
          "gid": 112,
          "x": 382,
          "y": 734,
          "width": 52,
          "height": 62,
          "rotation": 0,
          "visible": true
        },
        {
          "id": 267,
          "name": "tree_broadleaf",
          "type": "engineeria_object",
          "gid": 112,
          "x": 366,
          "y": 318,
          "width": 52,
          "height": 62,
          "rotation": 0,
          "visible": true
        },
        {
          "id": 268,
          "name": "tree_broadleaf",
          "type": "engineeria_object",
          "gid": 110,
          "x": 866,
          "y": 558,
          "width": 44,
          "height": 54,
          "rotation": 0,
          "visible": true
        },
        {
          "id": 269,
          "name": "tree_broadleaf",
          "type": "engineeria_object",
          "gid": 112,
          "x": 142,
          "y": 62,
          "width": 52,
          "height": 62,
          "rotation": 0,
          "visible": true
        },
        {
          "id": 270,
          "name": "tree_broadleaf",
          "type": "engineeria_object",
          "gid": 110,
          "x": 1298,
          "y": 1038,
          "width": 44,
          "height": 54,
          "rotation": 0,
          "visible": true
        },
        {
          "id": 271,
          "name": "tree_broadleaf",
          "type": "engineeria_object",
          "gid": 108,
          "x": 18,
          "y": 1086,
          "width": 44,
          "height": 54,
          "rotation": 0,
          "visible": true
        },
        {
          "id": 272,
          "name": "tree_broadleaf",
          "type": "engineeria_object",
          "gid": 110,
          "x": 914,
          "y": 862,
          "width": 44,
          "height": 54,
          "rotation": 0,
          "visible": true
        },
        {
          "id": 273,
          "name": "tree_broadleaf",
          "type": "engineeria_object",
          "gid": 108,
          "x": 802,
          "y": 126,
          "width": 44,
          "height": 54,
          "rotation": 0,
          "visible": true
        },
        {
          "id": 274,
          "name": "tree_broadleaf",
          "type": "engineeria_object",
          "gid": 112,
          "x": 702,
          "y": 1118,
          "width": 52,
          "height": 62,
          "rotation": 0,
          "visible": true
        },
        {
          "id": 275,
          "name": "tree_broadleaf",
          "type": "engineeria_object",
          "gid": 112,
          "x": 78,
          "y": 270,
          "width": 52,
          "height": 62,
          "rotation": 0,
          "visible": true
        },
        {
          "id": 276,
          "name": "tree_broadleaf",
          "type": "engineeria_object",
          "gid": 108,
          "x": 1090,
          "y": 126,
          "width": 44,
          "height": 54,
          "rotation": 0,
          "visible": true
        },
        {
          "id": 277,
          "name": "tree_broadleaf",
          "type": "engineeria_object",
          "gid": 110,
          "x": 178,
          "y": 670,
          "width": 44,
          "height": 54,
          "rotation": 0,
          "visible": true
        },
        {
          "id": 278,
          "name": "tree_broadleaf",
          "type": "engineeria_object",
          "gid": 108,
          "x": 338,
          "y": 62,
          "width": 44,
          "height": 54,
          "rotation": 0,
          "visible": true
        },
        {
          "id": 279,
          "name": "tree_broadleaf",
          "type": "engineeria_object",
          "gid": 108,
          "x": 530,
          "y": 942,
          "width": 44,
          "height": 54,
          "rotation": 0,
          "visible": true
        },
        {
          "id": 280,
          "name": "tree_broadleaf",
          "type": "engineeria_object",
          "gid": 110,
          "x": 50,
          "y": 1086,
          "width": 44,
          "height": 54,
          "rotation": 0,
          "visible": true
        },
        {
          "id": 281,
          "name": "tree_broadleaf",
          "type": "engineeria_object",
          "gid": 110,
          "x": 386,
          "y": 254,
          "width": 44,
          "height": 54,
          "rotation": 0,
          "visible": true
        },
        {
          "id": 282,
          "name": "tree_broadleaf",
          "type": "engineeria_object",
          "gid": 110,
          "x": 1090,
          "y": 830,
          "width": 44,
          "height": 54,
          "rotation": 0,
          "visible": true
        },
        {
          "id": 283,
          "name": "tree_broadleaf",
          "type": "engineeria_object",
          "gid": 112,
          "x": 958,
          "y": 830,
          "width": 52,
          "height": 62,
          "rotation": 0,
          "visible": true
        },
        {
          "id": 284,
          "name": "tree_broadleaf",
          "type": "engineeria_object",
          "gid": 112,
          "x": 894,
          "y": 526,
          "width": 52,
          "height": 62,
          "rotation": 0,
          "visible": true
        },
        {
          "id": 285,
          "name": "tree_broadleaf",
          "type": "engineeria_object",
          "gid": 112,
          "x": 1406,
          "y": 398,
          "width": 52,
          "height": 62,
          "rotation": 0,
          "visible": true
        },
        {
          "id": 286,
          "name": "tree_broadleaf",
          "type": "engineeria_object",
          "gid": 112,
          "x": 958,
          "y": 990,
          "width": 52,
          "height": 62,
          "rotation": 0,
          "visible": true
        },
        {
          "id": 287,
          "name": "tree_broadleaf",
          "type": "engineeria_object",
          "gid": 112,
          "x": 798,
          "y": 254,
          "width": 52,
          "height": 62,
          "rotation": 0,
          "visible": true
        },
        {
          "id": 288,
          "name": "tree_broadleaf",
          "type": "engineeria_object",
          "gid": 112,
          "x": 334,
          "y": 318,
          "width": 52,
          "height": 62,
          "rotation": 0,
          "visible": true
        },
        {
          "id": 289,
          "name": "tree_broadleaf",
          "type": "engineeria_object",
          "gid": 108,
          "x": 1010,
          "y": 814,
          "width": 44,
          "height": 54,
          "rotation": 0,
          "visible": true
        },
        {
          "id": 290,
          "name": "tree_broadleaf",
          "type": "engineeria_object",
          "gid": 108,
          "x": 98,
          "y": 478,
          "width": 44,
          "height": 54,
          "rotation": 0,
          "visible": true
        },
        {
          "id": 291,
          "name": "tree_broadleaf",
          "type": "engineeria_object",
          "gid": 108,
          "x": 146,
          "y": 382,
          "width": 44,
          "height": 54,
          "rotation": 0,
          "visible": true
        },
        {
          "id": 292,
          "name": "tree_broadleaf",
          "type": "engineeria_object",
          "gid": 108,
          "x": 514,
          "y": 94,
          "width": 44,
          "height": 54,
          "rotation": 0,
          "visible": true
        },
        {
          "id": 293,
          "name": "tree_broadleaf",
          "type": "engineeria_object",
          "gid": 108,
          "x": 946,
          "y": 798,
          "width": 44,
          "height": 54,
          "rotation": 0,
          "visible": true
        },
        {
          "id": 294,
          "name": "tree_broadleaf",
          "type": "engineeria_object",
          "gid": 108,
          "x": 1218,
          "y": 622,
          "width": 44,
          "height": 54,
          "rotation": 0,
          "visible": true
        },
        {
          "id": 295,
          "name": "tree_broadleaf",
          "type": "engineeria_object",
          "gid": 112,
          "x": 14,
          "y": 1006,
          "width": 52,
          "height": 62,
          "rotation": 0,
          "visible": true
        },
        {
          "id": 296,
          "name": "tree_broadleaf",
          "type": "engineeria_object",
          "gid": 108,
          "x": 1330,
          "y": 638,
          "width": 44,
          "height": 54,
          "rotation": 0,
          "visible": true
        },
        {
          "id": 297,
          "name": "tree_broadleaf",
          "type": "engineeria_object",
          "gid": 108,
          "x": 626,
          "y": 894,
          "width": 44,
          "height": 54,
          "rotation": 0,
          "visible": true
        },
        {
          "id": 298,
          "name": "tree_broadleaf",
          "type": "engineeria_object",
          "gid": 112,
          "x": 830,
          "y": 270,
          "width": 52,
          "height": 62,
          "rotation": 0,
          "visible": true
        },
        {
          "id": 299,
          "name": "tree_broadleaf",
          "type": "engineeria_object",
          "gid": 108,
          "x": 1298,
          "y": 782,
          "width": 44,
          "height": 54,
          "rotation": 0,
          "visible": true
        },
        {
          "id": 300,
          "name": "tree_broadleaf",
          "type": "engineeria_object",
          "gid": 110,
          "x": 770,
          "y": 446,
          "width": 44,
          "height": 54,
          "rotation": 0,
          "visible": true
        },
        {
          "id": 301,
          "name": "tree_broadleaf",
          "type": "engineeria_object",
          "gid": 110,
          "x": 994,
          "y": 894,
          "width": 44,
          "height": 54,
          "rotation": 0,
          "visible": true
        },
        {
          "id": 302,
          "name": "tree_broadleaf",
          "type": "engineeria_object",
          "gid": 110,
          "x": 1298,
          "y": 846,
          "width": 44,
          "height": 54,
          "rotation": 0,
          "visible": true
        },
        {
          "id": 303,
          "name": "tree_broadleaf",
          "type": "engineeria_object",
          "gid": 108,
          "x": 242,
          "y": 238,
          "width": 44,
          "height": 54,
          "rotation": 0,
          "visible": true
        },
        {
          "id": 304,
          "name": "tree_broadleaf",
          "type": "engineeria_object",
          "gid": 110,
          "x": 994,
          "y": 478,
          "width": 44,
          "height": 54,
          "rotation": 0,
          "visible": true
        },
        {
          "id": 305,
          "name": "tree_broadleaf",
          "type": "engineeria_object",
          "gid": 110,
          "x": 98,
          "y": 398,
          "width": 44,
          "height": 54,
          "rotation": 0,
          "visible": true
        },
        {
          "id": 306,
          "name": "tree_broadleaf",
          "type": "engineeria_object",
          "gid": 110,
          "x": 34,
          "y": 622,
          "width": 44,
          "height": 54,
          "rotation": 0,
          "visible": true
        },
        {
          "id": 307,
          "name": "tree_broadleaf",
          "type": "engineeria_object",
          "gid": 112,
          "x": 558,
          "y": 222,
          "width": 52,
          "height": 62,
          "rotation": 0,
          "visible": true
        },
        {
          "id": 308,
          "name": "tree_broadleaf",
          "type": "engineeria_object",
          "gid": 112,
          "x": 542,
          "y": 574,
          "width": 52,
          "height": 62,
          "rotation": 0,
          "visible": true
        },
        {
          "id": 309,
          "name": "tree_broadleaf",
          "type": "engineeria_object",
          "gid": 112,
          "x": 126,
          "y": 270,
          "width": 52,
          "height": 62,
          "rotation": 0,
          "visible": true
        },
        {
          "id": 310,
          "name": "tree_broadleaf",
          "type": "engineeria_object",
          "gid": 112,
          "x": 830,
          "y": 142,
          "width": 52,
          "height": 62,
          "rotation": 0,
          "visible": true
        },
        {
          "id": 311,
          "name": "tree_broadleaf",
          "type": "engineeria_object",
          "gid": 110,
          "x": 834,
          "y": 846,
          "width": 44,
          "height": 54,
          "rotation": 0,
          "visible": true
        },
        {
          "id": 312,
          "name": "tree_broadleaf",
          "type": "engineeria_object",
          "gid": 108,
          "x": 1026,
          "y": 1086,
          "width": 44,
          "height": 54,
          "rotation": 0,
          "visible": true
        },
        {
          "id": 313,
          "name": "tree_broadleaf",
          "type": "engineeria_object",
          "gid": 112,
          "x": 1470,
          "y": 926,
          "width": 52,
          "height": 62,
          "rotation": 0,
          "visible": true
        },
        {
          "id": 314,
          "name": "tree_broadleaf",
          "type": "engineeria_object",
          "gid": 108,
          "x": 338,
          "y": 142,
          "width": 44,
          "height": 54,
          "rotation": 0,
          "visible": true
        },
        {
          "id": 315,
          "name": "tree_broadleaf",
          "type": "engineeria_object",
          "gid": 110,
          "x": 178,
          "y": 750,
          "width": 44,
          "height": 54,
          "rotation": 0,
          "visible": true
        },
        {
          "id": 316,
          "name": "tree_broadleaf",
          "type": "engineeria_object",
          "gid": 108,
          "x": 658,
          "y": 526,
          "width": 44,
          "height": 54,
          "rotation": 0,
          "visible": true
        },
        {
          "id": 317,
          "name": "tree_broadleaf",
          "type": "engineeria_object",
          "gid": 110,
          "x": 370,
          "y": 158,
          "width": 44,
          "height": 54,
          "rotation": 0,
          "visible": true
        },
        {
          "id": 318,
          "name": "tree_broadleaf",
          "type": "engineeria_object",
          "gid": 108,
          "x": 1202,
          "y": 910,
          "width": 44,
          "height": 54,
          "rotation": 0,
          "visible": true
        },
        {
          "id": 319,
          "name": "tree_broadleaf",
          "type": "engineeria_object",
          "gid": 108,
          "x": 418,
          "y": 206,
          "width": 44,
          "height": 54,
          "rotation": 0,
          "visible": true
        },
        {
          "id": 320,
          "name": "tree_broadleaf",
          "type": "engineeria_object",
          "gid": 112,
          "x": 254,
          "y": 590,
          "width": 52,
          "height": 62,
          "rotation": 0,
          "visible": true
        },
        {
          "id": 321,
          "name": "tree_broadleaf",
          "type": "engineeria_object",
          "gid": 108,
          "x": 66,
          "y": 830,
          "width": 44,
          "height": 54,
          "rotation": 0,
          "visible": true
        },
        {
          "id": 322,
          "name": "tree_broadleaf",
          "type": "engineeria_object",
          "gid": 108,
          "x": 818,
          "y": 686,
          "width": 44,
          "height": 54,
          "rotation": 0,
          "visible": true
        },
        {
          "id": 323,
          "name": "tree_broadleaf",
          "type": "engineeria_object",
          "gid": 112,
          "x": 1374,
          "y": 814,
          "width": 52,
          "height": 62,
          "rotation": 0,
          "visible": true
        },
        {
          "id": 324,
          "name": "tree_broadleaf",
          "type": "engineeria_object",
          "gid": 108,
          "x": 1362,
          "y": 430,
          "width": 44,
          "height": 54,
          "rotation": 0,
          "visible": true
        },
        {
          "id": 325,
          "name": "tree_broadleaf",
          "type": "engineeria_object",
          "gid": 110,
          "x": 178,
          "y": 590,
          "width": 44,
          "height": 54,
          "rotation": 0,
          "visible": true
        },
        {
          "id": 326,
          "name": "tree_broadleaf",
          "type": "engineeria_object",
          "gid": 108,
          "x": 1474,
          "y": 766,
          "width": 44,
          "height": 54,
          "rotation": 0,
          "visible": true
        },
        {
          "id": 327,
          "name": "tree_broadleaf",
          "type": "engineeria_object",
          "gid": 112,
          "x": 542,
          "y": 158,
          "width": 52,
          "height": 62,
          "rotation": 0,
          "visible": true
        },
        {
          "id": 328,
          "name": "tree_broadleaf",
          "type": "engineeria_object",
          "gid": 110,
          "x": 882,
          "y": 222,
          "width": 44,
          "height": 54,
          "rotation": 0,
          "visible": true
        },
        {
          "id": 329,
          "name": "tree_broadleaf",
          "type": "engineeria_object",
          "gid": 112,
          "x": 574,
          "y": 286,
          "width": 52,
          "height": 62,
          "rotation": 0,
          "visible": true
        },
        {
          "id": 330,
          "name": "tree_broadleaf",
          "type": "engineeria_object",
          "gid": 108,
          "x": 802,
          "y": 1054,
          "width": 44,
          "height": 54,
          "rotation": 0,
          "visible": true
        },
        {
          "id": 331,
          "name": "tree_broadleaf",
          "type": "engineeria_object",
          "gid": 112,
          "x": 1262,
          "y": 702,
          "width": 52,
          "height": 62,
          "rotation": 0,
          "visible": true
        },
        {
          "id": 332,
          "name": "tree_broadleaf",
          "type": "engineeria_object",
          "gid": 108,
          "x": 738,
          "y": 686,
          "width": 44,
          "height": 54,
          "rotation": 0,
          "visible": true
        },
        {
          "id": 333,
          "name": "tree_broadleaf",
          "type": "engineeria_object",
          "gid": 110,
          "x": 1266,
          "y": 542,
          "width": 44,
          "height": 54,
          "rotation": 0,
          "visible": true
        },
        {
          "id": 334,
          "name": "tree_broadleaf",
          "type": "engineeria_object",
          "gid": 110,
          "x": 626,
          "y": 1006,
          "width": 44,
          "height": 54,
          "rotation": 0,
          "visible": true
        },
        {
          "id": 335,
          "name": "tree_broadleaf",
          "type": "engineeria_object",
          "gid": 110,
          "x": 1042,
          "y": 206,
          "width": 44,
          "height": 54,
          "rotation": 0,
          "visible": true
        },
        {
          "id": 336,
          "name": "tree_broadleaf",
          "type": "engineeria_object",
          "gid": 108,
          "x": 578,
          "y": 670,
          "width": 44,
          "height": 54,
          "rotation": 0,
          "visible": true
        },
        {
          "id": 337,
          "name": "tree_broadleaf",
          "type": "engineeria_object",
          "gid": 110,
          "x": 818,
          "y": 174,
          "width": 44,
          "height": 54,
          "rotation": 0,
          "visible": true
        },
        {
          "id": 338,
          "name": "tree_broadleaf",
          "type": "engineeria_object",
          "gid": 110,
          "x": 482,
          "y": 62,
          "width": 44,
          "height": 54,
          "rotation": 0,
          "visible": true
        },
        {
          "id": 339,
          "name": "tree_broadleaf",
          "type": "engineeria_object",
          "gid": 112,
          "x": 446,
          "y": 350,
          "width": 52,
          "height": 62,
          "rotation": 0,
          "visible": true
        },
        {
          "id": 340,
          "name": "tree_broadleaf",
          "type": "engineeria_object",
          "gid": 108,
          "x": 450,
          "y": 798,
          "width": 44,
          "height": 54,
          "rotation": 0,
          "visible": true
        },
        {
          "id": 341,
          "name": "tree_broadleaf",
          "type": "engineeria_object",
          "gid": 108,
          "x": 210,
          "y": 446,
          "width": 44,
          "height": 54,
          "rotation": 0,
          "visible": true
        },
        {
          "id": 342,
          "name": "tree_broadleaf",
          "type": "engineeria_object",
          "gid": 112,
          "x": 1246,
          "y": 942,
          "width": 52,
          "height": 62,
          "rotation": 0,
          "visible": true
        },
        {
          "id": 343,
          "name": "tree_broadleaf",
          "type": "engineeria_object",
          "gid": 112,
          "x": 398,
          "y": 94,
          "width": 52,
          "height": 62,
          "rotation": 0,
          "visible": true
        },
        {
          "id": 344,
          "name": "tree_broadleaf",
          "type": "engineeria_object",
          "gid": 110,
          "x": 546,
          "y": 1102,
          "width": 44,
          "height": 54,
          "rotation": 0,
          "visible": true
        },
        {
          "id": 345,
          "name": "tree_broadleaf",
          "type": "engineeria_object",
          "gid": 110,
          "x": 1426,
          "y": 846,
          "width": 44,
          "height": 54,
          "rotation": 0,
          "visible": true
        },
        {
          "id": 346,
          "name": "tree_broadleaf",
          "type": "engineeria_object",
          "gid": 112,
          "x": 654,
          "y": 878,
          "width": 52,
          "height": 62,
          "rotation": 0,
          "visible": true
        },
        {
          "id": 347,
          "name": "bush",
          "type": "engineeria_object",
          "gid": 114,
          "x": 989,
          "y": 1022,
          "width": 22,
          "height": 16,
          "rotation": 0,
          "visible": true
        },
        {
          "id": 348,
          "name": "bush",
          "type": "engineeria_object",
          "gid": 116,
          "x": 1277,
          "y": 942,
          "width": 22,
          "height": 16,
          "rotation": 0,
          "visible": true
        },
        {
          "id": 349,
          "name": "fallen_log",
          "type": "engineeria_object",
          "gid": 106,
          "x": 1260,
          "y": 653,
          "width": 40,
          "height": 14,
          "rotation": 0,
          "visible": true
        },
        {
          "id": 350,
          "name": "fallen_log",
          "type": "engineeria_object",
          "gid": 106,
          "x": 140,
          "y": 621,
          "width": 40,
          "height": 14,
          "rotation": 0,
          "visible": true
        },
        {
          "id": 351,
          "name": "fallen_log",
          "type": "engineeria_object",
          "gid": 106,
          "x": 940,
          "y": 989,
          "width": 40,
          "height": 14,
          "rotation": 0,
          "visible": true
        },
        {
          "id": 352,
          "name": "fern",
          "type": "engineeria_object",
          "gid": 105,
          "x": 577,
          "y": 892,
          "width": 14,
          "height": 12,
          "rotation": 0,
          "visible": true
        },
        {
          "id": 353,
          "name": "fern",
          "type": "engineeria_object",
          "gid": 105,
          "x": 209,
          "y": 252,
          "width": 14,
          "height": 12,
          "rotation": 0,
          "visible": true
        },
        {
          "id": 354,
          "name": "bush",
          "type": "engineeria_object",
          "gid": 114,
          "x": 173,
          "y": 638,
          "width": 22,
          "height": 16,
          "rotation": 0,
          "visible": true
        },
        {
          "id": 355,
          "name": "fern",
          "type": "engineeria_object",
          "gid": 105,
          "x": 1137,
          "y": 508,
          "width": 14,
          "height": 12,
          "rotation": 0,
          "visible": true
        },
        {
          "id": 356,
          "name": "fern",
          "type": "engineeria_object",
          "gid": 105,
          "x": 993,
          "y": 956,
          "width": 14,
          "height": 12,
          "rotation": 0,
          "visible": true
        },
        {
          "id": 357,
          "name": "fern",
          "type": "engineeria_object",
          "gid": 105,
          "x": 577,
          "y": 268,
          "width": 14,
          "height": 12,
          "rotation": 0,
          "visible": true
        },
        {
          "id": 358,
          "name": "bush",
          "type": "engineeria_object",
          "gid": 114,
          "x": 1277,
          "y": 782,
          "width": 22,
          "height": 16,
          "rotation": 0,
          "visible": true
        },
        {
          "id": 359,
          "name": "fallen_log",
          "type": "engineeria_object",
          "gid": 106,
          "x": 1420,
          "y": 1101,
          "width": 40,
          "height": 14,
          "rotation": 0,
          "visible": true
        },
        {
          "id": 360,
          "name": "bush",
          "type": "engineeria_object",
          "gid": 114,
          "x": 1181,
          "y": 750,
          "width": 22,
          "height": 16,
          "rotation": 0,
          "visible": true
        },
        {
          "id": 361,
          "name": "bush",
          "type": "engineeria_object",
          "gid": 114,
          "x": 781,
          "y": 702,
          "width": 22,
          "height": 16,
          "rotation": 0,
          "visible": true
        },
        {
          "id": 362,
          "name": "fern",
          "type": "engineeria_object",
          "gid": 105,
          "x": 977,
          "y": 492,
          "width": 14,
          "height": 12,
          "rotation": 0,
          "visible": true
        },
        {
          "id": 363,
          "name": "fallen_log",
          "type": "engineeria_object",
          "gid": 106,
          "x": 236,
          "y": 93,
          "width": 40,
          "height": 14,
          "rotation": 0,
          "visible": true
        },
        {
          "id": 364,
          "name": "fallen_log",
          "type": "engineeria_object",
          "gid": 106,
          "x": 828,
          "y": 413,
          "width": 40,
          "height": 14,
          "rotation": 0,
          "visible": true
        },
        {
          "id": 365,
          "name": "bush",
          "type": "engineeria_object",
          "gid": 114,
          "x": 557,
          "y": 174,
          "width": 22,
          "height": 16,
          "rotation": 0,
          "visible": true
        },
        {
          "id": 366,
          "name": "fallen_log",
          "type": "engineeria_object",
          "gid": 106,
          "x": 700,
          "y": 1069,
          "width": 40,
          "height": 14,
          "rotation": 0,
          "visible": true
        },
        {
          "id": 367,
          "name": "fern",
          "type": "engineeria_object",
          "gid": 105,
          "x": 385,
          "y": 604,
          "width": 14,
          "height": 12,
          "rotation": 0,
          "visible": true
        },
        {
          "id": 368,
          "name": "fern",
          "type": "engineeria_object",
          "gid": 105,
          "x": 785,
          "y": 556,
          "width": 14,
          "height": 12,
          "rotation": 0,
          "visible": true
        },
        {
          "id": 369,
          "name": "fern",
          "type": "engineeria_object",
          "gid": 105,
          "x": 977,
          "y": 972,
          "width": 14,
          "height": 12,
          "rotation": 0,
          "visible": true
        },
        {
          "id": 370,
          "name": "fern",
          "type": "engineeria_object",
          "gid": 105,
          "x": 177,
          "y": 1100,
          "width": 14,
          "height": 12,
          "rotation": 0,
          "visible": true
        },
        {
          "id": 371,
          "name": "bush",
          "type": "engineeria_object",
          "gid": 114,
          "x": 701,
          "y": 750,
          "width": 22,
          "height": 16,
          "rotation": 0,
          "visible": true
        },
        {
          "id": 372,
          "name": "bush",
          "type": "engineeria_object",
          "gid": 116,
          "x": 1309,
          "y": 1054,
          "width": 22,
          "height": 16,
          "rotation": 0,
          "visible": true
        },
        {
          "id": 373,
          "name": "fern",
          "type": "engineeria_object",
          "gid": 105,
          "x": 497,
          "y": 268,
          "width": 14,
          "height": 12,
          "rotation": 0,
          "visible": true
        },
        {
          "id": 374,
          "name": "fern",
          "type": "engineeria_object",
          "gid": 105,
          "x": 145,
          "y": 620,
          "width": 14,
          "height": 12,
          "rotation": 0,
          "visible": true
        },
        {
          "id": 375,
          "name": "bush",
          "type": "engineeria_object",
          "gid": 116,
          "x": 1181,
          "y": 686,
          "width": 22,
          "height": 16,
          "rotation": 0,
          "visible": true
        },
        {
          "id": 376,
          "name": "fallen_log",
          "type": "engineeria_object",
          "gid": 106,
          "x": 348,
          "y": 333,
          "width": 40,
          "height": 14,
          "rotation": 0,
          "visible": true
        },
        {
          "id": 377,
          "name": "bush",
          "type": "engineeria_object",
          "gid": 116,
          "x": 749,
          "y": 494,
          "width": 22,
          "height": 16,
          "rotation": 0,
          "visible": true
        },
        {
          "id": 378,
          "name": "fern",
          "type": "engineeria_object",
          "gid": 105,
          "x": 225,
          "y": 76,
          "width": 14,
          "height": 12,
          "rotation": 0,
          "visible": true
        },
        {
          "id": 379,
          "name": "fern",
          "type": "engineeria_object",
          "gid": 105,
          "x": 1185,
          "y": 1004,
          "width": 14,
          "height": 12,
          "rotation": 0,
          "visible": true
        },
        {
          "id": 380,
          "name": "bush",
          "type": "engineeria_object",
          "gid": 114,
          "x": 93,
          "y": 446,
          "width": 22,
          "height": 16,
          "rotation": 0,
          "visible": true
        },
        {
          "id": 381,
          "name": "fern",
          "type": "engineeria_object",
          "gid": 105,
          "x": 1457,
          "y": 684,
          "width": 14,
          "height": 12,
          "rotation": 0,
          "visible": true
        },
        {
          "id": 382,
          "name": "bush",
          "type": "engineeria_object",
          "gid": 116,
          "x": 157,
          "y": 510,
          "width": 22,
          "height": 16,
          "rotation": 0,
          "visible": true
        },
        {
          "id": 383,
          "name": "bush",
          "type": "engineeria_object",
          "gid": 114,
          "x": 1405,
          "y": 926,
          "width": 22,
          "height": 16,
          "rotation": 0,
          "visible": true
        },
        {
          "id": 384,
          "name": "fallen_log",
          "type": "engineeria_object",
          "gid": 106,
          "x": 156,
          "y": 573,
          "width": 40,
          "height": 14,
          "rotation": 0,
          "visible": true
        },
        {
          "id": 385,
          "name": "fern",
          "type": "engineeria_object",
          "gid": 105,
          "x": 1089,
          "y": 348,
          "width": 14,
          "height": 12,
          "rotation": 0,
          "visible": true
        },
        {
          "id": 386,
          "name": "bush",
          "type": "engineeria_object",
          "gid": 116,
          "x": 509,
          "y": 510,
          "width": 22,
          "height": 16,
          "rotation": 0,
          "visible": true
        },
        {
          "id": 387,
          "name": "bush",
          "type": "engineeria_object",
          "gid": 116,
          "x": 1037,
          "y": 1022,
          "width": 22,
          "height": 16,
          "rotation": 0,
          "visible": true
        },
        {
          "id": 388,
          "name": "fern",
          "type": "engineeria_object",
          "gid": 105,
          "x": 1441,
          "y": 892,
          "width": 14,
          "height": 12,
          "rotation": 0,
          "visible": true
        },
        {
          "id": 389,
          "name": "fern",
          "type": "engineeria_object",
          "gid": 105,
          "x": 1025,
          "y": 1004,
          "width": 14,
          "height": 12,
          "rotation": 0,
          "visible": true
        },
        {
          "id": 390,
          "name": "fern",
          "type": "engineeria_object",
          "gid": 105,
          "x": 337,
          "y": 1100,
          "width": 14,
          "height": 12,
          "rotation": 0,
          "visible": true
        },
        {
          "id": 391,
          "name": "fern",
          "type": "engineeria_object",
          "gid": 105,
          "x": 417,
          "y": 412,
          "width": 14,
          "height": 12,
          "rotation": 0,
          "visible": true
        },
        {
          "id": 392,
          "name": "fallen_log",
          "type": "engineeria_object",
          "gid": 106,
          "x": 1052,
          "y": 1085,
          "width": 40,
          "height": 14,
          "rotation": 0,
          "visible": true
        },
        {
          "id": 393,
          "name": "fern",
          "type": "engineeria_object",
          "gid": 105,
          "x": 129,
          "y": 460,
          "width": 14,
          "height": 12,
          "rotation": 0,
          "visible": true
        },
        {
          "id": 394,
          "name": "fern",
          "type": "engineeria_object",
          "gid": 105,
          "x": 177,
          "y": 316,
          "width": 14,
          "height": 12,
          "rotation": 0,
          "visible": true
        },
        {
          "id": 395,
          "name": "bush",
          "type": "engineeria_object",
          "gid": 114,
          "x": 61,
          "y": 478,
          "width": 22,
          "height": 16,
          "rotation": 0,
          "visible": true
        },
        {
          "id": 396,
          "name": "bush",
          "type": "engineeria_object",
          "gid": 116,
          "x": 813,
          "y": 78,
          "width": 22,
          "height": 16,
          "rotation": 0,
          "visible": true
        },
        {
          "id": 397,
          "name": "fern",
          "type": "engineeria_object",
          "gid": 105,
          "x": 1473,
          "y": 204,
          "width": 14,
          "height": 12,
          "rotation": 0,
          "visible": true
        },
        {
          "id": 398,
          "name": "fallen_log",
          "type": "engineeria_object",
          "gid": 106,
          "x": 428,
          "y": 237,
          "width": 40,
          "height": 14,
          "rotation": 0,
          "visible": true
        },
        {
          "id": 399,
          "name": "fern",
          "type": "engineeria_object",
          "gid": 105,
          "x": 1233,
          "y": 364,
          "width": 14,
          "height": 12,
          "rotation": 0,
          "visible": true
        },
        {
          "id": 400,
          "name": "fern",
          "type": "engineeria_object",
          "gid": 105,
          "x": 1361,
          "y": 620,
          "width": 14,
          "height": 12,
          "rotation": 0,
          "visible": true
        },
        {
          "id": 401,
          "name": "fallen_log",
          "type": "engineeria_object",
          "gid": 106,
          "x": 108,
          "y": 797,
          "width": 40,
          "height": 14,
          "rotation": 0,
          "visible": true
        },
        {
          "id": 402,
          "name": "bush",
          "type": "engineeria_object",
          "gid": 116,
          "x": 1261,
          "y": 670,
          "width": 22,
          "height": 16,
          "rotation": 0,
          "visible": true
        },
        {
          "id": 403,
          "name": "fern",
          "type": "engineeria_object",
          "gid": 105,
          "x": 1409,
          "y": 380,
          "width": 14,
          "height": 12,
          "rotation": 0,
          "visible": true
        },
        {
          "id": 404,
          "name": "fern",
          "type": "engineeria_object",
          "gid": 105,
          "x": 1457,
          "y": 956,
          "width": 14,
          "height": 12,
          "rotation": 0,
          "visible": true
        },
        {
          "id": 405,
          "name": "fern",
          "type": "engineeria_object",
          "gid": 105,
          "x": 81,
          "y": 428,
          "width": 14,
          "height": 12,
          "rotation": 0,
          "visible": true
        },
        {
          "id": 406,
          "name": "fern",
          "type": "engineeria_object",
          "gid": 105,
          "x": 513,
          "y": 1068,
          "width": 14,
          "height": 12,
          "rotation": 0,
          "visible": true
        },
        {
          "id": 407,
          "name": "bush",
          "type": "engineeria_object",
          "gid": 116,
          "x": 893,
          "y": 446,
          "width": 22,
          "height": 16,
          "rotation": 0,
          "visible": true
        },
        {
          "id": 408,
          "name": "bush",
          "type": "engineeria_object",
          "gid": 114,
          "x": 733,
          "y": 718,
          "width": 22,
          "height": 16,
          "rotation": 0,
          "visible": true
        },
        {
          "id": 409,
          "name": "fern",
          "type": "engineeria_object",
          "gid": 105,
          "x": 225,
          "y": 716,
          "width": 14,
          "height": 12,
          "rotation": 0,
          "visible": true
        },
        {
          "id": 410,
          "name": "fern",
          "type": "engineeria_object",
          "gid": 105,
          "x": 641,
          "y": 860,
          "width": 14,
          "height": 12,
          "rotation": 0,
          "visible": true
        },
        {
          "id": 411,
          "name": "fern",
          "type": "engineeria_object",
          "gid": 105,
          "x": 257,
          "y": 652,
          "width": 14,
          "height": 12,
          "rotation": 0,
          "visible": true
        },
        {
          "id": 412,
          "name": "fern",
          "type": "engineeria_object",
          "gid": 105,
          "x": 881,
          "y": 812,
          "width": 14,
          "height": 12,
          "rotation": 0,
          "visible": true
        },
        {
          "id": 413,
          "name": "bush",
          "type": "engineeria_object",
          "gid": 116,
          "x": 157,
          "y": 158,
          "width": 22,
          "height": 16,
          "rotation": 0,
          "visible": true
        },
        {
          "id": 414,
          "name": "fern",
          "type": "engineeria_object",
          "gid": 105,
          "x": 113,
          "y": 620,
          "width": 14,
          "height": 12,
          "rotation": 0,
          "visible": true
        },
        {
          "id": 415,
          "name": "fern",
          "type": "engineeria_object",
          "gid": 105,
          "x": 529,
          "y": 844,
          "width": 14,
          "height": 12,
          "rotation": 0,
          "visible": true
        },
        {
          "id": 416,
          "name": "fern",
          "type": "engineeria_object",
          "gid": 105,
          "x": 1249,
          "y": 1068,
          "width": 14,
          "height": 12,
          "rotation": 0,
          "visible": true
        },
        {
          "id": 417,
          "name": "fern",
          "type": "engineeria_object",
          "gid": 105,
          "x": 833,
          "y": 716,
          "width": 14,
          "height": 12,
          "rotation": 0,
          "visible": true
        },
        {
          "id": 418,
          "name": "fallen_log",
          "type": "engineeria_object",
          "gid": 106,
          "x": 252,
          "y": 61,
          "width": 40,
          "height": 14,
          "rotation": 0,
          "visible": true
        },
        {
          "id": 419,
          "name": "fern",
          "type": "engineeria_object",
          "gid": 105,
          "x": 929,
          "y": 268,
          "width": 14,
          "height": 12,
          "rotation": 0,
          "visible": true
        },
        {
          "id": 420,
          "name": "bush",
          "type": "engineeria_object",
          "gid": 114,
          "x": 861,
          "y": 1006,
          "width": 22,
          "height": 16,
          "rotation": 0,
          "visible": true
        },
        {
          "id": 421,
          "name": "fern",
          "type": "engineeria_object",
          "gid": 105,
          "x": 833,
          "y": 428,
          "width": 14,
          "height": 12,
          "rotation": 0,
          "visible": true
        },
        {
          "id": 422,
          "name": "fern",
          "type": "engineeria_object",
          "gid": 105,
          "x": 1201,
          "y": 268,
          "width": 14,
          "height": 12,
          "rotation": 0,
          "visible": true
        },
        {
          "id": 423,
          "name": "bush",
          "type": "engineeria_object",
          "gid": 116,
          "x": 1261,
          "y": 1054,
          "width": 22,
          "height": 16,
          "rotation": 0,
          "visible": true
        },
        {
          "id": 424,
          "name": "fern",
          "type": "engineeria_object",
          "gid": 105,
          "x": 1473,
          "y": 860,
          "width": 14,
          "height": 12,
          "rotation": 0,
          "visible": true
        },
        {
          "id": 425,
          "name": "fallen_log",
          "type": "engineeria_object",
          "gid": 106,
          "x": 332,
          "y": 109,
          "width": 40,
          "height": 14,
          "rotation": 0,
          "visible": true
        },
        {
          "id": 426,
          "name": "fallen_log",
          "type": "engineeria_object",
          "gid": 106,
          "x": 604,
          "y": 733,
          "width": 40,
          "height": 14,
          "rotation": 0,
          "visible": true
        },
        {
          "id": 427,
          "name": "bush",
          "type": "engineeria_object",
          "gid": 114,
          "x": 1389,
          "y": 1070,
          "width": 22,
          "height": 16,
          "rotation": 0,
          "visible": true
        },
        {
          "id": 428,
          "name": "fern",
          "type": "engineeria_object",
          "gid": 105,
          "x": 321,
          "y": 460,
          "width": 14,
          "height": 12,
          "rotation": 0,
          "visible": true
        },
        {
          "id": 429,
          "name": "fern",
          "type": "engineeria_object",
          "gid": 105,
          "x": 801,
          "y": 556,
          "width": 14,
          "height": 12,
          "rotation": 0,
          "visible": true
        },
        {
          "id": 430,
          "name": "fern",
          "type": "engineeria_object",
          "gid": 105,
          "x": 1393,
          "y": 828,
          "width": 14,
          "height": 12,
          "rotation": 0,
          "visible": true
        },
        {
          "id": 431,
          "name": "fallen_log",
          "type": "engineeria_object",
          "gid": 106,
          "x": 492,
          "y": 1021,
          "width": 40,
          "height": 14,
          "rotation": 0,
          "visible": true
        },
        {
          "id": 432,
          "name": "bush",
          "type": "engineeria_object",
          "gid": 114,
          "x": 1005,
          "y": 238,
          "width": 22,
          "height": 16,
          "rotation": 0,
          "visible": true
        },
        {
          "id": 433,
          "name": "fern",
          "type": "engineeria_object",
          "gid": 105,
          "x": 609,
          "y": 236,
          "width": 14,
          "height": 12,
          "rotation": 0,
          "visible": true
        }
      ]
    }
  ],
  "tilesets": [
    {
      "firstgid": 1,
      "source": "engineeria_terrain.tsj"
    },
    {
      "firstgid": 100,
      "source": "engineeria_objects.tsj"
    }
  ]
}
